; generated by PrusaSlicer 2.7.2+win64 on 2024-03-14 at 19:32:15 UTC

; 

; external perimeters extrusion width = 4.00mm
; perimeters extrusion width = 4.00mm
; infill extrusion width = 4.00mm
; solid infill extrusion width = 4.00mm
; top infill extrusion width = 4.00mm
; first layer extrusion width = 0.70mm

M104 S200 ; set temperature
;TYPE:Custom
G28 ; home all axes
G1 Z5 F5000 ; lift nozzle
M109 S200 ; set temperature and wait for it to be reached
G21 ; set units to millimeters
G90 ; use absolute coordinates
M82 ; use absolute distances for extrusion
G92 E0
; Filament gcode
M107
;LAYER_CHANGE
;Z:0.35
;HEIGHT:0.35
G1 E-2 F2400
G1 Z.35 F7800
G1 X-4.208 Y-4.987
G1 E0 F2400
;TYPE:Skirt/Brim
;WIDTH:0.7
G1 F1800
G1 X-3.332 Y-5.726 E.10421
G1 X-1.18 Y-6.519 E.31275
G1 X0 Y-6.625 E.42048
G1 X120 Y-6.625 E11.33203
G1 X122.259 Y-6.228 E11.54059
G1 X124.247 Y-5.085 E11.74911
G1 X125.726 Y-3.332 E11.95766
G1 X126.519 Y-1.18 E12.1662
G1 X126.625 Y0 E12.27393
G1 X126.625 Y50 E16.82041
G1 X126.228 Y52.259 E17.02897
G1 X125.085 Y54.247 E17.23749
G1 X123.332 Y55.726 E17.44604
G1 X121.18 Y56.519 E17.65458
G1 X120 Y56.625 E17.76231
G1 X0 Y56.625 E28.67386
G1 X-2.259 Y56.228 E28.88242
G1 X-4.247 Y55.085 E29.09094
G1 X-5.726 Y53.332 E29.29949
G1 X-6.519 Y51.18 E29.50803
G1 X-6.625 Y50 E29.61576
G1 X-6.625 Y0 E34.16224
G1 X-6.228 Y-2.259 E34.3708
G1 X-5.261 Y-3.941 E34.54722
G1 E32.54722 F2400
G92 E0
G1 X-5.261 Y-3.941 F7800
G1 X119.65 Y49.65
G1 E2 F2400
;TYPE:External perimeter
;WIDTH:0.7
G1 F1800
G1 X.35 Y49.65 E12.84789
G1 X.35 Y.35 E17.33072
G1 X119.65 Y.35 E28.17861
G1 X119.65 Y25 E30.42002
G1 X119.65 Y48.15 E32.52504
G1 E30.52504 F2400
G92 E0
G1 X119.315 Y7.963 F7800
G1 E2 F2400
;TYPE:Internal infill
;WIDTH:0.7
G1 F1800
G1 X113.644 Y2.292 E2.72926
G1 X108.554 Y2.292 E3.19209
G1 X117.708 Y11.446 E4.36924
G1 X117.708 Y16.536 E4.83207
G1 X103.464 Y2.292 E6.66376
G1 X98.373 Y2.292 E7.12668
G1 X117.708 Y21.627 E9.61304
G1 X117.708 Y26.717 E10.07587
G1 X93.283 Y2.292 E13.21677
G1 X88.193 Y2.292 E13.6796
G1 X117.708 Y31.807 E17.47505
G1 X117.708 Y36.897 E17.93788
G1 X83.103 Y2.292 E22.38787
G1 X78.013 Y2.292 E22.8507
G1 X117.708 Y41.987 E27.95523
G1 X117.708 Y47.077 E28.41806
G1 X72.923 Y2.292 E34.17714
G1 X67.832 Y2.292 E34.64006
G1 X113.249 Y47.708 E40.48034
G1 X108.159 Y47.708 E40.94317
G1 X62.742 Y2.292 E46.78345
G1 X57.652 Y2.292 E47.24628
G1 X103.069 Y47.708 E53.08656
G1 X97.979 Y47.708 E53.54939
G1 X52.562 Y2.292 E59.38967
G1 X47.472 Y2.292 E59.8525
G1 X92.889 Y47.708 E65.69278
G1 X87.798 Y47.708 E66.1557
G1 X42.382 Y2.292 E71.99592
G1 X37.292 Y2.292 E72.45875
G1 X82.708 Y47.708 E78.29897
G1 X77.618 Y47.708 E78.7618
G1 X32.201 Y2.292 E84.60208
G1 X27.111 Y2.292 E85.06491
G1 X72.528 Y47.708 E90.90519
G1 X67.438 Y47.708 E91.36802
G1 X22.021 Y2.292 E97.2083
G1 X16.931 Y2.292 E97.67113
G1 X62.348 Y47.708 E103.51141
G1 X57.258 Y47.708 E103.97424
G1 X11.841 Y2.292 E109.81452
G1 X6.751 Y2.292 E110.27735
G1 X52.167 Y47.708 E116.11757
G1 X47.077 Y47.708 E116.5804
G1 X2.292 Y2.923 E122.33948
G1 X2.292 Y8.013 E122.80231
G1 X41.987 Y47.708 E127.90684
G1 X36.897 Y47.708 E128.36967
G1 X2.292 Y13.103 E132.81966
G1 X2.292 Y18.193 E133.28249
G1 X31.807 Y47.708 E137.07794
G1 X26.717 Y47.708 E137.54077
G1 X2.292 Y23.283 E140.68167
G1 X2.292 Y28.374 E141.14459
G1 X21.626 Y47.708 E143.63082
G1 X16.536 Y47.708 E144.09365
G1 X2.292 Y33.464 E145.92534
G1 X2.292 Y38.554 E146.38817
G1 X11.446 Y47.708 E147.56532
G1 X6.356 Y47.708 E148.02815
G1 X.685 Y42.037 E148.75741
;LAYER_CHANGE
;Z:2.35
;HEIGHT:2
G1 Z2.35 F7800
G1 E146.75741 F2400
G1 Z2.35 F7800
G1 X118 Y48
G1 E148.75741 F2400
;TYPE:External perimeter
;WIDTH:4
G1 F1800
G1 X2 Y48 E493.17637
G1 X2 Y2 E629.7563
G1 X118 Y2 E974.17526
G1 X118 Y25 E1042.46523
G1 X118 Y46.5 E1106.3015
G1 E1104.3015 F2400
G92 E0
G1 X109.62 Y46.929 F7800
G1 E2 F2400
;TYPE:Internal infill
;WIDTH:4
G1 F4800
G1 X115.322 Y41.227 E25.9426
G1 X115.322 Y36.116 E41.11782
G1 X106.116 Y45.322 E79.77365
G1 X101.005 Y45.322 E94.94887
G1 X115.322 Y31.005 E155.06571
G1 X115.322 Y25.895 E170.23796
G1 X95.895 Y45.322 E251.8116
G1 X90.784 Y45.322 E266.98682
G1 X115.322 Y20.784 E370.02146
G1 X115.322 Y15.674 E385.19371
G1 X85.674 Y45.322 E509.68515
G1 X80.563 Y45.322 E524.86037
G1 X115.322 Y10.563 E670.81281
G1 X115.322 Y5.452 E685.98803
G1 X75.452 Y45.322 E853.40147
G1 X70.342 Y45.322 E868.57372
G1 X110.986 Y4.678 E1039.23717
G1 X105.875 Y4.678 E1054.41239
G1 X65.231 Y45.322 E1225.07584
G1 X60.121 Y45.322 E1240.24809
G1 X100.764 Y4.678 E1410.90944
G1 X95.654 Y4.678 E1426.08169
G1 X55.01 Y45.322 E1596.74514
G1 X49.899 Y45.322 E1611.92036
G1 X90.543 Y4.678 E1782.58381
G1 X85.432 Y4.678 E1797.75903
G1 X44.789 Y45.322 E1968.42038
G1 X39.678 Y45.322 E1983.5956
G1 X80.322 Y4.678 E2154.25905
G1 X75.211 Y4.678 E2169.43427
G1 X34.567 Y45.322 E2340.09772
G1 X29.457 Y45.322 E2355.26997
G1 X70.101 Y4.678 E2525.93342
G1 X64.99 Y4.678 E2541.10864
G1 X24.346 Y45.322 E2711.77209
G1 X19.236 Y45.322 E2726.94434
G1 X59.879 Y4.678 E2897.60569
G1 X54.769 Y4.678 E2912.77794
G1 X14.125 Y45.322 E3083.44139
G1 X9.014 Y45.322 E3098.61661
G1 X49.658 Y4.678 E3269.28006
G1 X44.548 Y4.678 E3284.45231
G1 X4.678 Y44.548 E3451.86575
G1 X4.678 Y39.437 E3467.04097
G1 X39.437 Y4.678 E3612.99341
G1 X34.326 Y4.678 E3628.16863
G1 X4.678 Y34.326 E3752.66007
G1 X4.678 Y29.216 E3767.83232
G1 X29.216 Y4.678 E3870.86696
G1 X24.105 Y4.678 E3886.04218
G1 X4.678 Y24.105 E3967.61582
G1 X4.678 Y18.994 E3982.79104
G1 X18.994 Y4.678 E4042.90368
G1 X13.884 Y4.678 E4058.07593
G1 X4.678 Y13.884 E4096.73176
G1 X4.678 Y8.773 E4111.90698
G1 X10.38 Y3.071 E4135.84958
;LAYER_CHANGE
;Z:4.35
;HEIGHT:2
G1 Z4.35 F7800
G1 E4133.84958 F2400
G1 Z4.35 F7800
G1 X118 Y48
G1 E4135.84958 F2400
;TYPE:External perimeter
;WIDTH:4
G1 F1800
G1 X2 Y48 E4480.26854
G1 X2 Y2 E4616.84847
G1 X118 Y2 E4961.26743
G1 X118 Y25 E5029.5574
G1 X118 Y46.5 E5093.39367
G1 E5091.39367 F2400
G92 E0
G1 X116.929 Y10.38 F7800
G1 E2 F2400
;TYPE:Internal infill
;WIDTH:4
G1 F4800
G1 X111.227 Y4.678 E25.9426
G1 X106.116 Y4.678 E41.11782
G1 X115.322 Y13.884 E79.77365
G1 X115.322 Y18.995 E94.94887
G1 X101.005 Y4.678 E155.06571
G1 X95.895 Y4.678 E170.23796
G1 X115.322 Y24.105 E251.8116
G1 X115.322 Y29.216 E266.98682
G1 X90.784 Y4.678 E370.02146
G1 X85.674 Y4.678 E385.19371
G1 X115.322 Y34.326 E509.68515
G1 X115.322 Y39.437 E524.86037
G1 X80.563 Y4.678 E670.81281
G1 X75.452 Y4.678 E685.98803
G1 X115.322 Y44.548 E853.40147
G1 X115.322 Y45.322 E855.69958
G1 X110.986 Y45.322 E868.57372
G1 X70.342 Y4.678 E1039.23717
G1 X65.231 Y4.678 E1054.41239
G1 X105.875 Y45.322 E1225.07584
G1 X100.764 Y45.322 E1240.25106
G1 X60.121 Y4.678 E1410.91241
G1 X55.01 Y4.678 E1426.08763
G1 X95.654 Y45.322 E1596.75108
G1 X90.543 Y45.322 E1611.9263
G1 X49.899 Y4.678 E1782.58975
G1 X44.789 Y4.678 E1797.762
G1 X85.432 Y45.322 E1968.42335
G1 X80.322 Y45.322 E1983.5956
G1 X39.678 Y4.678 E2154.25905
G1 X34.567 Y4.678 E2169.43427
G1 X75.211 Y45.322 E2340.09772
G1 X70.101 Y45.322 E2355.26997
G1 X29.457 Y4.678 E2525.93342
G1 X24.346 Y4.678 E2541.10864
G1 X64.99 Y45.322 E2711.77209
G1 X59.879 Y45.322 E2726.94731
G1 X19.236 Y4.678 E2897.60866
G1 X14.125 Y4.678 E2912.78388
G1 X54.769 Y45.322 E3083.44733
G1 X49.658 Y45.322 E3098.62255
G1 X9.014 Y4.678 E3269.286
G1 X4.678 Y4.678 E3282.16014
G1 X4.678 Y5.452 E3284.45825
G1 X44.548 Y45.322 E3451.87169
G1 X39.437 Y45.322 E3467.04691
G1 X4.678 Y10.563 E3612.99935
G1 X4.678 Y15.674 E3628.17457
G1 X34.326 Y45.322 E3752.66601
G1 X29.216 Y45.322 E3767.83826
G1 X4.678 Y20.784 E3870.8729
G1 X4.678 Y25.895 E3886.04812
G1 X24.105 Y45.322 E3967.62176
G1 X18.994 Y45.322 E3982.79698
G1 X4.678 Y31.006 E4042.90962
G1 X4.678 Y36.116 E4058.08187
G1 X13.884 Y45.322 E4096.7377
G1 X8.773 Y45.322 E4111.91292
G1 X3.071 Y39.62 E4135.85552
M106 S181.05
;LAYER_CHANGE
;Z:6.35
;HEIGHT:2
G1 Z6.35 F7800
G1 E4133.85552 F2400
G1 Z6.35 F7800
G1 X118 Y48
G1 E4135.85552 F2400
;TYPE:External perimeter
;WIDTH:4
G1 F1800
G1 X2 Y48 E4480.27448
G1 X2 Y2 E4616.85441
G1 X118 Y2 E4961.27337
G1 X118 Y25 E5029.56334
G1 X118 Y46.5 E5093.39961
G1 E5091.39961 F2400
G92 E0
G1 X109.62 Y46.929 F7800
G1 E2 F2400
;TYPE:Internal infill
;WIDTH:4
G1 F4800
G1 X115.322 Y41.227 E25.9426
G1 X115.322 Y36.116 E41.11782
G1 X106.116 Y45.322 E79.77365
G1 X101.005 Y45.322 E94.94887
G1 X115.322 Y31.005 E155.06571
G1 X115.322 Y25.895 E170.23796
G1 X95.895 Y45.322 E251.8116
G1 X90.784 Y45.322 E266.98682
G1 X115.322 Y20.784 E370.02146
G1 X115.322 Y15.674 E385.19371
G1 X85.674 Y45.322 E509.68515
G1 X80.563 Y45.322 E524.86037
G1 X115.322 Y10.563 E670.81281
G1 X115.322 Y5.452 E685.98803
G1 X75.452 Y45.322 E853.40147
G1 X70.342 Y45.322 E868.57372
G1 X110.986 Y4.678 E1039.23717
G1 X105.875 Y4.678 E1054.41239
G1 X65.231 Y45.322 E1225.07584
G1 X60.121 Y45.322 E1240.24809
G1 X100.764 Y4.678 E1410.90944
G1 X95.654 Y4.678 E1426.08169
G1 X55.01 Y45.322 E1596.74514
G1 X49.899 Y45.322 E1611.92036
G1 X90.543 Y4.678 E1782.58381
G1 X85.432 Y4.678 E1797.75903
G1 X44.789 Y45.322 E1968.42038
G1 X39.678 Y45.322 E1983.5956
G1 X80.322 Y4.678 E2154.25905
G1 X75.211 Y4.678 E2169.43427
G1 X34.567 Y45.322 E2340.09772
G1 X29.457 Y45.322 E2355.26997
G1 X70.101 Y4.678 E2525.93342
G1 X64.99 Y4.678 E2541.10864
G1 X24.346 Y45.322 E2711.77209
G1 X19.236 Y45.322 E2726.94434
G1 X59.879 Y4.678 E2897.60569
G1 X54.769 Y4.678 E2912.77794
G1 X14.125 Y45.322 E3083.44139
G1 X9.014 Y45.322 E3098.61661
G1 X49.658 Y4.678 E3269.28006
G1 X44.548 Y4.678 E3284.45231
G1 X4.678 Y44.548 E3451.86575
G1 X4.678 Y39.437 E3467.04097
G1 X39.437 Y4.678 E3612.99341
G1 X34.326 Y4.678 E3628.16863
G1 X4.678 Y34.326 E3752.66007
G1 X4.678 Y29.216 E3767.83232
G1 X29.216 Y4.678 E3870.86696
G1 X24.105 Y4.678 E3886.04218
G1 X4.678 Y24.105 E3967.61582
G1 X4.678 Y18.994 E3982.79104
G1 X18.994 Y4.678 E4042.90368
G1 X13.884 Y4.678 E4058.07593
G1 X4.678 Y13.884 E4096.73176
G1 X4.678 Y8.773 E4111.90698
G1 X10.38 Y3.071 E4135.84958
M106 S178.5
;LAYER_CHANGE
;Z:8.35
;HEIGHT:2
G1 Z8.35 F7800
G1 E4133.84958 F2400
G1 Z8.35 F7800
G1 X118 Y48
G1 E4135.84958 F2400
;TYPE:External perimeter
;WIDTH:4
G1 F1800
G1 X2 Y48 E4480.26854
G1 X2 Y2 E4616.84847
G1 X118 Y2 E4961.26743
G1 X118 Y25 E5029.5574
G1 X118 Y46.5 E5093.39367
G1 E5091.39367 F2400
G92 E0
G1 X116.929 Y10.38 F7800
G1 E2 F2400
;TYPE:Internal infill
;WIDTH:4
G1 F4800
G1 X111.227 Y4.678 E25.9426
G1 X106.116 Y4.678 E41.11782
G1 X115.322 Y13.884 E79.77365
G1 X115.322 Y18.995 E94.94887
G1 X101.005 Y4.678 E155.06571
G1 X95.895 Y4.678 E170.23796
G1 X115.322 Y24.105 E251.8116
G1 X115.322 Y29.216 E266.98682
G1 X90.784 Y4.678 E370.02146
G1 X85.674 Y4.678 E385.19371
G1 X115.322 Y34.326 E509.68515
G1 X115.322 Y39.437 E524.86037
G1 X80.563 Y4.678 E670.81281
G1 X75.452 Y4.678 E685.98803
G1 X115.322 Y44.548 E853.40147
G1 X115.322 Y45.322 E855.69958
G1 X110.986 Y45.322 E868.57372
G1 X70.342 Y4.678 E1039.23717
G1 X65.231 Y4.678 E1054.41239
G1 X105.875 Y45.322 E1225.07584
G1 X100.764 Y45.322 E1240.25106
G1 X60.121 Y4.678 E1410.91241
G1 X55.01 Y4.678 E1426.08763
G1 X95.654 Y45.322 E1596.75108
G1 X90.543 Y45.322 E1611.9263
G1 X49.899 Y4.678 E1782.58975
G1 X44.789 Y4.678 E1797.762
G1 X85.432 Y45.322 E1968.42335
G1 X80.322 Y45.322 E1983.5956
G1 X39.678 Y4.678 E2154.25905
G1 X34.567 Y4.678 E2169.43427
G1 X75.211 Y45.322 E2340.09772
G1 X70.101 Y45.322 E2355.26997
G1 X29.457 Y4.678 E2525.93342
G1 X24.346 Y4.678 E2541.10864
G1 X64.99 Y45.322 E2711.77209
G1 X59.879 Y45.322 E2726.94731
G1 X19.236 Y4.678 E2897.60866
G1 X14.125 Y4.678 E2912.78388
G1 X54.769 Y45.322 E3083.44733
G1 X49.658 Y45.322 E3098.62255
G1 X9.014 Y4.678 E3269.286
G1 X4.678 Y4.678 E3282.16014
G1 X4.678 Y5.452 E3284.45825
G1 X44.548 Y45.322 E3451.87169
G1 X39.437 Y45.322 E3467.04691
G1 X4.678 Y10.563 E3612.99935
G1 X4.678 Y15.674 E3628.17457
G1 X34.326 Y45.322 E3752.66601
G1 X29.216 Y45.322 E3767.83826
G1 X4.678 Y20.784 E3870.8729
G1 X4.678 Y25.895 E3886.04812
G1 X24.105 Y45.322 E3967.62176
G1 X18.994 Y45.322 E3982.79698
G1 X4.678 Y31.006 E4042.90962
G1 X4.678 Y36.116 E4058.08187
G1 X13.884 Y45.322 E4096.7377
G1 X8.773 Y45.322 E4111.91292
G1 X3.071 Y39.62 E4135.85552
M106 S181.05
;LAYER_CHANGE
;Z:10.35
;HEIGHT:2
G1 Z10.35 F7800
G1 E4133.85552 F2400
G1 Z10.35 F7800
G1 X118 Y48
G1 E4135.85552 F2400
;TYPE:External perimeter
;WIDTH:4
G1 F1800
G1 X2 Y48 E4480.27448
G1 X2 Y2 E4616.85441
G1 X118 Y2 E4961.27337
G1 X118 Y25 E5029.56334
G1 X118 Y46.5 E5093.39961
G1 E5091.39961 F2400
G92 E0
G1 X109.62 Y46.929 F7800
G1 E2 F2400
;TYPE:Internal infill
;WIDTH:4
G1 F4800
G1 X115.322 Y41.227 E25.9426
G1 X115.322 Y36.116 E41.11782
G1 X106.116 Y45.322 E79.77365
G1 X101.005 Y45.322 E94.94887
G1 X115.322 Y31.005 E155.06571
G1 X115.322 Y25.895 E170.23796
G1 X95.895 Y45.322 E251.8116
G1 X90.784 Y45.322 E266.98682
G1 X115.322 Y20.784 E370.02146
G1 X115.322 Y15.674 E385.19371
G1 X85.674 Y45.322 E509.68515
G1 X80.563 Y45.322 E524.86037
G1 X115.322 Y10.563 E670.81281
G1 X115.322 Y5.452 E685.98803
G1 X75.452 Y45.322 E853.40147
G1 X70.342 Y45.322 E868.57372
G1 X110.986 Y4.678 E1039.23717
G1 X105.875 Y4.678 E1054.41239
G1 X65.231 Y45.322 E1225.07584
G1 X60.121 Y45.322 E1240.24809
G1 X100.764 Y4.678 E1410.90944
G1 X95.654 Y4.678 E1426.08169
G1 X55.01 Y45.322 E1596.74514
G1 X49.899 Y45.322 E1611.92036
G1 X90.543 Y4.678 E1782.58381
G1 X85.432 Y4.678 E1797.75903
G1 X44.789 Y45.322 E1968.42038
G1 X39.678 Y45.322 E1983.5956
G1 X80.322 Y4.678 E2154.25905
G1 X75.211 Y4.678 E2169.43427
G1 X34.567 Y45.322 E2340.09772
G1 X29.457 Y45.322 E2355.26997
G1 X70.101 Y4.678 E2525.93342
G1 X64.99 Y4.678 E2541.10864
G1 X24.346 Y45.322 E2711.77209
G1 X19.236 Y45.322 E2726.94434
G1 X59.879 Y4.678 E2897.60569
G1 X54.769 Y4.678 E2912.77794
G1 X14.125 Y45.322 E3083.44139
G1 X9.014 Y45.322 E3098.61661
G1 X49.658 Y4.678 E3269.28006
G1 X44.548 Y4.678 E3284.45231
G1 X4.678 Y44.548 E3451.86575
G1 X4.678 Y39.437 E3467.04097
G1 X39.437 Y4.678 E3612.99341
G1 X34.326 Y4.678 E3628.16863
G1 X4.678 Y34.326 E3752.66007
G1 X4.678 Y29.216 E3767.83232
G1 X29.216 Y4.678 E3870.86696
G1 X24.105 Y4.678 E3886.04218
G1 X4.678 Y24.105 E3967.61582
G1 X4.678 Y18.994 E3982.79104
G1 X18.994 Y4.678 E4042.90368
G1 X13.884 Y4.678 E4058.07593
G1 X4.678 Y13.884 E4096.73176
G1 X4.678 Y8.773 E4111.90698
G1 X10.38 Y3.071 E4135.84958
M106 S178.5
;LAYER_CHANGE
;Z:12.35
;HEIGHT:2
G1 Z12.35 F7800
G1 E4133.84958 F2400
G1 Z12.35 F7800
G1 X118 Y48
G1 E4135.84958 F2400
;TYPE:External perimeter
;WIDTH:4
G1 F1800
G1 X2 Y48 E4480.26854
G1 X2 Y2 E4616.84847
G1 X118 Y2 E4961.26743
G1 X118 Y25 E5029.5574
G1 X118 Y46.5 E5093.39367
G1 E5091.39367 F2400
G92 E0
G1 X116.929 Y10.38 F7800
G1 E2 F2400
;TYPE:Internal infill
;WIDTH:4
G1 F4800
G1 X111.227 Y4.678 E25.9426
G1 X106.116 Y4.678 E41.11782
G1 X115.322 Y13.884 E79.77365
G1 X115.322 Y18.995 E94.94887
G1 X101.005 Y4.678 E155.06571
G1 X95.895 Y4.678 E170.23796
G1 X115.322 Y24.105 E251.8116
G1 X115.322 Y29.216 E266.98682
G1 X90.784 Y4.678 E370.02146
G1 X85.674 Y4.678 E385.19371
G1 X115.322 Y34.326 E509.68515
G1 X115.322 Y39.437 E524.86037
G1 X80.563 Y4.678 E670.81281
G1 X75.452 Y4.678 E685.98803
G1 X115.322 Y44.548 E853.40147
G1 X115.322 Y45.322 E855.69958
G1 X110.986 Y45.322 E868.57372
G1 X70.342 Y4.678 E1039.23717
G1 X65.231 Y4.678 E1054.41239
G1 X105.875 Y45.322 E1225.07584
G1 X100.764 Y45.322 E1240.25106
G1 X60.121 Y4.678 E1410.91241
G1 X55.01 Y4.678 E1426.08763
G1 X95.654 Y45.322 E1596.75108
G1 X90.543 Y45.322 E1611.9263
G1 X49.899 Y4.678 E1782.58975
G1 X44.789 Y4.678 E1797.762
G1 X85.432 Y45.322 E1968.42335
G1 X80.322 Y45.322 E1983.5956
G1 X39.678 Y4.678 E2154.25905
G1 X34.567 Y4.678 E2169.43427
G1 X75.211 Y45.322 E2340.09772
G1 X70.101 Y45.322 E2355.26997
G1 X29.457 Y4.678 E2525.93342
G1 X24.346 Y4.678 E2541.10864
G1 X64.99 Y45.322 E2711.77209
G1 X59.879 Y45.322 E2726.94731
G1 X19.236 Y4.678 E2897.60866
G1 X14.125 Y4.678 E2912.78388
G1 X54.769 Y45.322 E3083.44733
G1 X49.658 Y45.322 E3098.62255
G1 X9.014 Y4.678 E3269.286
G1 X4.678 Y4.678 E3282.16014
G1 X4.678 Y5.452 E3284.45825
G1 X44.548 Y45.322 E3451.87169
G1 X39.437 Y45.322 E3467.04691
G1 X4.678 Y10.563 E3612.99935
G1 X4.678 Y15.674 E3628.17457
