; generated by PrusaSlicer 2.7.2+win64 on 2024-03-14 at 18:50:31 UTC

; 

; external perimeters extrusion width = 6.00mm
; perimeters extrusion width = 6.00mm
; infill extrusion width = 6.00mm
; solid infill extrusion width = 6.00mm
; top infill extrusion width = 6.00mm
; first layer extrusion width = 0.70mm

M104 S200 ; set temperature
;TYPE:Custom
G28 ; home all axes
G1 Z5 F5000 ; lift nozzle
M109 S200 ; set temperature and wait for it to be reached
G21 ; set units to millimeters
G90 ; use absolute coordinates
M82 ; use absolute distances for extrusion
G92 E0
; Filament gcode
M107
;LAYER_CHANGE
;Z:0.35
;HEIGHT:0.35
G1 E-2 F2400
G1 Z.35 F7800
G1 X-4.208 Y-4.987
G1 E0 F2400
;TYPE:Skirt/Brim
;WIDTH:0.7
G1 F1800
G1 X-3.332 Y-5.726 E.10421
G1 X-1.18 Y-6.519 E.31275
G1 X0 Y-6.625 E.42048
G1 X120 Y-6.625 E11.33203
G1 X122.259 Y-6.228 E11.54059
G1 X124.247 Y-5.085 E11.74911
G1 X125.726 Y-3.332 E11.95766
G1 X126.519 Y-1.18 E12.1662
G1 X126.625 Y0 E12.27393
G1 X126.625 Y50 E16.82041
G1 X126.228 Y52.259 E17.02897
G1 X125.085 Y54.247 E17.23749
G1 X123.332 Y55.726 E17.44604
G1 X121.18 Y56.519 E17.65458
G1 X120 Y56.625 E17.76231
G1 X0 Y56.625 E28.67386
G1 X-2.259 Y56.228 E28.88242
G1 X-4.247 Y55.085 E29.09094
G1 X-5.726 Y53.332 E29.29949
G1 X-6.519 Y51.18 E29.50803
G1 X-6.625 Y50 E29.61576
G1 X-6.625 Y0 E34.16224
G1 X-6.228 Y-2.259 E34.3708
G1 X-5.261 Y-3.941 E34.54722
G1 E32.54722 F2400
G92 E0
G1 X-5.261 Y-3.941 F7800
G1 X119.025 Y49.025
G1 E2 F2400
;TYPE:Perimeter
;WIDTH:0.7
G1 F1800
G1 X.975 Y49.025 E12.73423
G1 X.975 Y.975 E17.10339
G1 X119.025 Y.975 E27.83762
G1 X119.025 Y25 E30.0222
G1 X119.025 Y47.525 E32.07039
G1 E30.07039 F2400
G92 E0
G1 X119.025 Y47.525 F7800
G1 X119.65 Y49.65
G1 E2 F2400
;TYPE:External perimeter
G1 F1800
G1 X.35 Y49.65 E12.84789
G1 X.35 Y.35 E17.33072
G1 X119.65 Y.35 E28.17861
G1 X119.65 Y25 E30.42002
G1 X119.65 Y48.15 E32.52504
G1 X109.761 Y49.633 F7800
G1 E30.52504 F2400
G92 E0
G1 X118.592 Y12.674 F7800
G1 E2 F2400
;TYPE:Internal infill
;WIDTH:0.7
G1 F1800
G1 X109.813 Y3.895 E3.12893
G1 X101.933 Y3.895 E3.84546
G1 X116.105 Y18.067 E5.66789
G1 X116.105 Y25.947 E6.38442
G1 X94.054 Y3.895 E9.22011
G1 X86.174 Y3.895 E9.93664
G1 X116.105 Y33.826 E13.78558
G1 X116.105 Y41.706 E14.50211
G1 X78.294 Y3.895 E19.36437
G1 X70.414 Y3.895 E20.0809
G1 X112.624 Y46.105 E25.50885
G1 X104.744 Y46.105 E26.22538
G1 X62.534 Y3.895 E31.65333
G1 X54.655 Y3.895 E32.36976
G1 X96.864 Y46.105 E37.79764
G1 X88.985 Y46.105 E38.51407
G1 X46.775 Y3.895 E43.94202
G1 X38.895 Y3.895 E44.65855
G1 X81.105 Y46.105 E50.0865
G1 X73.225 Y46.105 E50.80303
G1 X31.015 Y3.895 E56.23098
G1 X23.135 Y3.895 E56.94751
G1 X65.345 Y46.105 E62.37546
G1 X57.466 Y46.105 E63.09189
G1 X15.256 Y3.895 E68.51984
G1 X7.376 Y3.895 E69.23637
G1 X49.586 Y46.105 E74.66432
G1 X41.706 Y46.105 E75.38085
G1 X3.895 Y8.294 E80.24311
G1 X3.895 Y16.174 E80.95964
G1 X33.826 Y46.105 E84.80858
G1 X25.946 Y46.105 E85.52511
G1 X3.895 Y24.054 E88.36073
G1 X3.895 Y31.933 E89.07716
G1 X18.067 Y46.105 E90.89959
G1 X10.187 Y46.105 E91.61612
G1 X1.408 Y37.326 E92.74505
;LAYER_CHANGE
;Z:2.55
;HEIGHT:2.2
G1 Z2.55 F7800
G1 E90.74505 F2400
G1 Z2.55 F7800
G1 X111.472 Y41.472
G1 E92.74505 F2400
;TYPE:Perimeter
;WIDTH:6
G1 F3600
G1 X8.528 Y41.472 E613.23934
G1 X8.528 Y8.528 E779.80722
G1 X111.472 Y8.528 E1300.30151
G1 X111.472 Y25 E1383.58545
G1 X111.472 Y39.972 E1459.28525
G1 E1457.28525 F2400
G92 E0
G1 X111.472 Y39.972 F7800
G1 X117 Y47
G1 E2 F2400
;TYPE:External perimeter
G1 F1800
G1 X3 Y47 E578.39444
G1 X3 Y3 E800.86247
G1 X117 Y3 E1377.25691
G1 X117 Y25 E1488.49092
G1 X117 Y45.5 E1592.1408
G1 X107.111 Y46.983 F7800
G1 E1590.1408 F2400
G92 E0
G1 X98.145 Y39.814 F7800
G1 E2 F2400
;TYPE:Internal infill
;WIDTH:6
G1 F4800
G1 X107.326 Y30.633 E67.64777
G1 X107.326 Y22.485 E108.84481
G1 X92.485 Y37.326 E214.96381
G1 X84.338 Y37.326 E256.15579
G1 X107.326 Y14.338 E420.52906
G1 X107.326 Y12.674 E428.9424
G1 X100.843 Y12.674 E461.72105
G1 X76.19 Y37.326 E637.99615
G1 X68.043 Y37.326 E679.18813
G1 X92.695 Y12.674 E855.45965
G1 X84.547 Y12.674 E896.65669
G1 X59.895 Y37.326 E1072.92821
G1 X51.747 Y37.326 E1114.12525
G1 X76.4 Y12.674 E1290.40035
G1 X68.252 Y12.674 E1331.59739
G1 X43.6 Y37.326 E1507.86891
G1 X35.452 Y37.326 E1549.06595
G1 X60.105 Y12.674 E1725.34105
G1 X51.957 Y12.674 E1766.53809
G1 X27.305 Y37.326 E1942.80961
G1 X19.157 Y37.326 E1984.00665
G1 X43.81 Y12.674 E2160.28175
G1 X35.662 Y12.674 E2201.47879
G1 X12.674 Y35.662 E2365.85206
G1 X12.674 Y27.515 E2407.04404
G1 X27.515 Y12.674 E2513.16304
G1 X19.367 Y12.674 E2554.36008
G1 X10.186 Y21.855 E2620.00785
;LAYER_CHANGE
;Z:4.75
;HEIGHT:2.2
G1 Z4.75 F7800
G1 E2618.00785 F2400
G1 Z4.75 F7800
G1 X111.472 Y41.472
G1 E2620.00785 F2400
;TYPE:Perimeter
;WIDTH:6
G1 F3600
G1 X8.528 Y41.472 E3140.50214
G1 X8.528 Y8.528 E3307.07002
G1 X111.472 Y8.528 E3827.56431
G1 X111.472 Y25 E3910.84825
G1 X111.472 Y39.972 E3986.54805
G1 E3984.54805 F2400
G92 E0
G1 X111.472 Y39.972 F7800
G1 X117 Y47
G1 E2 F2400
;TYPE:External perimeter
G1 F1800
G1 X3 Y47 E578.39444
G1 X3 Y3 E800.86247
G1 X117 Y3 E1377.25691
G1 X117 Y25 E1488.49092
G1 X117 Y45.5 E1592.1408
G1 X107.111 Y46.983 F7800
G1 E1590.1408 F2400
G92 E0
G1 X109.814 Y21.855 F7800
G1 E2 F2400
;TYPE:Internal infill
;WIDTH:6
G1 F4800
G1 X100.633 Y12.674 E67.64777
G1 X92.485 Y12.674 E108.84481
G1 X107.326 Y27.515 E214.96381
G1 X107.326 Y35.662 E256.15579
G1 X84.338 Y12.674 E420.52906
G1 X76.19 Y12.674 E461.7261
G1 X100.843 Y37.326 E638.0012
G1 X92.695 Y37.326 E679.19824
G1 X68.043 Y12.674 E855.46976
G1 X59.895 Y12.674 E896.6668
G1 X84.547 Y37.326 E1072.93832
G1 X76.4 Y37.326 E1114.1303
G1 X51.747 Y12.674 E1290.4054
G1 X43.6 Y12.674 E1331.59738
G1 X68.252 Y37.326 E1507.8689
G1 X60.105 Y37.326 E1549.06088
G1 X35.452 Y12.674 E1725.33598
G1 X27.305 Y12.674 E1766.52796
G1 X51.957 Y37.326 E1942.79948
G1 X43.81 Y37.326 E1983.99146
G1 X19.157 Y12.674 E2160.26656
G1 X12.674 Y12.674 E2193.04521
G1 X12.674 Y14.338 E2201.45855
G1 X35.662 Y37.326 E2365.83182
G1 X27.515 Y37.326 E2407.0238
G1 X12.674 Y22.485 E2513.1428
G1 X12.674 Y30.633 E2554.33984
G1 X21.855 Y39.814 E2619.98761
M106 S201.45
;LAYER_CHANGE
;Z:6.95
;HEIGHT:2.2
G1 Z6.95 F7800
G1 E2617.98761 F2400
G1 Z6.95 F7800
G1 X111.472 Y41.472
G1 E2619.98761 F2400
;TYPE:Perimeter
;WIDTH:6
G1 F3600
G1 X8.528 Y41.472 E3140.4819
G1 X8.528 Y8.528 E3307.04978
G1 X111.472 Y8.528 E3827.54407
G1 X111.472 Y25 E3910.82801
G1 X111.472 Y39.972 E3986.52781
G1 E3984.52781 F2400
G92 E0
G1 X111.472 Y39.972 F7800
G1 X117 Y47
G1 E2 F2400
;TYPE:External perimeter
G1 F1800
G1 X3 Y47 E578.39444
G1 X3 Y3 E800.86247
G1 X117 Y3 E1377.25691
G1 X117 Y25 E1488.49092
G1 X117 Y45.5 E1592.1408
G1 X107.111 Y46.983 F7800
G1 E1590.1408 F2400
G92 E0
G1 X98.145 Y39.814 F7800
G1 E2 F2400
;TYPE:Internal infill
;WIDTH:6
G1 F4800
G1 X107.326 Y30.633 E67.64777
G1 X107.326 Y22.485 E108.84481
G1 X92.485 Y37.326 E214.96381
G1 X84.338 Y37.326 E256.15579
G1 X107.326 Y14.338 E420.52906
G1 X107.326 Y12.674 E428.9424
G1 X100.843 Y12.674 E461.72105
G1 X76.19 Y37.326 E637.99615
G1 X68.043 Y37.326 E679.18813
G1 X92.695 Y12.674 E855.45965
G1 X84.547 Y12.674 E896.65669
G1 X59.895 Y37.326 E1072.92821
G1 X51.747 Y37.326 E1114.12525
G1 X76.4 Y12.674 E1290.40035
G1 X68.252 Y12.674 E1331.59739
G1 X43.6 Y37.326 E1507.86891
G1 X35.452 Y37.326 E1549.06595
G1 X60.105 Y12.674 E1725.34105
G1 X51.957 Y12.674 E1766.53809
G1 X27.305 Y37.326 E1942.80961
G1 X19.157 Y37.326 E1984.00665
G1 X43.81 Y12.674 E2160.28175
G1 X35.662 Y12.674 E2201.47879
G1 X12.674 Y35.662 E2365.85206
G1 X12.674 Y27.515 E2407.04404
G1 X27.515 Y12.674 E2513.16304
G1 X19.367 Y12.674 E2554.36008
G1 X10.186 Y21.855 E2620.00785
M106 S198.9
;LAYER_CHANGE
;Z:9.15
;HEIGHT:2.2
G1 Z9.15 F7800
G1 E2618.00785 F2400
G1 Z9.15 F7800
G1 X111.472 Y41.472
G1 E2620.00785 F2400
;TYPE:Perimeter
;WIDTH:6
G1 F3600
G1 X8.528 Y41.472 E3140.50214
G1 X8.528 Y8.528 E3307.07002
G1 X111.472 Y8.528 E3827.56431
G1 X111.472 Y25 E3910.84825
G1 X111.472 Y39.972 E3986.54805
G1 E3984.54805 F2400
G92 E0
G1 X111.472 Y39.972 F7800
G1 X117 Y47
G1 E2 F2400
;TYPE:External perimeter
G1 F1800
G1 X3 Y47 E578.39444
G1 X3 Y3 E800.86247
G1 X117 Y3 E1377.25691
G1 X117 Y25 E1488.49092
G1 X117 Y45.5 E1592.1408
G1 X107.111 Y46.983 F7800
G1 E1590.1408 F2400
G92 E0
G1 X109.814 Y21.855 F7800
G1 E2 F2400
;TYPE:Internal infill
;WIDTH:6
G1 F4800
G1 X100.633 Y12.674 E67.64777
G1 X92.485 Y12.674 E108.84481
G1 X107.326 Y27.515 E214.96381
G1 X107.326 Y35.662 E256.15579
G1 X84.338 Y12.674 E420.52906
G1 X76.19 Y12.674 E461.7261
G1 X100.843 Y37.326 E638.0012
G1 X92.695 Y37.326 E679.19824
G1 X68.043 Y12.674 E855.46976
G1 X59.895 Y12.674 E896.6668
G1 X84.547 Y37.326 E1072.93832
G1 X76.4 Y37.326 E1114.1303
G1 X51.747 Y12.674 E1290.4054
G1 X43.6 Y12.674 E1331.59738
G1 X68.252 Y37.326 E1507.8689
G1 X60.105 Y37.326 E1549.06088
G1 X35.452 Y12.674 E1725.33598
G1 X27.305 Y12.674 E1766.52796
G1 X51.957 Y37.326 E1942.79948
G1 X43.81 Y37.326 E1983.99146
G1 X19.157 Y12.674 E2160.26656
G1 X12.674 Y12.674 E2193.04521
G1 X12.674 Y14.338 E2201.45855
G1 X35.662 Y37.326 E2365.83182
G1 X27.515 Y37.326 E2407.0238
G1 X12.674 Y22.485 E2513.1428
G1 X12.674 Y30.633 E2554.33984
G1 X21.855 Y39.814 E2619.98761
M106 S201.45
;LAYER_CHANGE
;Z:11.35
;HEIGHT:2.2
G1 Z11.35 F7800
G1 E2617.98761 F2400
G1 Z11.35 F7800
G1 X111.472 Y41.472
G1 E2619.98761 F2400
;TYPE:Perimeter
;WIDTH:6
G1 F3600
G1 X8.528 Y41.472 E3140.4819
G1 X8.528 Y8.528 E3307.04978
G1 X111.472 Y8.528 E3827.54407
G1 X111.472 Y25 E3910.82801
G1 X111.472 Y39.972 E3986.52781
G1 E3984.52781 F2400
G92 E0
G1 X111.472 Y39.972 F7800
G1 X117 Y47
G1 E2 F2400
;TYPE:External perimeter
G1 F1800
G1 X3 Y47 E578.39444
G1 X3 Y3 E800.86247
G1 X117 Y3 E1377.25691
G1 X117 Y25 E1488.49092
G1 X117 Y45.5 E1592.1408
G1 X107.111 Y46.983 F7800
G1 E1590.1408 F2400
G92 E0
G1 X98.145 Y39.814 F7800
G1 E2 F2400
;TYPE:Internal infill
;WIDTH:6
G1 F4800
G1 X107.326 Y30.633 E67.64777
G1 X107.326 Y22.485 E108.84481
G1 X92.485 Y37.326 E214.96381
G1 X84.338 Y37.326 E256.15579
G1 X107.326 Y14.338 E420.52906
G1 X107.326 Y12.674 E428.9424
G1 X100.843 Y12.674 E461.72105
G1 X76.19 Y37.326 E637.99615
G1 X68.043 Y37.326 E679.18813
G1 X92.695 Y12.674 E855.45965
G1 X84.547 Y12.674 E896.65669
G1 X59.895 Y37.326 E1072.92821
G1 X51.747 Y37.326 E1114.12525
G1 X76.4 Y12.674 E1290.40035
G1 X68.252 Y12.674 E1331.59739
G1 X43.6 Y37.326 E1507.86891
G1 X35.452 Y37.326 E1549.06595
G1 X60.105 Y12.674 E1725.34105
G1 X51.957 Y12.674 E1766.53809
G1 X27.305 Y37.326 E1942.80961
G1 X19.157 Y37.326 E1984.00665
G1 X43.81 Y12.674 E2160.28175
G1 X35.662 Y12.674 E2201.47879
G1 X12.674 Y35.662 E2365.85206
G1 X12.674 Y27.515 E2407.04404
G1 X27.515 Y12.674 E2513.16304
G1 X19.367 Y12.674 E2554.36008
G1 X10.186 Y21.855 E2620.00785
M106 S198.9
;LAYER_CHANGE
;Z:13.55
;HEIGHT:2.2
G1 Z13.55 F7800
G1 E2618.00785 F2400
G1 Z13.55 F7800
G1 X111.472 Y41.472
G1 E2620.00785 F2400
;TYPE:Perimeter
;WIDTH:6
G1 F3600
G1 X8.528 Y41.472 E3140.50214
G1 X8.528 Y8.528 E3307.07002
G1 X111.472 Y8.528 E3827.56431
G1 X111.472 Y25 E3910.84825
G1 X111.472 Y39.972 E3986.54805
G1 E3984.54805 F2400
G92 E0
G1 X111.472 Y39.972 F7800
G1 X117 Y47
G1 E2 F2400
;TYPE:External perimeter
G1 F1800
G1 X3 Y47 E578.39444
G1 X3 Y3 E800.86247
G1 X117 Y3 E1377.25691
G1 X117 Y25 E1488.49092
G1 X117 Y45.5 E1592.1408
G1 X107.111 Y46.983 F7800
G1 E1590.1408 F2400
G92 E0
G1 X109.814 Y21.855 F7800
G1 E2 F2400
;TYPE:Internal infill
;WIDTH:6
G1 F4800
G1 X100.633 Y12.674 E67.64777
G1 X92.485 Y12.674 E108.84481
G1 X107.326 Y27.515 E214.96381
G1 X107.326 Y35.662 E256.15579
G1 X84.338 Y12.674 E420.52906
G1 X76.19 Y12.674 E461.7261
G1 X100.843 Y37.326 E638.0012
G1 X92.695 Y37.326 E679.19824
G1 X68.043 Y12.674 E855.46976
G1 X59.895 Y12.674 E896.6668
G1 X84.547 Y37.326 E1072.93832
G1 X76.4 Y37.326 E1114.1303
G1 X51.747 Y12.674 E1290.4054
G1 X43.6 Y12.674 E1331.59738
G1 X68.252 Y37.326 E1507.8689
G1 X60.105 Y37.326 E1549.06088
G1 X35.452 Y12.674 E1725.33598
G1 X27.305 Y12.674 E1766.52796
G1 X51.957 Y37.326 E1942.79948
G1 X43.81 Y37.326 E1983.99146
G1 X19.157 Y12.674 E2160.26656
G1 X12.674 Y12.674 E2193.04521
G1 X12.674 Y14.338 E2201.45855
G1 X35.662 Y37.326 E2365.83182
G1 X27.515 Y37.326 E2407.0238
G1 X12.674 Y22.485 E2513.1428
G1 X12.674 Y30.633 E2554.33984
G1 X21.855 Y39.814 E2619.98761
M106 S201.45
;LAYER_CHANGE
;Z:15.75
;HEIGHT:2.2
G1 Z15.75 F7800
G1 E2617.98761 F2400
G1 Z15.75 F7800
G1 X111.472 Y41.472
G1 E2619.98761 F2400
;TYPE:Perimeter
;WIDTH:6
G1 F3600
G1 X8.528 Y41.472 E3140.4819
G1 X8.528 Y8.528 E3307.04978
G1 X111.472 Y8.528 E3827.54407
G1 X111.472 Y25 E3910.82801
G1 X111.472 Y39.972 E3986.52781
G1 E3984.52781 F2400
G92 E0
G1 X111.472 Y39.972 F7800
G1 X117 Y47
G1 E2 F2400
;TYPE:External perimeter
G1 F1800
G1 X3 Y47 E578.39444
G1 X3 Y3 E800.86247
G1 X117 Y3 E1377.25691
G1 X117 Y25 E1488.49092
G1 X117 Y45.5 E1592.1408
G1 X107.111 Y46.983 F7800
G1 E1590.1408 F2400
G92 E0
G1 X98.145 Y39.814 F7800
G1 E2 F2400
;TYPE:Internal infill
;WIDTH:6
G1 F4800
G1 X107.326 Y30.633 E67.64777
G1 X107.326 Y22.485 E108.84481
G1 X92.485 Y37.326 E214.96381
G1 X84.338 Y37.326 E256.15579
G1 X107.326 Y14.338 E420.52906
G1 X107.326 Y12.674 E428.9424
G1 X100.843 Y12.674 E461.72105
G1 X76.19 Y37.326 E637.99615
G1 X68.043 Y37.326 E679.18813
G1 X92.695 Y12.674 E855.45965
G1 X84.547 Y12.674 E896.65669
G1 X59.895 Y37.326 E1072.92821
G1 X51.747 Y37.326 E1114.12525
G1 X76.4 Y12.674 E1290.40035
G1 X68.252 Y12.674 E1331.59739
G1 X43.6 Y37.326 E1507.86891
G1 X35.452 Y37.326 E1549.06595
G1 X60.105 Y12.674 E1725.34105
G1 X51.957 Y12.674 E1766.53809
G1 X27.305 Y37.326 E1942.80961
G1 X19.157 Y37.326 E1984.00665
G1 X43.81 Y12.674 E2160.28175
G1 X35.662 Y12.674 E2201.47879
G1 X12.674 Y35.662 E2365.85206
G1 X12.674 Y27.515 E2407.04404
G1 X27.515 Y12.674 E2513.16304
G1 X19.367 Y12.674 E2554.36008
G1 X10.186 Y21.855 E2620.00785
M106 S198.9
;LAYER_CHANGE
;Z:17.95
;HEIGHT:2.2
G1 Z17.95 F7800
G1 E2618.00785 F2400
G1 Z17.95 F7800
G1 X111.472 Y41.472
G1 E2620.00785 F2400
;TYPE:Perimeter
;WIDTH:6
G1 F3600
G1 X8.528 Y41.472 E3140.50214
G1 X8.528 Y8.528 E3307.07002
G1 X111.472 Y8.528 E3827.56431
G1 X111.472 Y25 E3910.84825
G1 X111.472 Y39.972 E3986.54805
G1 E3984.54805 F2400
G92 E0
G1 X111.472 Y39.972 F7800
G1 X117 Y47
G1 E2 F2400
;TYPE:External perimeter
G1 F1800
G1 X3 Y47 E578.39444
G1 X3 Y3 E800.86247
G1 X117 Y3 E1377.25691
G1 X117 Y25 E1488.49092
G1 X117 Y45.5 E1592.1408
G1 X107.111 Y46.983 F7800
G1 E1590.1408 F2400
G92 E0
G1 X109.814 Y21.855 F7800
G1 E2 F2400
;TYPE:Internal infill
;WIDTH:6
G1 F4800
G1 X100.633 Y12.674 E67.64777
G1 X92.485 Y12.674 E108.84481
G1 X107.326 Y27.515 E214.96381
G1 X107.326 Y35.662 E256.15579
G1 X84.338 Y12.674 E420.52906
G1 X76.19 Y12.674 E461.7261
G1 X100.843 Y37.326 E638.0012
G1 X92.695 Y37.326 E679.19824
G1 X68.043 Y12.674 E855.46976
G1 X59.895 Y12.674 E896.6668
G1 X84.547 Y37.326 E1072.93832
G1 X76.4 Y37.326 E1114.1303
G1 X51.747 Y12.674 E1290.4054
G1 X43.6 Y12.674 E1331.59738
G1 X68.252 Y37.326 E1507.8689
G1 X60.105 Y37.326 E1549.06088
G1 X35.452 Y12.674 E1725.33598
G1 X27.305 Y12.674 E1766.52796
G1 X51.957 Y37.326 E1942.79948
G1 X43.81 Y37.326 E1983.99146
G1 X19.157 Y12.674 E2160.26656
G1 X12.674 Y12.674 E2193.04521
G1 X12.674 Y14.338 E2201.45855
G1 X35.662 Y37.326 E2365.83182
G1 X27.515 Y37.326 E2407.0238
G1 X12.674 Y22.485 E2513.1428
G1 X12.674 Y30.633 E2554.33984
G1 X21.855 Y39.814 E2619.98761
M106 S201.45
;LAYER_CHANGE
;Z:20.15
;HEIGHT:2.2
G1 Z20.15 F7800
G1 E2617.98761 F2400
G1 Z20.15 F7800
G1 X111.472 Y41.472
G1 E2619.98761 F2400
;TYPE:Perimeter
;WIDTH:6
G1 F3600
G1 X8.528 Y41.472 E3140.4819
G1 X8.528 Y8.528 E3307.04978
G1 X111.472 Y8.528 E3827.54407
G1 X111.472 Y25 E3910.82801
G1 X111.472 Y39.972 E3986.52781
G1 E3984.52781 F2400
G92 E0
G1 X111.472 Y39.972 F7800
G1 X117 Y47
G1 E2 F2400
;TYPE:External perimeter
G1 F1800
G1 X3 Y47 E578.39444
G1 X3 Y3 E800.86247
G1 X117 Y3 E1377.25691
G1 X117 Y25 E1488.49092
G1 X117 Y45.5 E1592.1408
G1 X107.111 Y46.983 F7800
G1 E1590.1408 F2400
G92 E0
G1 X98.145 Y39.814 F7800
G1 E2 F2400
;TYPE:Internal infill
;WIDTH:6
G1 F4800
G1 X107.326 Y30.633 E67.64777
