; generated by PrusaSlicer 2.7.2+win64 on 2024-03-14 at 08:11:13 UTC

; 

; external perimeters extrusion width = 0.45mm
; perimeters extrusion width = 0.45mm
; infill extrusion width = 0.45mm
; solid infill extrusion width = 0.45mm
; top infill extrusion width = 0.40mm
; first layer extrusion width = 0.70mm

M104 S200 ; set temperature
;TYPE:Custom
G28 ; home all axes
G1 Z5 F5000 ; lift nozzle
M109 S200 ; set temperature and wait for it to be reached
G21 ; set units to millimeters
G90 ; use absolute coordinates
M82 ; use absolute distances for extrusion
G92 E0
; Filament gcode
M107
;LAYER_CHANGE
;Z:0.35
;HEIGHT:0.35
G1 E-2 F2400
G1 Z.35 F7800
G1 X36.668 Y69.274
G1 E0 F2400
;TYPE:Skirt/Brim
;WIDTH:0.7
G1 F1800
G1 X38.82 Y68.481 E.20854
G1 X40 Y68.375 E.31627
G1 X160 Y68.375 E11.22782
G1 X162.259 Y68.772 E11.43638
G1 X164.247 Y69.915 E11.6449
G1 X165.726 Y71.668 E11.85345
G1 X166.519 Y73.82 E12.06199
G1 X166.625 Y75 E12.16972
G1 X166.625 Y125 E16.7162
G1 X166.228 Y127.259 E16.92476
G1 X165.085 Y129.247 E17.13328
G1 X163.332 Y130.726 E17.34183
G1 X161.18 Y131.519 E17.55037
G1 X160 Y131.625 E17.6581
G1 X40 Y131.625 E28.56965
G1 X37.741 Y131.228 E28.77821
G1 X35.753 Y130.085 E28.98673
G1 X34.274 Y128.332 E29.19528
G1 X33.481 Y126.18 E29.40382
G1 X33.375 Y125 E29.51155
G1 X33.375 Y75 E34.05803
G1 X33.772 Y72.741 E34.26659
G1 X34.915 Y70.753 E34.47511
G1 X36.622 Y69.313 E34.67818
G1 E32.67818 F2400
G92 E0
G1 X36.622 Y69.313 F7800
G1 X158.4 Y123.4
G1 E2 F2400
;TYPE:Perimeter
;WIDTH:0.7
G1 F1800
G1 X41.6 Y123.4 E12.62057
G1 X41.6 Y76.6 E16.87607
G1 X158.4 Y76.6 E27.49664
G1 X158.4 Y100 E29.62439
G1 X158.4 Y123.34 E31.74669
G1 X158.4 Y123.34 F7800
G1 X159.025 Y124.025
G1 F1800
G1 X40.975 Y124.025 E42.48092
G1 X40.975 Y75.975 E46.85008
G1 X159.025 Y75.975 E57.58431
G1 X159.025 Y100 E59.76889
G1 X159.025 Y123.965 E61.94802
G1 X159.025 Y123.965 F7800
G1 X159.65 Y124.65
;TYPE:External perimeter
G1 F1800
G1 X40.35 Y124.65 E72.79591
G1 X40.35 Y75.35 E77.27874
G1 X159.65 Y75.35 E88.12663
G1 X159.65 Y100 E90.36804
G1 X159.65 Y124.59 E92.604
G1 X159.254 Y124.649 F7800
G1 E90.604 F2400
G92 E0
G1 X158.213 Y78.053 F7800
G1 E2 F2400
;TYPE:Solid infill
;WIDTH:0.701423
G1 F1800
G1 X157.228 Y77.068 E2.12695
G1 X156.342 Y77.068 E2.2077
G1 X157.932 Y78.658 E2.41263
G1 X157.932 Y79.544 E2.49338
G1 X155.456 Y77.068 E2.8125
G1 X154.571 Y77.068 E2.89316
G1 X157.932 Y80.429 E3.32635
G1 X157.932 Y81.315 E3.4071
G1 X153.685 Y77.068 E3.95448
G1 X152.799 Y77.068 E4.03523
G1 X157.932 Y82.201 E4.6968
G1 X157.932 Y83.087 E4.77755
G1 X151.913 Y77.068 E5.55332
G1 X151.028 Y77.068 E5.63398
G1 X157.932 Y83.972 E6.52381
G1 X157.932 Y84.858 E6.60456
G1 X150.142 Y77.068 E7.60859
G1 X149.256 Y77.068 E7.68934
G1 X157.932 Y85.744 E8.80756
G1 X157.932 Y86.63 E8.88831
G1 X148.37 Y77.068 E10.12072
G1 X147.485 Y77.068 E10.20138
G1 X157.932 Y87.515 E11.54786
G1 X157.932 Y88.401 E11.62861
G1 X146.599 Y77.068 E13.08928
G1 X145.713 Y77.068 E13.17003
G1 X157.932 Y89.287 E14.7449
G1 X157.932 Y90.173 E14.82565
G1 X144.827 Y77.068 E16.51471
G1 X143.942 Y77.068 E16.59537
G1 X157.932 Y91.058 E18.39849
G1 X157.932 Y91.944 E18.47924
G1 X143.056 Y77.068 E20.39656
G1 X142.17 Y77.068 E20.47731
G1 X157.932 Y92.83 E22.50882
G1 X157.932 Y93.716 E22.58957
G1 X141.284 Y77.068 E24.73527
G1 X140.399 Y77.068 E24.81593
G1 X157.932 Y94.601 E27.0757
G1 X157.932 Y95.487 E27.15645
G1 X139.513 Y77.068 E29.53041
G1 X138.627 Y77.068 E29.61116
G1 X157.932 Y96.373 E32.09932
G1 X157.932 Y97.258 E32.17998
G1 X137.742 Y77.068 E34.7822
G1 X136.856 Y77.068 E34.86295
G1 X157.932 Y98.144 E37.57936
G1 X157.932 Y99.03 E37.66011
G1 X135.97 Y77.068 E40.49072
G1 X135.084 Y77.068 E40.57147
G1 X157.932 Y99.916 E43.51627
G1 X157.932 Y100.801 E43.59693
G1 X134.199 Y77.068 E46.6558
G1 X133.313 Y77.068 E46.73655
G1 X157.932 Y101.687 E49.90961
G1 X157.932 Y102.573 E49.99036
G1 X132.427 Y77.068 E53.27761
G1 X131.541 Y77.068 E53.35836
G1 X157.932 Y103.459 E56.75981
G1 X157.932 Y104.344 E56.84047
G1 X130.656 Y77.068 E60.35598
G1 X129.77 Y77.068 E60.43673
G1 X157.932 Y105.23 E64.06643
G1 X157.932 Y106.116 E64.14718
G1 X128.884 Y77.068 E67.89108
G1 X127.998 Y77.068 E67.97183
G1 X157.932 Y107.002 E71.82992
G1 X157.932 Y107.887 E71.91058
G1 X127.113 Y77.068 E75.88274
G1 X126.227 Y77.068 E75.96349
G1 X157.932 Y108.773 E80.04984
G1 X157.932 Y109.659 E80.13059
G1 X125.341 Y77.068 E84.33113
G1 X124.455 Y77.068 E84.41188
G1 X157.932 Y110.545 E88.72662
G1 X157.932 Y111.43 E88.80728
G1 X123.57 Y77.068 E93.23608
G1 X122.684 Y77.068 E93.31683
G1 X157.932 Y112.316 E97.85983
G1 X157.932 Y113.202 E97.94058
G1 X121.798 Y77.068 E102.59777
G1 X120.912 Y77.068 E102.67852
G1 X157.932 Y114.088 E107.4499
G1 X157.932 Y114.973 E107.53056
G1 X120.027 Y77.068 E112.41601
G1 X119.141 Y77.068 E112.49676
G1 X157.932 Y115.859 E117.4964
G1 X157.932 Y116.745 E117.57715
G1 X118.255 Y77.068 E122.69098
G1 X117.37 Y77.068 E122.77164
G1 X157.932 Y117.63 E127.99954
G1 X157.932 Y118.516 E128.08029
G1 X116.484 Y77.068 E133.42238
G1 X115.598 Y77.068 E133.50313
G1 X157.932 Y119.402 E138.95942
G1 X157.932 Y120.288 E139.04017
G1 X114.712 Y77.068 E144.61065
G1 X113.827 Y77.068 E144.69131
G1 X157.932 Y121.173 E150.37585
G1 X157.932 Y122.059 E150.4566
G1 X112.941 Y77.068 E156.25534
G1 X112.055 Y77.068 E156.33609
G1 X157.918 Y122.932 E162.24728
G1 X157.032 Y122.932 E162.32803
G1 X111.169 Y77.068 E168.23922
G1 X110.284 Y77.068 E168.31988
G1 X156.147 Y122.932 E174.23107
G1 X155.261 Y122.932 E174.31182
G1 X109.398 Y77.068 E180.22301
G1 X108.512 Y77.068 E180.30376
G1 X154.375 Y122.932 E186.21495
G1 X153.49 Y122.932 E186.29561
G1 X107.626 Y77.068 E192.20687
G1 X106.741 Y77.068 E192.28753
G1 X152.604 Y122.932 E198.19872
G1 X151.718 Y122.932 E198.27947
G1 X105.855 Y77.068 E204.19066
G1 X104.969 Y77.068 E204.27141
G1 X150.832 Y122.932 E210.1826
G1 X149.947 Y122.932 E210.26326
G1 X104.083 Y77.068 E216.17452
G1 X103.198 Y77.068 E216.25518
G1 X149.061 Y122.932 E222.16637
G1 X148.175 Y122.932 E222.24712
G1 X102.312 Y77.068 E228.15831
G1 X101.426 Y77.068 E228.23906
G1 X147.289 Y122.932 E234.15025
G1 X146.404 Y122.932 E234.23091
G1 X100.54 Y77.068 E240.14217
G1 X99.655 Y77.068 E240.22283
G1 X145.518 Y122.932 E246.13402
G1 X144.632 Y122.932 E246.21477
G1 X98.769 Y77.068 E252.12596
G1 X97.883 Y77.068 E252.20671
G1 X143.746 Y122.932 E258.1179
G1 X142.861 Y122.932 E258.19856
G1 X96.998 Y77.068 E264.10975
G1 X96.112 Y77.068 E264.1905
G1 X141.975 Y122.932 E270.10169
G1 X141.089 Y122.932 E270.18244
G1 X95.226 Y77.068 E276.09363
G1 X94.34 Y77.068 E276.17438
G1 X140.203 Y122.932 E282.08557
G1 X139.318 Y122.932 E282.16623
G1 X93.455 Y77.068 E288.07742
G1 X92.569 Y77.068 E288.15817
G1 X138.432 Y122.932 E294.06936
G1 X137.546 Y122.932 E294.15011
G1 X91.683 Y77.068 E300.0613
G1 X90.797 Y77.068 E300.14205
G1 X136.66 Y122.932 E306.05324
G1 X135.775 Y122.932 E306.1339
G1 X89.912 Y77.068 E312.04509
G1 X89.026 Y77.068 E312.12584
G1 X134.889 Y122.932 E318.03703
G1 X134.003 Y122.932 E318.11778
G1 X88.14 Y77.068 E324.02897
G1 X87.254 Y77.068 E324.10972
G1 X133.118 Y122.932 E330.02098
G1 X132.232 Y122.932 E330.10173
G1 X86.369 Y77.068 E336.01292
G1 X85.483 Y77.068 E336.09367
G1 X131.346 Y122.932 E342.00486
G1 X130.46 Y122.932 E342.08561
G1 X84.597 Y77.068 E347.9968
G1 X83.711 Y77.068 E348.07755
G1 X129.575 Y122.932 E353.98881
G1 X128.689 Y122.932 E354.06956
G1 X82.826 Y77.068 E359.98075
G1 X81.94 Y77.068 E360.0615
G1 X127.803 Y122.932 E365.97269
G1 X126.917 Y122.932 E366.05344
G1 X81.054 Y77.068 E371.96463
G1 X80.168 Y77.068 E372.04538
G1 X126.032 Y122.932 E377.95664
G1 X125.146 Y122.932 E378.03739
G1 X79.283 Y77.068 E383.94858
G1 X78.397 Y77.068 E384.02933
G1 X124.26 Y122.932 E389.94052
G1 X123.374 Y122.932 E390.02127
G1 X77.511 Y77.068 E395.93246
G1 X76.626 Y77.068 E396.01312
G1 X122.489 Y122.932 E401.92431
G1 X121.603 Y122.932 E402.00506
G1 X75.74 Y77.068 E407.91625
G1 X74.854 Y77.068 E407.997
G1 X120.717 Y122.932 E413.90819
G1 X119.831 Y122.932 E413.98894
G1 X73.968 Y77.068 E419.90013
G1 X73.083 Y77.068 E419.98079
G1 X118.946 Y122.932 E425.89198
G1 X118.06 Y122.932 E425.97273
G1 X72.197 Y77.068 E431.88392
G1 X71.311 Y77.068 E431.96467
G1 X117.174 Y122.932 E437.87586
G1 X116.288 Y122.932 E437.95661
G1 X70.425 Y77.068 E443.8678
G1 X69.54 Y77.068 E443.94846
G1 X115.403 Y122.932 E449.85965
G1 X114.517 Y122.932 E449.9404
G1 X68.654 Y77.068 E455.85159
G1 X67.768 Y77.068 E455.93234
G1 X113.631 Y122.932 E461.84353
G1 X112.746 Y122.932 E461.92419
G1 X66.882 Y77.068 E467.83545
G1 X65.997 Y77.068 E467.91611
G1 X111.86 Y122.932 E473.8273
G1 X110.974 Y122.932 E473.90805
G1 X65.111 Y77.068 E479.81924
G1 X64.225 Y77.068 E479.89999
G1 X110.088 Y122.932 E485.81118
G1 X109.203 Y122.932 E485.89184
G1 X63.339 Y77.068 E491.8031
G1 X62.454 Y77.068 E491.88376
G1 X108.317 Y122.932 E497.79495
G1 X107.431 Y122.932 E497.8757
G1 X61.568 Y77.068 E503.78689
G1 X60.682 Y77.068 E503.86764
G1 X106.545 Y122.932 E509.77883
G1 X105.66 Y122.932 E509.85949
G1 X59.796 Y77.068 E515.77075
G1 X58.911 Y77.068 E515.85141
G1 X104.774 Y122.932 E521.7626
G1 X103.888 Y122.932 E521.84335
G1 X58.025 Y77.068 E527.75454
G1 X57.139 Y77.068 E527.83529
G1 X103.002 Y122.932 E533.74648
G1 X102.117 Y122.932 E533.82714
G1 X56.254 Y77.068 E539.73833
G1 X55.368 Y77.068 E539.81908
G1 X101.231 Y122.932 E545.73027
G1 X100.345 Y122.932 E545.81102
G1 X54.482 Y77.068 E551.72221
G1 X53.596 Y77.068 E551.80296
G1 X99.459 Y122.932 E557.71415
G1 X98.574 Y122.932 E557.79481
G1 X52.711 Y77.068 E563.706
G1 X51.825 Y77.068 E563.78675
G1 X97.688 Y122.932 E569.69794
G1 X96.802 Y122.932 E569.77869
G1 X50.939 Y77.068 E575.68988
G1 X50.053 Y77.068 E575.77063
G1 X95.916 Y122.932 E581.68182
G1 X95.031 Y122.932 E581.76248
G1 X49.168 Y77.068 E587.67367
G1 X48.282 Y77.068 E587.75442
G1 X94.145 Y122.932 E593.66561
G1 X93.259 Y122.932 E593.74636
G1 X47.396 Y77.068 E599.65755
G1 X46.51 Y77.068 E599.7383
G1 X92.374 Y122.932 E605.64956
G1 X91.488 Y122.932 E605.73031
G1 X45.625 Y77.068 E611.6415
G1 X44.739 Y77.068 E611.72225
G1 X90.602 Y122.932 E617.63344
G1 X89.716 Y122.932 E617.71419
G1 X43.853 Y77.068 E623.62538
G1 X42.967 Y77.068 E623.70613
G1 X88.831 Y122.932 E629.61739
G1 X87.945 Y122.932 E629.69814
G1 X42.068 Y77.068 E635.61023
G1 X42.068 Y77.941 E635.68979
G1 X87.059 Y122.932 E641.48853
G1 X86.173 Y122.932 E641.56928
G1 X42.068 Y78.827 E647.25382
G1 X42.068 Y79.712 E647.33448
G1 X85.288 Y122.932 E652.90496
G1 X84.402 Y122.932 E652.98571
G1 X42.068 Y80.598 E658.442
G1 X42.068 Y81.484 E658.52275
G1 X83.516 Y122.932 E663.86484
G1 X82.63 Y122.932 E663.94559
G1 X42.068 Y82.37 E669.17349
G1 X42.068 Y83.255 E669.25415
G1 X81.745 Y122.932 E674.36798
G1 X80.859 Y122.932 E674.44873
G1 X42.068 Y84.141 E679.44837
G1 X42.068 Y85.027 E679.52912
G1 X79.973 Y122.932 E684.41457
G1 X79.087 Y122.932 E684.49532
G1 X42.068 Y85.913 E689.26657
G1 X42.068 Y86.798 E689.34723
G1 X78.202 Y122.932 E694.00442
G1 X77.316 Y122.932 E694.08517
G1 X42.068 Y87.684 E698.62817
G1 X42.068 Y88.57 E698.70892
G1 X76.43 Y122.932 E703.13772
G1 X75.544 Y122.932 E703.21847
G1 X42.068 Y89.456 E707.53308
G1 X42.068 Y90.341 E707.61374
G1 X74.659 Y122.932 E711.81428
G1 X73.773 Y122.932 E711.89503
G1 X42.068 Y91.227 E715.98138
G1 X42.068 Y92.113 E716.06213
G1 X72.887 Y122.932 E720.03429
G1 X72.002 Y122.932 E720.11495
G1 X42.068 Y92.998 E723.97304
G1 X42.068 Y93.884 E724.05379
G1 X71.116 Y122.932 E727.79769
G1 X70.23 Y122.932 E727.87844
G1 X42.068 Y94.77 E731.50814
G1 X42.068 Y95.656 E731.58889
G1 X69.344 Y122.932 E735.1044
G1 X68.459 Y122.932 E735.18506
G1 X42.068 Y96.541 E738.58651
G1 X42.068 Y97.427 E738.66726
G1 X67.573 Y122.932 E741.95451
G1 X66.687 Y122.932 E742.03526
G1 X42.068 Y98.313 E745.20832
G1 X42.068 Y99.199 E745.28907
G1 X65.801 Y122.932 E748.34794
G1 X64.916 Y122.932 E748.4286
G1 X42.068 Y100.084 E751.3734
G1 X42.068 Y100.97 E751.45415
G1 X64.03 Y122.932 E754.28476
G1 X63.144 Y122.932 E754.36551
G1 X42.068 Y101.856 E757.08192
G1 X42.068 Y102.742 E757.16267
G1 X62.258 Y122.932 E759.76489
G1 X61.373 Y122.932 E759.84555
G1 X42.068 Y103.627 E762.33371
G1 X42.068 Y104.513 E762.41446
G1 X60.487 Y122.932 E764.78842
G1 X59.601 Y122.932 E764.86917
G1 X42.068 Y105.399 E767.12894
G1 X42.068 Y106.285 E767.20969
G1 X58.715 Y122.932 E769.35527
G1 X57.83 Y122.932 E769.43593
G1 X42.068 Y107.17 E771.46744
G1 X42.068 Y108.056 E771.54819
G1 X56.944 Y122.932 E773.46551
G1 X56.058 Y122.932 E773.54626
G1 X42.068 Y108.942 E775.34938
G1 X42.068 Y109.828 E775.43013
G1 X55.172 Y122.932 E777.11906
G1 X54.287 Y122.932 E777.19972
G1 X42.068 Y110.713 E778.77459
G1 X42.068 Y111.599 E778.85534
G1 X53.401 Y122.932 E780.31601
G1 X52.515 Y122.932 E780.39676
G1 X42.068 Y112.485 E781.74324
G1 X42.068 Y113.37 E781.8239
G1 X51.63 Y122.932 E783.05631
G1 X50.744 Y122.932 E783.13706
G1 X42.068 Y114.256 E784.25528
G1 X42.068 Y115.142 E784.33603
G1 X49.858 Y122.932 E785.34006
G1 X48.972 Y122.932 E785.42081
G1 X42.068 Y116.028 E786.31064
G1 X42.068 Y116.913 E786.3913
G1 X48.087 Y122.932 E787.16707
G1 X47.201 Y122.932 E787.24782
G1 X42.068 Y117.799 E787.90939
G1 X42.068 Y118.685 E787.99014
G1 X46.315 Y122.932 E788.53752
G1 X45.429 Y122.932 E788.61827
G1 X42.068 Y119.571 E789.05146
G1 X42.068 Y120.456 E789.13212
G1 X44.544 Y122.932 E789.45124
G1 X43.658 Y122.932 E789.53199
G1 X42.068 Y121.342 E789.73692
G1 X42.068 Y122.228 E789.81767
G1 X43.053 Y123.213 E789.94462
;LAYER_CHANGE
;Z:0.65
;HEIGHT:0.3
G1 Z.65 F7800
G1 E787.94462 F2400
G1 Z.65 F7800
G1 X159.004 Y124.004
G1 E789.94462 F2400
;TYPE:Perimeter
;WIDTH:0.45
G1 F3600
G1 X40.996 Y124.004 E795.62039
G1 X40.996 Y75.996 E797.92941
G1 X159.004 Y75.996 E803.60518
G1 X159.004 Y100 E804.75969
G1 X159.004 Y123.944 E805.91131
G1 X159.004 Y123.944 F7800
G1 X159.389 Y124.389
G1 F3600
G1 X40.611 Y124.389 E811.62412
G1 X40.611 Y75.611 E813.97017
G1 X159.389 Y75.611 E819.68298
G1 X159.389 Y100 E820.85601
G1 X159.389 Y124.329 E822.02615
G1 X159.389 Y124.329 F7800
G1 X159.775 Y124.775
;TYPE:External perimeter
G1 F1800
G1 X40.225 Y124.775 E827.77609
G1 X40.225 Y75.225 E830.15927
G1 X159.775 Y75.225 E835.90921
G1 X159.775 Y100 E837.1008
G1 X159.775 Y124.715 E838.28951
G1 X159.379 Y124.774 F7800
G1 E836.28951 F2400
G92 E0
G1 X41.39 Y76.317 F7800
G1 E2 F2400
;TYPE:Solid infill
;WIDTH:0.543559
G1 F1200
G1 X41.348 Y76.274 E2.00359
G1 X41.29 Y76.29 E2.00719
G1 X41.274 Y76.348 E2.01079
G1 X41.317 Y76.39 E2.01438
G1 X41.375 Y76.375 E2.01796
;WIDTH:0.45
G1 X41.285 Y76.991 E2.0479
G1 X41.991 Y76.285 E2.09592
G1 X42.536 Y76.285 E2.12213
G1 X41.285 Y77.536 E2.20722
G1 X41.285 Y78.081 E2.23343
G1 X43.081 Y76.285 E2.35559
G1 X43.627 Y76.285 E2.38185
G1 X41.285 Y78.627 E2.54115
G1 X41.285 Y79.172 E2.56736
G1 X44.172 Y76.285 E2.76373
G1 X44.717 Y76.285 E2.78994
G1 X41.285 Y79.717 E3.02338
G1 X41.285 Y80.263 E3.04964
G1 X45.263 Y76.285 E3.32022
G1 X45.808 Y76.285 E3.34643
G1 X41.285 Y80.808 E3.65408
G1 X41.285 Y81.353 E3.68029
G1 X46.353 Y76.285 E4.02501
G1 X46.899 Y76.285 E4.05127
G1 X41.285 Y81.899 E4.43313
G1 X41.285 Y82.444 E4.45934
G1 X47.444 Y76.285 E4.87827
G1 X47.989 Y76.285 E4.90448
G1 X41.285 Y82.989 E5.36048
G1 X41.285 Y83.535 E5.38674
G1 X48.535 Y76.285 E5.87988
G1 X49.08 Y76.285 E5.90609
G1 X41.285 Y84.08 E6.4363
G1 X41.285 Y84.625 E6.46251
G1 X49.625 Y76.285 E7.02979
G1 X50.171 Y76.285 E7.05605
G1 X41.285 Y85.171 E7.66046
G1 X41.285 Y85.716 E7.68667
G1 X50.716 Y76.285 E8.32815
G1 X51.261 Y76.285 E8.35436
G1 X41.285 Y86.261 E9.03292
G1 X41.285 Y86.807 E9.05918
G1 X51.807 Y76.285 E9.77487
G1 X52.352 Y76.285 E9.80108
G1 X41.285 Y87.352 E10.55384
G1 X41.285 Y87.897 E10.58005
G1 X52.897 Y76.285 E11.36988
G1 X53.443 Y76.285 E11.39614
G1 X41.285 Y88.443 E12.22311
G1 X41.285 Y88.988 E12.24932
G1 X53.988 Y76.285 E13.11336
G1 X54.534 Y76.285 E13.13962
G1 X41.285 Y89.534 E14.0408
G1 X41.285 Y90.079 E14.06701
G1 X55.079 Y76.285 E15.00526
G1 X55.624 Y76.285 E15.03147
G1 X41.285 Y90.624 E16.00679
G1 X41.285 Y91.17 E16.03305
G1 X56.17 Y76.285 E17.04551
G1 X56.715 Y76.285 E17.07172
G1 X41.285 Y91.715 E18.12125
G1 X41.285 Y92.26 E18.14746
G1 X57.26 Y76.285 E19.23406
G1 X57.806 Y76.285 E19.26032
G1 X41.285 Y92.806 E20.38406
