; generated by PrusaSlicer 2.7.2+win64 on 2024-03-20 at 07:56:16 UTC

; 

; external perimeters extrusion width = 3.00mm
; perimeters extrusion width = 3.00mm
; infill extrusion width = 3.00mm
; solid infill extrusion width = 3.00mm
; top infill extrusion width = 3.00mm
; first layer extrusion width = 3.00mm

M104 S200 ; set temperature
;TYPE:Custom
G28 ; home all axes
G1 Z5 F5000 ; lift nozzle
M109 S200 ; set temperature and wait for it to be reached
G21 ; set units to millimeters
G90 ; use absolute coordinates
M82 ; use absolute distances for extrusion
G92 E0
; Filament gcode
M107
;LAYER_CHANGE
;Z:1
;HEIGHT:1
G1 X118.5 Y48.5 F7800
G1 Z1
;TYPE:External perimeter
;WIDTH:3
G1 F1800
G1 X1.5 Y48.5 E135.48997
G1 X1.5 Y1.5 E189.91756
G1 X118.5 Y1.5 E325.40753
G1 X118.5 Y25 E352.62133
G1 X118.5 Y48.05 E379.31401
G92 E0
G1 X118.361 Y7.361 F7800
;TYPE:Internal infill
;WIDTH:3
G1 F1800
G1 X113.893 Y2.893 E7.31728
G1 X109.893 Y2.893 E11.94942
G1 X117.107 Y10.107 E23.76384
G1 X117.107 Y14.107 E28.39598
G1 X105.893 Y2.893 E46.76123
G1 X101.893 Y2.893 E51.39337
G1 X117.107 Y18.107 E76.30945
G1 X117.107 Y22.107 E80.94159
G1 X97.893 Y2.893 E112.4085
G1 X93.893 Y2.893 E117.04064
G1 X117.107 Y26.107 E155.05838
G1 X117.107 Y30.107 E159.69052
G1 X89.893 Y2.893 E204.25909
G1 X85.893 Y2.893 E208.89123
G1 X117.107 Y34.107 E260.01063
G1 X117.107 Y38.107 E264.64277
G1 X81.893 Y2.893 E322.313
G1 X77.893 Y2.893 E326.94514
G1 X117.107 Y42.107 E391.1662
G1 X117.107 Y46.107 E395.79834
G1 X73.893 Y2.893 E466.57023
G1 X69.893 Y2.893 E471.20237
G1 X114.107 Y47.107 E543.61197
G1 X110.107 Y47.107 E548.24411
G1 X65.893 Y2.893 E620.65371
G1 X61.893 Y2.893 E625.28585
G1 X106.107 Y47.107 E697.69545
G1 X102.107 Y47.107 E702.32759
G1 X57.893 Y2.893 E774.73719
G1 X53.893 Y2.893 E779.36933
G1 X98.107 Y47.107 E851.77893
G1 X94.107 Y47.107 E856.41107
G1 X49.893 Y2.893 E928.82067
G1 X45.893 Y2.893 E933.45281
G1 X90.107 Y47.107 E1005.86241
G1 X86.107 Y47.107 E1010.49455
G1 X41.893 Y2.893 E1082.90415
G1 X37.893 Y2.893 E1087.53629
G1 X82.107 Y47.107 E1159.94589
G1 X78.107 Y47.107 E1164.57803
G1 X33.893 Y2.893 E1236.98763
G1 X29.893 Y2.893 E1241.61977
G1 X74.107 Y47.107 E1314.02937
G1 X70.107 Y47.107 E1318.66151
G1 X25.893 Y2.893 E1391.07111
G1 X21.893 Y2.893 E1395.70325
G1 X66.107 Y47.107 E1468.11285
G1 X62.107 Y47.107 E1472.74499
G1 X17.893 Y2.893 E1545.15459
G1 X13.893 Y2.893 E1549.78673
G1 X58.107 Y47.107 E1622.19633
G1 X54.107 Y47.107 E1626.82847
G1 X9.893 Y2.893 E1699.23807
G1 X5.893 Y2.893 E1703.87021
G1 X50.107 Y47.107 E1776.27981
G1 X46.107 Y47.107 E1780.91195
G1 X2.893 Y3.893 E1851.68384
G1 X2.893 Y7.893 E1856.31598
G1 X42.107 Y47.107 E1920.53704
G1 X38.107 Y47.107 E1925.16918
G1 X2.893 Y11.893 E1982.83941
G1 X2.893 Y15.893 E1987.47155
G1 X34.107 Y47.107 E2038.59095
G1 X30.107 Y47.107 E2043.22309
G1 X2.893 Y19.893 E2087.79166
G1 X2.893 Y23.893 E2092.4238
G1 X26.107 Y47.107 E2130.44154
G1 X22.107 Y47.107 E2135.07368
G1 X2.893 Y27.893 E2166.54059
G1 X2.893 Y31.893 E2171.17273
G1 X18.107 Y47.107 E2196.08881
G1 X14.107 Y47.107 E2200.72095
G1 X2.893 Y35.893 E2219.0862
G1 X2.893 Y39.893 E2223.71834
G1 X10.107 Y47.107 E2235.53276
G1 X6.107 Y47.107 E2240.1649
G1 X1.639 Y42.639 E2247.48218
;LAYER_CHANGE
;Z:2
;HEIGHT:1
G1 Z2 F7800
G1 X118.5 Y48.5
;TYPE:External perimeter
;WIDTH:3
G1 F1800
G1 X1.5 Y48.5 E2382.97215
G1 X1.5 Y1.5 E2437.39974
G1 X118.5 Y1.5 E2572.88971
G1 X118.5 Y25 E2600.10351
G1 X118.5 Y48.05 E2626.79619
G92 E0
G1 X112.639 Y48.361 F7800
;TYPE:Internal infill
;WIDTH:3
G1 F4800
G1 X117.107 Y43.893 E7.31728
G1 X117.107 Y39.893 E11.94942
G1 X109.893 Y47.107 E23.76384
G1 X105.893 Y47.107 E28.39598
G1 X117.107 Y35.893 E46.76123
G1 X117.107 Y31.893 E51.39337
G1 X101.893 Y47.107 E76.30945
G1 X97.893 Y47.107 E80.94159
G1 X117.107 Y27.893 E112.4085
G1 X117.107 Y23.893 E117.04064
G1 X93.893 Y47.107 E155.05838
G1 X89.893 Y47.107 E159.69052
G1 X117.107 Y19.893 E204.25909
G1 X117.107 Y15.893 E208.89123
G1 X85.893 Y47.107 E260.01063
G1 X81.893 Y47.107 E264.64277
G1 X117.107 Y11.893 E322.313
G1 X117.107 Y7.893 E326.94514
G1 X77.893 Y47.107 E391.1662
G1 X73.893 Y47.107 E395.79834
G1 X117.107 Y3.893 E466.57023
G1 X117.107 Y2.893 E467.72826
G1 X114.107 Y2.893 E471.20236
G1 X69.893 Y47.107 E543.61196
G1 X65.893 Y47.107 E548.2441
G1 X110.107 Y2.893 E620.6537
G1 X106.107 Y2.893 E625.28584
G1 X61.893 Y47.107 E697.69544
G1 X57.893 Y47.107 E702.32758
G1 X102.107 Y2.893 E774.73718
G1 X98.107 Y2.893 E779.36932
G1 X53.893 Y47.107 E851.77892
G1 X49.893 Y47.107 E856.41106
G1 X94.107 Y2.893 E928.82066
G1 X90.107 Y2.893 E933.4528
G1 X45.893 Y47.107 E1005.8624
G1 X41.893 Y47.107 E1010.49454
G1 X86.107 Y2.893 E1082.90414
G1 X82.107 Y2.893 E1087.53628
G1 X37.893 Y47.107 E1159.94588
G1 X33.893 Y47.107 E1164.57802
G1 X78.107 Y2.893 E1236.98762
G1 X74.107 Y2.893 E1241.61976
G1 X29.893 Y47.107 E1314.02936
G1 X25.893 Y47.107 E1318.6615
G1 X70.107 Y2.893 E1391.0711
G1 X66.107 Y2.893 E1395.70324
G1 X21.893 Y47.107 E1468.11284
G1 X17.893 Y47.107 E1472.74498
G1 X62.107 Y2.893 E1545.15458
G1 X58.107 Y2.893 E1549.78672
G1 X13.893 Y47.107 E1622.19632
G1 X9.893 Y47.107 E1626.82846
G1 X54.107 Y2.893 E1699.23806
G1 X50.107 Y2.893 E1703.8702
G1 X5.893 Y47.107 E1776.2798
G1 X2.893 Y47.107 E1779.7539
G1 X2.893 Y46.107 E1780.91193
G1 X46.107 Y2.893 E1851.68382
G1 X42.107 Y2.893 E1856.31596
G1 X2.893 Y42.107 E1920.53702
G1 X2.893 Y38.107 E1925.16916
G1 X38.107 Y2.893 E1982.83939
G1 X34.107 Y2.893 E1987.47153
G1 X2.893 Y34.107 E2038.59093
G1 X2.893 Y30.107 E2043.22307
G1 X30.107 Y2.893 E2087.79164
G1 X26.107 Y2.893 E2092.42378
G1 X2.893 Y26.107 E2130.44152
G1 X2.893 Y22.107 E2135.07366
G1 X22.107 Y2.893 E2166.54057
G1 X18.107 Y2.893 E2171.17271
G1 X2.893 Y18.107 E2196.08879
G1 X2.893 Y14.107 E2200.72093
G1 X14.107 Y2.893 E2219.08618
G1 X10.107 Y2.893 E2223.71832
G1 X2.893 Y10.107 E2235.53274
G1 X2.893 Y6.107 E2240.16488
G1 X7.361 Y1.639 E2247.48216
;LAYER_CHANGE
;Z:3
;HEIGHT:1
G1 Z3 F7800
G1 X118.5 Y48.5
;TYPE:External perimeter
;WIDTH:3
G1 F1800
G1 X1.5 Y48.5 E2382.97213
G1 X1.5 Y1.5 E2437.39972
G1 X118.5 Y1.5 E2572.88969
G1 X118.5 Y25 E2600.10349
G1 X118.5 Y48.05 E2626.79617
G92 E0
G1 X118.361 Y7.361 F7800
;TYPE:Internal infill
;WIDTH:3
G1 F4800
G1 X113.893 Y2.893 E7.31728
G1 X109.893 Y2.893 E11.94942
G1 X117.107 Y10.107 E23.76384
G1 X117.107 Y14.107 E28.39598
G1 X105.893 Y2.893 E46.76123
G1 X101.893 Y2.893 E51.39337
G1 X117.107 Y18.107 E76.30945
G1 X117.107 Y22.107 E80.94159
G1 X97.893 Y2.893 E112.4085
G1 X93.893 Y2.893 E117.04064
G1 X117.107 Y26.107 E155.05838
G1 X117.107 Y30.107 E159.69052
G1 X89.893 Y2.893 E204.25909
G1 X85.893 Y2.893 E208.89123
G1 X117.107 Y34.107 E260.01063
G1 X117.107 Y38.107 E264.64277
G1 X81.893 Y2.893 E322.313
G1 X77.893 Y2.893 E326.94514
G1 X117.107 Y42.107 E391.1662
G1 X117.107 Y46.107 E395.79834
G1 X73.893 Y2.893 E466.57023
G1 X69.893 Y2.893 E471.20237
G1 X114.107 Y47.107 E543.61197
G1 X110.107 Y47.107 E548.24411
G1 X65.893 Y2.893 E620.65371
G1 X61.893 Y2.893 E625.28585
G1 X106.107 Y47.107 E697.69545
G1 X102.107 Y47.107 E702.32759
G1 X57.893 Y2.893 E774.73719
G1 X53.893 Y2.893 E779.36933
G1 X98.107 Y47.107 E851.77893
G1 X94.107 Y47.107 E856.41107
G1 X49.893 Y2.893 E928.82067
G1 X45.893 Y2.893 E933.45281
G1 X90.107 Y47.107 E1005.86241
G1 X86.107 Y47.107 E1010.49455
G1 X41.893 Y2.893 E1082.90415
G1 X37.893 Y2.893 E1087.53629
G1 X82.107 Y47.107 E1159.94589
G1 X78.107 Y47.107 E1164.57803
G1 X33.893 Y2.893 E1236.98763
G1 X29.893 Y2.893 E1241.61977
G1 X74.107 Y47.107 E1314.02937
G1 X70.107 Y47.107 E1318.66151
G1 X25.893 Y2.893 E1391.07111
G1 X21.893 Y2.893 E1395.70325
G1 X66.107 Y47.107 E1468.11285
G1 X62.107 Y47.107 E1472.74499
G1 X17.893 Y2.893 E1545.15459
G1 X13.893 Y2.893 E1549.78673
G1 X58.107 Y47.107 E1622.19633
G1 X54.107 Y47.107 E1626.82847
G1 X9.893 Y2.893 E1699.23807
G1 X5.893 Y2.893 E1703.87021
G1 X50.107 Y47.107 E1776.27981
G1 X46.107 Y47.107 E1780.91195
G1 X2.893 Y3.893 E1851.68384
G1 X2.893 Y7.893 E1856.31598
G1 X42.107 Y47.107 E1920.53704
G1 X38.107 Y47.107 E1925.16918
G1 X2.893 Y11.893 E1982.83941
G1 X2.893 Y15.893 E1987.47155
G1 X34.107 Y47.107 E2038.59095
G1 X30.107 Y47.107 E2043.22309
G1 X2.893 Y19.893 E2087.79166
G1 X2.893 Y23.893 E2092.4238
G1 X26.107 Y47.107 E2130.44154
G1 X22.107 Y47.107 E2135.07368
G1 X2.893 Y27.893 E2166.54059
G1 X2.893 Y31.893 E2171.17273
G1 X18.107 Y47.107 E2196.08881
G1 X14.107 Y47.107 E2200.72095
G1 X2.893 Y35.893 E2219.0862
G1 X2.893 Y39.893 E2223.71834
G1 X10.107 Y47.107 E2235.53276
G1 X6.107 Y47.107 E2240.1649
G1 X1.639 Y42.639 E2247.48218
M106 S160.65
;LAYER_CHANGE
;Z:4
;HEIGHT:1
G1 Z4 F7800
G1 X118.5 Y48.5
;TYPE:External perimeter
;WIDTH:3
G1 F1800
G1 X1.5 Y48.5 E2382.97215
G1 X1.5 Y1.5 E2437.39974
G1 X118.5 Y1.5 E2572.88971
G1 X118.5 Y25 E2600.10351
G1 X118.5 Y48.05 E2626.79619
G92 E0
G1 X112.639 Y48.361 F7800
;TYPE:Internal infill
;WIDTH:3
G1 F4800
G1 X117.107 Y43.893 E7.31728
G1 X117.107 Y39.893 E11.94942
G1 X109.893 Y47.107 E23.76384
G1 X105.893 Y47.107 E28.39598
G1 X117.107 Y35.893 E46.76123
G1 X117.107 Y31.893 E51.39337
G1 X101.893 Y47.107 E76.30945
G1 X97.893 Y47.107 E80.94159
G1 X117.107 Y27.893 E112.4085
G1 X117.107 Y23.893 E117.04064
G1 X93.893 Y47.107 E155.05838
G1 X89.893 Y47.107 E159.69052
G1 X117.107 Y19.893 E204.25909
G1 X117.107 Y15.893 E208.89123
G1 X85.893 Y47.107 E260.01063
G1 X81.893 Y47.107 E264.64277
G1 X117.107 Y11.893 E322.313
G1 X117.107 Y7.893 E326.94514
G1 X77.893 Y47.107 E391.1662
G1 X73.893 Y47.107 E395.79834
G1 X117.107 Y3.893 E466.57023
G1 X117.107 Y2.893 E467.72826
G1 X114.107 Y2.893 E471.20236
G1 X69.893 Y47.107 E543.61196
G1 X65.893 Y47.107 E548.2441
G1 X110.107 Y2.893 E620.6537
G1 X106.107 Y2.893 E625.28584
G1 X61.893 Y47.107 E697.69544
G1 X57.893 Y47.107 E702.32758
G1 X102.107 Y2.893 E774.73718
G1 X98.107 Y2.893 E779.36932
G1 X53.893 Y47.107 E851.77892
G1 X49.893 Y47.107 E856.41106
G1 X94.107 Y2.893 E928.82066
G1 X90.107 Y2.893 E933.4528
G1 X45.893 Y47.107 E1005.8624
G1 X41.893 Y47.107 E1010.49454
G1 X86.107 Y2.893 E1082.90414
G1 X82.107 Y2.893 E1087.53628
G1 X37.893 Y47.107 E1159.94588
G1 X33.893 Y47.107 E1164.57802
G1 X78.107 Y2.893 E1236.98762
G1 X74.107 Y2.893 E1241.61976
G1 X29.893 Y47.107 E1314.02936
G1 X25.893 Y47.107 E1318.6615
G1 X70.107 Y2.893 E1391.0711
G1 X66.107 Y2.893 E1395.70324
G1 X21.893 Y47.107 E1468.11284
G1 X17.893 Y47.107 E1472.74498
G1 X62.107 Y2.893 E1545.15458
G1 X58.107 Y2.893 E1549.78672
G1 X13.893 Y47.107 E1622.19632
G1 X9.893 Y47.107 E1626.82846
G1 X54.107 Y2.893 E1699.23806
G1 X50.107 Y2.893 E1703.8702
G1 X5.893 Y47.107 E1776.2798
G1 X2.893 Y47.107 E1779.7539
G1 X2.893 Y46.107 E1780.91193
G1 X46.107 Y2.893 E1851.68382
G1 X42.107 Y2.893 E1856.31596
G1 X2.893 Y42.107 E1920.53702
G1 X2.893 Y38.107 E1925.16916
G1 X38.107 Y2.893 E1982.83939
G1 X34.107 Y2.893 E1987.47153
G1 X2.893 Y34.107 E2038.59093
G1 X2.893 Y30.107 E2043.22307
G1 X30.107 Y2.893 E2087.79164
G1 X26.107 Y2.893 E2092.42378
G1 X2.893 Y26.107 E2130.44152
G1 X2.893 Y22.107 E2135.07366
G1 X22.107 Y2.893 E2166.54057
G1 X18.107 Y2.893 E2171.17271
G1 X2.893 Y18.107 E2196.08879
G1 X2.893 Y14.107 E2200.72093
G1 X14.107 Y2.893 E2219.08618
G1 X10.107 Y2.893 E2223.71832
G1 X2.893 Y10.107 E2235.53274
G1 X2.893 Y6.107 E2240.16488
G1 X7.361 Y1.639 E2247.48216
M106 S158.1
;LAYER_CHANGE
;Z:5
;HEIGHT:1
G1 Z5 F7800
G1 X118.5 Y48.5
;TYPE:External perimeter
;WIDTH:3
G1 F1800
G1 X1.5 Y48.5 E2382.97213
G1 X1.5 Y1.5 E2437.39972
G1 X118.5 Y1.5 E2572.88969
G1 X118.5 Y25 E2600.10349
G1 X118.5 Y48.05 E2626.79617
G92 E0
G1 X118.361 Y7.361 F7800
;TYPE:Internal infill
;WIDTH:3
G1 F4800
G1 X113.893 Y2.893 E7.31728
G1 X109.893 Y2.893 E11.94942
G1 X117.107 Y10.107 E23.76384
G1 X117.107 Y14.107 E28.39598
G1 X105.893 Y2.893 E46.76123
G1 X101.893 Y2.893 E51.39337
G1 X117.107 Y18.107 E76.30945
G1 X117.107 Y22.107 E80.94159
G1 X97.893 Y2.893 E112.4085
G1 X93.893 Y2.893 E117.04064
G1 X117.107 Y26.107 E155.05838
G1 X117.107 Y30.107 E159.69052
G1 X89.893 Y2.893 E204.25909
G1 X85.893 Y2.893 E208.89123
G1 X117.107 Y34.107 E260.01063
G1 X117.107 Y38.107 E264.64277
G1 X81.893 Y2.893 E322.313
G1 X77.893 Y2.893 E326.94514
G1 X117.107 Y42.107 E391.1662
G1 X117.107 Y46.107 E395.79834
G1 X73.893 Y2.893 E466.57023
G1 X69.893 Y2.893 E471.20237
G1 X114.107 Y47.107 E543.61197
G1 X110.107 Y47.107 E548.24411
G1 X65.893 Y2.893 E620.65371
G1 X61.893 Y2.893 E625.28585
G1 X106.107 Y47.107 E697.69545
G1 X102.107 Y47.107 E702.32759
G1 X57.893 Y2.893 E774.73719
G1 X53.893 Y2.893 E779.36933
G1 X98.107 Y47.107 E851.77893
G1 X94.107 Y47.107 E856.41107
G1 X49.893 Y2.893 E928.82067
G1 X45.893 Y2.893 E933.45281
G1 X90.107 Y47.107 E1005.86241
G1 X86.107 Y47.107 E1010.49455
G1 X41.893 Y2.893 E1082.90415
G1 X37.893 Y2.893 E1087.53629
G1 X82.107 Y47.107 E1159.94589
G1 X78.107 Y47.107 E1164.57803
G1 X33.893 Y2.893 E1236.98763
G1 X29.893 Y2.893 E1241.61977
G1 X74.107 Y47.107 E1314.02937
G1 X70.107 Y47.107 E1318.66151
G1 X25.893 Y2.893 E1391.07111
G1 X21.893 Y2.893 E1395.70325
G1 X66.107 Y47.107 E1468.11285
G1 X62.107 Y47.107 E1472.74499
G1 X17.893 Y2.893 E1545.15459
G1 X13.893 Y2.893 E1549.78673
G1 X58.107 Y47.107 E1622.19633
G1 X54.107 Y47.107 E1626.82847
G1 X9.893 Y2.893 E1699.23807
G1 X5.893 Y2.893 E1703.87021
G1 X50.107 Y47.107 E1776.27981
G1 X46.107 Y47.107 E1780.91195
G1 X2.893 Y3.893 E1851.68384
G1 X2.893 Y7.893 E1856.31598
G1 X42.107 Y47.107 E1920.53704
G1 X38.107 Y47.107 E1925.16918
G1 X2.893 Y11.893 E1982.83941
G1 X2.893 Y15.893 E1987.47155
G1 X34.107 Y47.107 E2038.59095
G1 X30.107 Y47.107 E2043.22309
G1 X2.893 Y19.893 E2087.79166
G1 X2.893 Y23.893 E2092.4238
G1 X26.107 Y47.107 E2130.44154
G1 X22.107 Y47.107 E2135.07368
G1 X2.893 Y27.893 E2166.54059
G1 X2.893 Y31.893 E2171.17273
G1 X18.107 Y47.107 E2196.08881
G1 X14.107 Y47.107 E2200.72095
G1 X2.893 Y35.893 E2219.0862
G1 X2.893 Y39.893 E2223.71834
G1 X10.107 Y47.107 E2235.53276
G1 X6.107 Y47.107 E2240.1649
G1 X1.639 Y42.639 E2247.48218
M106 S160.65
;LAYER_CHANGE
;Z:6
;HEIGHT:1
G1 Z6 F7800
G1 X118.5 Y48.5
;TYPE:External perimeter
;WIDTH:3
G1 F1800
G1 X1.5 Y48.5 E2382.97215
G1 X1.5 Y1.5 E2437.39974
G1 X118.5 Y1.5 E2572.88971
G1 X118.5 Y25 E2600.10351
G1 X118.5 Y48.05 E2626.79619
G92 E0
G1 X112.639 Y48.361 F7800
;TYPE:Internal infill
;WIDTH:3
G1 F4800
G1 X117.107 Y43.893 E7.31728
G1 X117.107 Y39.893 E11.94942
G1 X109.893 Y47.107 E23.76384
G1 X105.893 Y47.107 E28.39598
G1 X117.107 Y35.893 E46.76123
G1 X117.107 Y31.893 E51.39337
G1 X101.893 Y47.107 E76.30945
G1 X97.893 Y47.107 E80.94159
G1 X117.107 Y27.893 E112.4085
G1 X117.107 Y23.893 E117.04064
G1 X93.893 Y47.107 E155.05838
G1 X89.893 Y47.107 E159.69052
G1 X117.107 Y19.893 E204.25909
G1 X117.107 Y15.893 E208.89123
G1 X85.893 Y47.107 E260.01063
G1 X81.893 Y47.107 E264.64277
G1 X117.107 Y11.893 E322.313
G1 X117.107 Y7.893 E326.94514
G1 X77.893 Y47.107 E391.1662
G1 X73.893 Y47.107 E395.79834
G1 X117.107 Y3.893 E466.57023
G1 X117.107 Y2.893 E467.72826
G1 X114.107 Y2.893 E471.20236
G1 X69.893 Y47.107 E543.61196
G1 X65.893 Y47.107 E548.2441
G1 X110.107 Y2.893 E620.6537
G1 X106.107 Y2.893 E625.28584
G1 X61.893 Y47.107 E697.69544
G1 X57.893 Y47.107 E702.32758
G1 X102.107 Y2.893 E774.73718
G1 X98.107 Y2.893 E779.36932
G1 X53.893 Y47.107 E851.77892
G1 X49.893 Y47.107 E856.41106
G1 X94.107 Y2.893 E928.82066
G1 X90.107 Y2.893 E933.4528
G1 X45.893 Y47.107 E1005.8624
G1 X41.893 Y47.107 E1010.49454
G1 X86.107 Y2.893 E1082.90414
G1 X82.107 Y2.893 E1087.53628
G1 X37.893 Y47.107 E1159.94588
G1 X33.893 Y47.107 E1164.57802
G1 X78.107 Y2.893 E1236.98762
G1 X74.107 Y2.893 E1241.61976
G1 X29.893 Y47.107 E1314.02936
G1 X25.893 Y47.107 E1318.6615
G1 X70.107 Y2.893 E1391.0711
G1 X66.107 Y2.893 E1395.70324
G1 X21.893 Y47.107 E1468.11284
G1 X17.893 Y47.107 E1472.74498
G1 X62.107 Y2.893 E1545.15458
G1 X58.107 Y2.893 E1549.78672
G1 X13.893 Y47.107 E1622.19632
G1 X9.893 Y47.107 E1626.82846
G1 X54.107 Y2.893 E1699.23806
G1 X50.107 Y2.893 E1703.8702
G1 X5.893 Y47.107 E1776.2798
G1 X2.893 Y47.107 E1779.7539
G1 X2.893 Y46.107 E1780.91193
G1 X46.107 Y2.893 E1851.68382
G1 X42.107 Y2.893 E1856.31596
G1 X2.893 Y42.107 E1920.53702
G1 X2.893 Y38.107 E1925.16916
