; generated by PrusaSlicer 2.7.2+win64 on 2024-03-19 at 14:53:43 UTC

; 

; external perimeters extrusion width = 3.00mm
; perimeters extrusion width = 3.00mm
; infill extrusion width = 3.00mm
; solid infill extrusion width = 3.00mm
; top infill extrusion width = 3.00mm
; first layer extrusion width = 3.00mm

M104 S200 ; set temperature
;TYPE:Custom
G28 ; home all axes
G1 Z5 F5000 ; lift nozzle
M109 S200 ; set temperature and wait for it to be reached
G21 ; set units to millimeters
G90 ; use absolute coordinates
M82 ; use absolute distances for extrusion
G92 E0
; Filament gcode
M107
;LAYER_CHANGE
;Z:2
;HEIGHT:2
G1 X118.5 Y48.5 F7800
G1 Z2
;TYPE:External perimeter
;WIDTH:3
G1 F1800
G1 X1.5 Y48.5 E250.10219
G1 X1.5 Y1.5 E350.57059
G1 X118.5 Y1.5 E600.67278
G1 X118.5 Y25 E650.90698
G1 X118.5 Y48.05 E700.17925
G1 X118.371 Y47.194 F7800
;TYPE:Internal infill
;WIDTH:3
G1 F1800
G1 X1.629 Y47.194 E949.72996
G92 E0
G1 X1.629 Y47.194 F7800
G1 X1.629 Y44.583
G1 F1800
G1 X118.371 Y44.583 E249.55071
G92 E0
G1 X118.371 Y44.583 F7800
G1 X118.371 Y15.861
G1 F1800
G1 X1.629 Y15.861 E249.55071
G92 E0
G1 X1.629 Y15.861 F7800
G1 X1.629 Y13.25
G1 F1800
G1 X118.371 Y13.25 E249.55071
G92 E0
G1 X118.371 Y13.25 F7800
G1 X118.371 Y10.639
G1 F1800
G1 X1.629 Y10.639 E249.55071
G92 E0
G1 X1.629 Y10.639 F7800
G1 X1.629 Y8.028
G1 F1800
G1 X118.371 Y8.028 E249.55071
G92 E0
G1 X118.371 Y8.028 F7800
G1 X1.629 Y2.806
G1 F1800
G1 X118.371 Y2.806 E249.55071
G92 E0
G1 X118.371 Y2.806 F7800
G1 X118.371 Y5.417
G1 F1800
G1 X1.629 Y5.417 E249.55071
G92 E0
G1 X1.629 Y5.417 F7800
G1 X1.629 Y18.472
G1 F1800
G1 X118.371 Y18.472 E249.55071
G92 E0
G1 X118.371 Y18.472 F7800
G1 X118.371 Y21.083
G1 F1800
G1 X1.629 Y21.083 E249.55071
G92 E0
G1 X1.629 Y21.083 F7800
G1 X1.629 Y23.694
G1 F1800
G1 X118.371 Y23.694 E249.55071
G92 E0
G1 X118.371 Y23.694 F7800
G1 X118.371 Y26.306
G1 F1800
G1 X1.629 Y26.306 E249.55071
G92 E0
G1 X1.629 Y26.306 F7800
G1 X1.629 Y28.917
G1 F1800
G1 X118.371 Y28.917 E249.55071
G92 E0
G1 X118.371 Y28.917 F7800
G1 X118.371 Y31.528
G1 F1800
G1 X1.629 Y31.528 E249.55071
G92 E0
G1 X1.629 Y31.528 F7800
G1 X1.629 Y34.139
G1 F1800
G1 X118.371 Y34.139 E249.55071
G92 E0
G1 X118.371 Y34.139 F7800
G1 X118.371 Y36.75
G1 F1800
G1 X1.629 Y36.75 E249.55071
G92 E0
G1 X1.629 Y36.75 F7800
G1 X1.629 Y39.361
G1 F1800
G1 X118.371 Y39.361 E249.55071
G92 E0
G1 X118.371 Y39.361 F7800
G1 X118.371 Y41.972
G1 F1800
G1 X1.629 Y41.972 E249.55071
;LAYER_CHANGE
;Z:4
;HEIGHT:2
G1 Z4 F7800
G1 X118.5 Y48.5
;TYPE:External perimeter
;WIDTH:3
G1 F1800
G1 X1.5 Y48.5 E499.6529
G1 X1.5 Y1.5 E600.1213
G1 X118.5 Y1.5 E850.22349
G1 X118.5 Y25 E900.45769
G1 X118.5 Y48.05 E949.72996
G1 X117.2 Y48.371 F7800
;TYPE:Internal infill
;WIDTH:3
G1 F4800
G1 X117.2 Y1.629 E1049.64686
G92 E0
G1 X117.2 Y1.629 F7800
G1 X114.6 Y1.629
G1 F4800
G1 X114.6 Y48.371 E99.9169
G92 E0
G1 X114.6 Y48.371 F7800
G1 X112 Y48.371
G1 F4800
G1 X112 Y1.629 E99.9169
G92 E0
G1 X112 Y1.629 F7800
G1 X109.4 Y1.629
G1 F4800
G1 X109.4 Y48.371 E99.9169
G92 E0
G1 X109.4 Y48.371 F7800
G1 X106.8 Y48.371
G1 F4800
G1 X106.8 Y1.629 E99.9169
G92 E0
G1 X106.8 Y1.629 F7800
G1 X104.2 Y1.629
G1 F4800
G1 X104.2 Y48.371 E99.9169
G92 E0
G1 X104.2 Y48.371 F7800
G1 X101.6 Y48.371
G1 F4800
G1 X101.6 Y1.629 E99.9169
G92 E0
G1 X101.6 Y1.629 F7800
G1 X67.8 Y1.629
G1 F4800
G1 X67.8 Y48.371 E99.9169
G92 E0
G1 X67.8 Y48.371 F7800
G1 X65.2 Y48.371
G1 F4800
G1 X65.2 Y1.629 E99.9169
G92 E0
G1 X65.2 Y1.629 F7800
G1 X62.6 Y1.629
G1 F4800
G1 X62.6 Y48.371 E99.9169
G92 E0
G1 X62.6 Y48.371 F7800
G1 X60 Y48.371
G1 F4800
G1 X60 Y1.629 E99.9169
G92 E0
G1 X60 Y1.629 F7800
G1 X57.4 Y1.629
G1 F4800
G1 X57.4 Y48.371 E99.9169
G92 E0
G1 X57.4 Y48.371 F7800
G1 X54.8 Y48.371
G1 F4800
G1 X54.8 Y1.629 E99.9169
G92 E0
G1 X54.8 Y1.629 F7800
G1 X52.2 Y1.629
G1 F4800
G1 X52.2 Y48.371 E99.9169
G92 E0
G1 X52.2 Y48.371 F7800
G1 X49.6 Y48.371
G1 F4800
G1 X49.6 Y1.629 E99.9169
G92 E0
G1 X49.6 Y1.629 F7800
G1 X47 Y1.629
G1 F4800
G1 X47 Y48.371 E99.9169
G92 E0
G1 X47 Y48.371 F7800
G1 X44.4 Y48.371
G1 F4800
G1 X44.4 Y1.629 E99.9169
G92 E0
G1 X44.4 Y1.629 F7800
G1 X31.4 Y1.629
G1 F4800
G1 X31.4 Y48.371 E99.9169
G92 E0
G1 X31.4 Y48.371 F7800
G1 X34 Y48.371
G1 F4800
G1 X34 Y1.629 E99.9169
G92 E0
G1 X34 Y1.629 F7800
G1 X36.6 Y1.629
G1 F4800
G1 X36.6 Y48.371 E99.9169
G92 E0
G1 X36.6 Y48.371 F7800
G1 X39.2 Y48.371
G1 F4800
G1 X39.2 Y1.629 E99.9169
G92 E0
G1 X39.2 Y1.629 F7800
G1 X41.8 Y1.629
G1 F4800
G1 X41.8 Y48.371 E99.9169
G92 E0
G1 X41.8 Y48.371 F7800
G1 X28.8 Y48.371
G1 F4800
G1 X28.8 Y1.629 E99.9169
G92 E0
G1 X28.8 Y1.629 F7800
G1 X26.2 Y1.629
G1 F4800
G1 X26.2 Y48.371 E99.9169
G92 E0
G1 X26.2 Y48.371 F7800
G1 X23.6 Y48.371
G1 F4800
G1 X23.6 Y1.629 E99.9169
G92 E0
G1 X23.6 Y1.629 F7800
G1 X21 Y1.629
G1 F4800
G1 X21 Y48.371 E99.9169
G92 E0
G1 X21 Y48.371 F7800
G1 X18.4 Y48.371
G1 F4800
G1 X18.4 Y1.629 E99.9169
G92 E0
G1 X18.4 Y1.629 F7800
G1 X15.8 Y48.371
G1 F4800
G1 X15.8 Y1.629 E99.9169
G92 E0
G1 X15.8 Y1.629 F7800
G1 X13.2 Y1.629
G1 F4800
G1 X13.2 Y48.371 E99.9169
G92 E0
G1 X13.2 Y48.371 F7800
G1 X10.6 Y48.371
G1 F4800
G1 X10.6 Y1.629 E99.9169
G92 E0
G1 X10.6 Y1.629 F7800
G1 X8 Y1.629
G1 F4800
G1 X8 Y48.371 E99.9169
G92 E0
G1 X8 Y48.371 F7800
G1 X5.4 Y48.371
G1 F4800
G1 X5.4 Y1.629 E99.9169
G92 E0
G1 X5.4 Y1.629 F7800
G1 X2.8 Y1.629
G1 F4800
G1 X2.8 Y48.371 E99.9169
G92 E0
G1 X2.8 Y48.371 F7800
G1 X70.4 Y48.371
G1 F4800
G1 X70.4 Y1.629 E99.9169
G92 E0
G1 X70.4 Y1.629 F7800
G1 X73 Y1.629
G1 F4800
G1 X73 Y48.371 E99.9169
G92 E0
G1 X73 Y48.371 F7800
G1 X75.6 Y48.371
G1 F4800
G1 X75.6 Y1.629 E99.9169
G92 E0
G1 X75.6 Y1.629 F7800
G1 X78.2 Y1.629
G1 F4800
G1 X78.2 Y48.371 E99.9169
G92 E0
G1 X78.2 Y48.371 F7800
G1 X80.8 Y48.371
G1 F4800
G1 X80.8 Y1.629 E99.9169
G92 E0
G1 X80.8 Y1.629 F7800
G1 X83.4 Y1.629
G1 F4800
G1 X83.4 Y48.371 E99.9169
G92 E0
G1 X83.4 Y48.371 F7800
G1 X86 Y48.371
G1 F4800
G1 X86 Y1.629 E99.9169
G92 E0
G1 X86 Y1.629 F7800
G1 X88.6 Y1.629
G1 F4800
G1 X88.6 Y48.371 E99.9169
G92 E0
G1 X88.6 Y48.371 F7800
G1 X91.2 Y48.371
G1 F4800
G1 X91.2 Y1.629 E99.9169
G92 E0
G1 X91.2 Y1.629 F7800
G1 X93.8 Y1.629
G1 F4800
G1 X93.8 Y48.371 E99.9169
G92 E0
G1 X93.8 Y48.371 F7800
G1 X96.4 Y48.371
G1 F4800
G1 X96.4 Y1.629 E99.9169
G92 E0
G1 X96.4 Y1.629 F7800
G1 X99 Y1.629
G1 F4800
G1 X99 Y48.371 E99.9169
;LAYER_CHANGE
;Z:6
;HEIGHT:2
G1 Z6 F7800
G1 X118.5 Y48.5
;TYPE:External perimeter
;WIDTH:3
G1 F1800
G1 X1.5 Y48.5 E350.01909
G1 X1.5 Y1.5 E450.48749
G1 X118.5 Y1.5 E700.58968
G1 X118.5 Y25 E750.82388
G1 X118.5 Y48.05 E800.09615
G1 X118.371 Y47.194 F7800
;TYPE:Internal infill
;WIDTH:3
G1 F4800
G1 X1.629 Y47.194 E1049.64686
G92 E0
G1 X1.629 Y47.194 F7800
G1 X1.629 Y44.583
G1 F4800
G1 X118.371 Y44.583 E249.55071
G92 E0
G1 X118.371 Y44.583 F7800
G1 X118.371 Y15.861
G1 F4800
G1 X1.629 Y15.861 E249.55071
G92 E0
G1 X1.629 Y15.861 F7800
G1 X1.629 Y13.25
G1 F4800
G1 X118.371 Y13.25 E249.55071
G92 E0
G1 X118.371 Y13.25 F7800
G1 X118.371 Y10.639
G1 F4800
G1 X1.629 Y10.639 E249.55071
G92 E0
G1 X1.629 Y10.639 F7800
G1 X1.629 Y8.028
G1 F4800
G1 X118.371 Y8.028 E249.55071
G92 E0
G1 X118.371 Y8.028 F7800
G1 X1.629 Y2.806
G1 F4800
G1 X118.371 Y2.806 E249.55071
G92 E0
G1 X118.371 Y2.806 F7800
G1 X118.371 Y5.417
G1 F4800
G1 X1.629 Y5.417 E249.55071
G92 E0
G1 X1.629 Y5.417 F7800
G1 X1.629 Y18.472
G1 F4800
G1 X118.371 Y18.472 E249.55071
G92 E0
G1 X118.371 Y18.472 F7800
G1 X118.371 Y21.083
G1 F4800
G1 X1.629 Y21.083 E249.55071
G92 E0
G1 X1.629 Y21.083 F7800
G1 X1.629 Y23.694
G1 F4800
G1 X118.371 Y23.694 E249.55071
G92 E0
G1 X118.371 Y23.694 F7800
G1 X118.371 Y26.306
G1 F4800
G1 X1.629 Y26.306 E249.55071
G92 E0
G1 X1.629 Y26.306 F7800
G1 X1.629 Y28.917
G1 F4800
G1 X118.371 Y28.917 E249.55071
G92 E0
G1 X118.371 Y28.917 F7800
G1 X118.371 Y31.528
G1 F4800
G1 X1.629 Y31.528 E249.55071
G92 E0
G1 X1.629 Y31.528 F7800
G1 X1.629 Y34.139
G1 F4800
G1 X118.371 Y34.139 E249.55071
G92 E0
G1 X118.371 Y34.139 F7800
G1 X118.371 Y36.75
G1 F4800
G1 X1.629 Y36.75 E249.55071
G92 E0
G1 X1.629 Y36.75 F7800
G1 X1.629 Y39.361
G1 F4800
G1 X118.371 Y39.361 E249.55071
G92 E0
G1 X118.371 Y39.361 F7800
G1 X118.371 Y41.972
G1 F4800
G1 X1.629 Y41.972 E249.55071
M106 S147.9
;LAYER_CHANGE
;Z:8
;HEIGHT:2
G1 Z8 F7800
G1 X118.5 Y48.5
;TYPE:External perimeter
;WIDTH:3
G1 F1800
G1 X1.5 Y48.5 E499.6529
G1 X1.5 Y1.5 E600.1213
G1 X118.5 Y1.5 E850.22349
G1 X118.5 Y25 E900.45769
G1 X118.5 Y48.05 E949.72996
G1 X117.2 Y48.371 F7800
;TYPE:Internal infill
;WIDTH:3
G1 F4800
G1 X117.2 Y1.629 E1049.64686
G92 E0
G1 X117.2 Y1.629 F7800
G1 X114.6 Y1.629
G1 F4800
G1 X114.6 Y48.371 E99.9169
G92 E0
G1 X114.6 Y48.371 F7800
G1 X112 Y48.371
G1 F4800
G1 X112 Y1.629 E99.9169
G92 E0
G1 X112 Y1.629 F7800
G1 X109.4 Y1.629
G1 F4800
G1 X109.4 Y48.371 E99.9169
G92 E0
G1 X109.4 Y48.371 F7800
G1 X106.8 Y48.371
G1 F4800
G1 X106.8 Y1.629 E99.9169
G92 E0
G1 X106.8 Y1.629 F7800
G1 X104.2 Y1.629
G1 F4800
G1 X104.2 Y48.371 E99.9169
G92 E0
G1 X104.2 Y48.371 F7800
G1 X101.6 Y48.371
G1 F4800
G1 X101.6 Y1.629 E99.9169
G92 E0
G1 X101.6 Y1.629 F7800
G1 X67.8 Y1.629
G1 F4800
G1 X67.8 Y48.371 E99.9169
G92 E0
G1 X67.8 Y48.371 F7800
G1 X65.2 Y48.371
G1 F4800
G1 X65.2 Y1.629 E99.9169
G92 E0
G1 X65.2 Y1.629 F7800
G1 X62.6 Y1.629
G1 F4800
G1 X62.6 Y48.371 E99.9169
G92 E0
G1 X62.6 Y48.371 F7800
G1 X60 Y48.371
G1 F4800
G1 X60 Y1.629 E99.9169
G92 E0
G1 X60 Y1.629 F7800
G1 X57.4 Y1.629
G1 F4800
G1 X57.4 Y48.371 E99.9169
G92 E0
G1 X57.4 Y48.371 F7800
G1 X54.8 Y48.371
G1 F4800
G1 X54.8 Y1.629 E99.9169
G92 E0
G1 X54.8 Y1.629 F7800
G1 X52.2 Y1.629
G1 F4800
G1 X52.2 Y48.371 E99.9169
G92 E0
G1 X52.2 Y48.371 F7800
G1 X49.6 Y48.371
G1 F4800
G1 X49.6 Y1.629 E99.9169
G92 E0
G1 X49.6 Y1.629 F7800
G1 X47 Y1.629
G1 F4800
G1 X47 Y48.371 E99.9169
G92 E0
G1 X47 Y48.371 F7800
G1 X44.4 Y48.371
G1 F4800
G1 X44.4 Y1.629 E99.9169
G92 E0
G1 X44.4 Y1.629 F7800
G1 X31.4 Y1.629
G1 F4800
G1 X31.4 Y48.371 E99.9169
G92 E0
G1 X31.4 Y48.371 F7800
G1 X34 Y48.371
G1 F4800
G1 X34 Y1.629 E99.9169
G92 E0
G1 X34 Y1.629 F7800
G1 X36.6 Y1.629
G1 F4800
G1 X36.6 Y48.371 E99.9169
G92 E0
G1 X36.6 Y48.371 F7800
G1 X39.2 Y48.371
G1 F4800
G1 X39.2 Y1.629 E99.9169
G92 E0
G1 X39.2 Y1.629 F7800
G1 X41.8 Y1.629
G1 F4800
G1 X41.8 Y48.371 E99.9169
G92 E0
G1 X41.8 Y48.371 F7800
G1 X28.8 Y48.371
G1 F4800
G1 X28.8 Y1.629 E99.9169
G92 E0
G1 X28.8 Y1.629 F7800
G1 X26.2 Y1.629
G1 F4800
G1 X26.2 Y48.371 E99.9169
G92 E0
G1 X26.2 Y48.371 F7800
G1 X23.6 Y48.371
G1 F4800
G1 X23.6 Y1.629 E99.9169
G92 E0
G1 X23.6 Y1.629 F7800
G1 X21 Y1.629
G1 F4800
G1 X21 Y48.371 E99.9169
G92 E0
G1 X21 Y48.371 F7800
G1 X18.4 Y48.371
G1 F4800
G1 X18.4 Y1.629 E99.9169
G92 E0
G1 X18.4 Y1.629 F7800
G1 X15.8 Y48.371
G1 F4800
G1 X15.8 Y1.629 E99.9169
G92 E0
G1 X15.8 Y1.629 F7800
G1 X13.2 Y1.629
G1 F4800
G1 X13.2 Y48.371 E99.9169
G92 E0
G1 X13.2 Y48.371 F7800
G1 X10.6 Y48.371
G1 F4800
G1 X10.6 Y1.629 E99.9169
G92 E0
G1 X10.6 Y1.629 F7800
G1 X8 Y1.629
G1 F4800
G1 X8 Y48.371 E99.9169
G92 E0
G1 X8 Y48.371 F7800
G1 X5.4 Y48.371
G1 F4800
G1 X5.4 Y1.629 E99.9169
G92 E0
G1 X5.4 Y1.629 F7800
G1 X2.8 Y1.629
G1 F4800
G1 X2.8 Y48.371 E99.9169
G92 E0
G1 X2.8 Y48.371 F7800
G1 X70.4 Y48.371
G1 F4800
G1 X70.4 Y1.629 E99.9169
G92 E0
G1 X70.4 Y1.629 F7800
G1 X73 Y1.629
G1 F4800
G1 X73 Y48.371 E99.9169
G92 E0
G1 X73 Y48.371 F7800
G1 X75.6 Y48.371
G1 F4800
G1 X75.6 Y1.629 E99.9169
G92 E0
G1 X75.6 Y1.629 F7800
G1 X78.2 Y1.629
G1 F4800
G1 X78.2 Y48.371 E99.9169
G92 E0
G1 X78.2 Y48.371 F7800
G1 X80.8 Y48.371
G1 F4800
G1 X80.8 Y1.629 E99.9169
G92 E0
G1 X80.8 Y1.629 F7800
G1 X83.4 Y1.629
G1 F4800
G1 X83.4 Y48.371 E99.9169
G92 E0
G1 X83.4 Y48.371 F7800
G1 X86 Y48.371
G1 F4800
G1 X86 Y1.629 E99.9169
G92 E0
G1 X86 Y1.629 F7800
G1 X88.6 Y1.629
G1 F4800
G1 X88.6 Y48.371 E99.9169
G92 E0
G1 X88.6 Y48.371 F7800
G1 X91.2 Y48.371
G1 F4800
G1 X91.2 Y1.629 E99.9169
G92 E0
G1 X91.2 Y1.629 F7800
G1 X93.8 Y1.629
G1 F4800
G1 X93.8 Y48.371 E99.9169
G92 E0
G1 X93.8 Y48.371 F7800
G1 X96.4 Y48.371
G1 F4800
G1 X96.4 Y1.629 E99.9169
G92 E0
G1 X96.4 Y1.629 F7800
G1 X99 Y1.629
G1 F4800
G1 X99 Y48.371 E99.9169
M106 S150.45
;LAYER_CHANGE
;Z:10
;HEIGHT:2
G1 Z10 F7800
G1 X118.5 Y48.5
;TYPE:External perimeter
;WIDTH:3
G1 F1800
G1 X1.5 Y48.5 E350.01909
G1 X1.5 Y1.5 E450.48749
G1 X118.5 Y1.5 E700.58968
G1 X118.5 Y25 E750.82388
G1 X118.5 Y48.05 E800.09615
G1 X118.371 Y47.194 F7800
;TYPE:Internal infill
;WIDTH:3
G1 F4800
G1 X1.629 Y47.194 E1049.64686
G92 E0
G1 X1.629 Y47.194 F7800
G1 X1.629 Y44.583
G1 F4800
G1 X118.371 Y44.583 E249.55071
G92 E0
G1 X118.371 Y44.583 F7800
G1 X118.371 Y15.861
G1 F4800
G1 X1.629 Y15.861 E249.55071
G92 E0
G1 X1.629 Y15.861 F7800
G1 X1.629 Y13.25
G1 F4800
G1 X118.371 Y13.25 E249.55071
G92 E0
G1 X118.371 Y13.25 F7800
G1 X118.371 Y10.639
G1 F4800
G1 X1.629 Y10.639 E249.55071
G92 E0
G1 X1.629 Y10.639 F7800
G1 X1.629 Y8.028
G1 F4800
G1 X118.371 Y8.028 E249.55071
G92 E0
G1 X118.371 Y8.028 F7800
G1 X1.629 Y2.806
G1 F4800
G1 X118.371 Y2.806 E249.55071
G92 E0
G1 X118.371 Y2.806 F7800
G1 X118.371 Y5.417
G1 F4800
G1 X1.629 Y5.417 E249.55071
G92 E0
G1 X1.629 Y5.417 F7800
G1 X1.629 Y18.472
G1 F4800
G1 X118.371 Y18.472 E249.55071
G92 E0
G1 X118.371 Y18.472 F7800
G1 X118.371 Y21.083
G1 F4800
G1 X1.629 Y21.083 E249.55071
G92 E0
G1 X1.629 Y21.083 F7800
G1 X1.629 Y23.694
G1 F4800
G1 X118.371 Y23.694 E249.55071
G92 E0
G1 X118.371 Y23.694 F7800
G1 X118.371 Y26.306
G1 F4800
G1 X1.629 Y26.306 E249.55071
G92 E0
G1 X1.629 Y26.306 F7800
G1 X1.629 Y28.917
G1 F4800
G1 X118.371 Y28.917 E249.55071
G92 E0
G1 X118.371 Y28.917 F7800
G1 X118.371 Y31.528
G1 F4800
G1 X1.629 Y31.528 E249.55071
G92 E0
G1 X1.629 Y31.528 F7800
G1 X1.629 Y34.139
G1 F4800
G1 X118.371 Y34.139 E249.55071
G92 E0
G1 X118.371 Y34.139 F7800
G1 X118.371 Y36.75
G1 F4800
G1 X1.629 Y36.75 E249.55071
G92 E0
G1 X1.629 Y36.75 F7800
G1 X1.629 Y39.361
G1 F4800
G1 X118.371 Y39.361 E249.55071
G92 E0
G1 X118.371 Y39.361 F7800
G1 X118.371 Y41.972
G1 F4800
G1 X1.629 Y41.972 E249.55071
M106 S147.9
;LAYER_CHANGE
;Z:12
;HEIGHT:2
G1 Z12 F7800
G1 X118.5 Y48.5
;TYPE:External perimeter
;WIDTH:3
G1 F1800
G1 X1.5 Y48.5 E499.6529
G1 X1.5 Y1.5 E600.1213
G1 X118.5 Y1.5 E850.22349
G1 X118.5 Y25 E900.45769
G1 X118.5 Y48.05 E949.72996
G1 X117.2 Y48.371 F7800
;TYPE:Internal infill
;WIDTH:3
G1 F4800
G1 X117.2 Y1.629 E1049.64686
G92 E0
G1 X117.2 Y1.629 F7800
G1 X114.6 Y1.629
G1 F4800
G1 X114.6 Y48.371 E99.9169
G92 E0
G1 X114.6 Y48.371 F7800
G1 X112 Y48.371
G1 F4800
G1 X112 Y1.629 E99.9169
G92 E0
G1 X112 Y1.629 F7800
G1 X109.4 Y1.629
G1 F4800
G1 X109.4 Y48.371 E99.9169
G92 E0
G1 X109.4 Y48.371 F7800
G1 X106.8 Y48.371
G1 F4800
G1 X106.8 Y1.629 E99.9169
G92 E0
G1 X106.8 Y1.629 F7800
G1 X104.2 Y1.629
G1 F4800
G1 X104.2 Y48.371 E99.9169
G92 E0
G1 X104.2 Y48.371 F7800
G1 X101.6 Y48.371
G1 F4800
G1 X101.6 Y1.629 E99.9169
G92 E0
G1 X101.6 Y1.629 F7800
G1 X67.8 Y1.629
G1 F4800
G1 X67.8 Y48.371 E99.9169
G92 E0
G1 X67.8 Y48.371 F7800
G1 X65.2 Y48.371
G1 F4800
G1 X65.2 Y1.629 E99.9169
G92 E0
G1 X65.2 Y1.629 F7800
G1 X62.6 Y1.629
G1 F4800
G1 X62.6 Y48.371 E99.9169
G92 E0
G1 X62.6 Y48.371 F7800
G1 X60 Y48.371
G1 F4800
G1 X60 Y1.629 E99.9169
G92 E0
G1 X60 Y1.629 F7800
G1 X57.4 Y1.629
G1 F4800
G1 X57.4 Y48.371 E99.9169
G92 E0
G1 X57.4 Y48.371 F7800
G1 X54.8 Y48.371
G1 F4800
G1 X54.8 Y1.629 E99.9169
G92 E0
G1 X54.8 Y1.629 F7800
G1 X52.2 Y1.629
G1 F4800
G1 X52.2 Y48.371 E99.9169
G92 E0
G1 X52.2 Y48.371 F7800
G1 X49.6 Y48.371
G1 F4800
G1 X49.6 Y1.629 E99.9169
G92 E0
G1 X49.6 Y1.629 F7800
G1 X47 Y1.629
G1 F4800
G1 X47 Y48.371 E99.9169
G92 E0
G1 X47 Y48.371 F7800
G1 X44.4 Y48.371
G1 F4800
G1 X44.4 Y1.629 E99.9169
G92 E0
G1 X44.4 Y1.629 F7800
G1 X31.4 Y1.629
G1 F4800
G1 X31.4 Y48.371 E99.9169
G92 E0
G1 X31.4 Y48.371 F7800
G1 X34 Y48.371
G1 F4800
G1 X34 Y1.629 E99.9169
G92 E0
G1 X34 Y1.629 F7800
G1 X36.6 Y1.629
G1 F4800
G1 X36.6 Y48.371 E99.9169
G92 E0
G1 X36.6 Y48.371 F7800
G1 X39.2 Y48.371
G1 F4800
G1 X39.2 Y1.629 E99.9169
G92 E0
G1 X39.2 Y1.629 F7800
G1 X41.8 Y1.629
G1 F4800
G1 X41.8 Y48.371 E99.9169
G92 E0
G1 X41.8 Y48.371 F7800
G1 X28.8 Y48.371
G1 F4800
G1 X28.8 Y1.629 E99.9169
G92 E0
G1 X28.8 Y1.629 F7800
G1 X26.2 Y1.629
G1 F4800
G1 X26.2 Y48.371 E99.9169
G92 E0
G1 X26.2 Y48.371 F7800
G1 X23.6 Y48.371
