; generated by PrusaSlicer 2.7.2+win64 on 2024-03-16 at 05:10:25 UTC

; 

; external perimeters extrusion width = 3.00mm
; perimeters extrusion width = 3.00mm
; infill extrusion width = 3.00mm
; solid infill extrusion width = 3.00mm
; top infill extrusion width = 3.00mm
; first layer extrusion width = 3.00mm

M104 S200 ; set temperature
;TYPE:Custom
G28 ; home all axes
G1 Z5 F5000 ; lift nozzle
M109 S200 ; set temperature and wait for it to be reached
G21 ; set units to millimeters
G90 ; use absolute coordinates
M82 ; use absolute distances for extrusion
G92 E0
; Filament gcode
M107
;LAYER_CHANGE
;Z:2
;HEIGHT:2
G1 E-2 F2400
G1 Z2 F7800
G1 X118.5 Y48.5
G1 E0 F2400
;TYPE:External perimeter
;WIDTH:3
G1 F1800
G1 X1.5 Y48.5 E250.10219
G1 X1.5 Y1.5 E350.57059
G1 X118.5 Y1.5 E600.67278
G1 X118.5 Y25 E650.90698
G1 X118.5 Y48.05 E700.17925
G1 X118.371 Y47.194 F7800
;TYPE:Internal infill
;WIDTH:3
G1 F1800
G1 X2.785 Y47.194 E947.25886
G1 X2.785 Y44.583 E952.8402
G1 X117.215 Y44.583 E1197.44872
G1 X117.215 Y41.972 E1203.03006
G1 X2.785 Y41.972 E1447.63858
G1 X2.785 Y39.361 E1453.21992
G1 X117.215 Y39.361 E1697.82844
G1 X117.215 Y36.75 E1703.40978
G1 X2.785 Y36.75 E1948.0183
G1 X2.785 Y34.139 E1953.59964
G1 X117.215 Y34.139 E2198.20816
G1 X117.215 Y31.528 E2203.7895
G1 X2.785 Y31.528 E2448.39802
G1 X2.785 Y28.917 E2453.97936
G1 X117.215 Y28.917 E2698.58788
G1 X117.215 Y26.306 E2704.16922
G1 X2.785 Y26.306 E2948.77774
G1 X2.785 Y23.694 E2954.36122
G1 X117.215 Y23.694 E3198.96974
G1 X117.215 Y21.083 E3204.55108
G1 X2.785 Y21.083 E3449.1596
G1 X2.785 Y18.472 E3454.74094
G1 X117.215 Y18.472 E3699.34946
G1 X117.215 Y15.861 E3704.9308
G1 X2.785 Y15.861 E3949.53932
G1 X2.785 Y13.25 E3955.12066
G1 X117.215 Y13.25 E4199.72918
G1 X117.215 Y10.639 E4205.31052
G1 X2.785 Y10.639 E4449.91904
G1 X2.785 Y8.028 E4455.50038
G1 X117.215 Y8.028 E4700.1089
G1 X117.215 Y5.417 E4705.69024
G1 X2.785 Y5.417 E4950.29876
G1 X2.785 Y2.806 E4955.8801
G1 X118.371 Y2.806 E5202.95971
;LAYER_CHANGE
;Z:4
;HEIGHT:2
G1 Z4 F7800
G1 E5200.95971 F2400
G1 Z4 F7800
G1 X118.5 Y48.5
G1 E5202.95971 F2400
;TYPE:External perimeter
;WIDTH:3
G1 F1800
G1 X1.5 Y48.5 E5453.0619
G1 X1.5 Y1.5 E5553.5303
G1 X118.5 Y1.5 E5803.63249
G1 X118.5 Y25 E5853.86669
G1 X118.5 Y48.05 E5903.13896
G1 X117.2 Y48.371 F7800
;TYPE:Internal infill
;WIDTH:3
G1 F4800
G1 X117.2 Y2.785 E6000.58477
G1 X114.6 Y2.785 E6006.1426
G1 X114.6 Y47.215 E6101.11731
G1 X112 Y47.215 E6106.67514
G1 X112 Y2.785 E6201.64985
G1 X109.4 Y2.785 E6207.20768
G1 X109.4 Y47.215 E6302.18239
G1 X106.8 Y47.215 E6307.74022
G1 X106.8 Y2.785 E6402.71493
G1 X104.2 Y2.785 E6408.27276
G1 X104.2 Y47.215 E6503.24747
G1 X101.6 Y47.215 E6508.8053
G1 X101.6 Y2.785 E6603.78001
G1 X99 Y2.785 E6609.33784
G1 X99 Y47.215 E6704.31255
G1 X96.4 Y47.215 E6709.87038
G1 X96.4 Y2.785 E6804.84509
G1 X93.8 Y2.785 E6810.40292
G1 X93.8 Y47.215 E6905.37763
G1 X91.2 Y47.215 E6910.93546
G1 X91.2 Y2.785 E7005.91017
G1 X88.6 Y2.785 E7011.468
G1 X88.6 Y47.215 E7106.44271
G1 X86 Y47.215 E7112.00054
G1 X86 Y2.785 E7206.97525
G1 X83.4 Y2.785 E7212.53308
G1 X83.4 Y47.215 E7307.50779
G1 X80.8 Y47.215 E7313.06562
G1 X80.8 Y2.785 E7408.04033
G1 X78.2 Y2.785 E7413.59816
G1 X78.2 Y47.215 E7508.57287
G1 X75.6 Y47.215 E7514.1307
G1 X75.6 Y2.785 E7609.10541
G1 X73 Y2.785 E7614.66324
G1 X73 Y47.215 E7709.63795
G1 X70.4 Y47.215 E7715.19578
G1 X70.4 Y2.785 E7810.17049
G1 X67.8 Y2.785 E7815.72832
G1 X67.8 Y47.215 E7910.70303
G1 X65.2 Y47.215 E7916.26086
G1 X65.2 Y2.785 E8011.23557
G1 X62.6 Y2.785 E8016.7934
G1 X62.6 Y47.215 E8111.76811
G1 X60 Y47.215 E8117.32594
G1 X60 Y2.785 E8212.30065
G1 X57.4 Y2.785 E8217.85848
G1 X57.4 Y47.215 E8312.83319
G1 X54.8 Y47.215 E8318.39102
G1 X54.8 Y2.785 E8413.36573
G1 X52.2 Y2.785 E8418.92356
G1 X52.2 Y47.215 E8513.89827
G1 X49.6 Y47.215 E8519.4561
G1 X49.6 Y2.785 E8614.43081
G1 X47 Y2.785 E8619.98864
G1 X47 Y47.215 E8714.96335
G1 X44.4 Y47.215 E8720.52118
G1 X44.4 Y2.785 E8815.49589
G1 X41.8 Y2.785 E8821.05372
G1 X41.8 Y47.215 E8916.02843
G1 X39.2 Y47.215 E8921.58626
G1 X39.2 Y2.785 E9016.56097
G1 X36.6 Y2.785 E9022.1188
G1 X36.6 Y47.215 E9117.09351
G1 X34 Y47.215 E9122.65134
G1 X34 Y2.785 E9217.62605
G1 X31.4 Y2.785 E9223.18388
G1 X31.4 Y47.215 E9318.15859
G1 X28.8 Y47.215 E9323.71642
G1 X28.8 Y2.785 E9418.69113
G1 X26.2 Y2.785 E9424.24896
G1 X26.2 Y47.215 E9519.22367
G1 X23.6 Y47.215 E9524.7815
G1 X23.6 Y2.785 E9619.75621
G1 X21 Y2.785 E9625.31404
G1 X21 Y47.215 E9720.28875
G1 X18.4 Y47.215 E9725.84658
G1 X18.4 Y2.785 E9820.82129
G1 X15.8 Y2.785 E9826.37912
G1 X15.8 Y47.215 E9921.35383
G1 X13.2 Y47.215 E9926.91166
G1 X13.2 Y2.785 E10021.88637
G1 X10.6 Y2.785 E10027.4442
G1 X10.6 Y47.215 E10122.41891
G1 X8 Y47.215 E10127.97674
G1 X8 Y2.785 E10222.95145
G1 X5.4 Y2.785 E10228.50928
G1 X5.4 Y47.215 E10323.48399
G1 X2.8 Y47.215 E10329.04182
G1 X2.8 Y1.629 E10426.48763
;LAYER_CHANGE
;Z:6
;HEIGHT:2
G1 Z6 F7800
G1 E10424.48763 F2400
G1 Z6 F7800
G1 X118.5 Y48.5
G1 E10426.48763 F2400
;TYPE:External perimeter
;WIDTH:3
G1 F1800
G1 X1.5 Y48.5 E10676.58982
G1 X1.5 Y1.5 E10777.05822
G1 X118.5 Y1.5 E11027.16041
G1 X118.5 Y25 E11077.39461
G1 X118.5 Y48.05 E11126.66688
G1 X118.371 Y47.194 F7800
;TYPE:Internal infill
;WIDTH:3
G1 F4800
G1 X2.785 Y47.194 E11373.74649
G1 X2.785 Y44.583 E11379.32783
G1 X117.215 Y44.583 E11623.93635
G1 X117.215 Y41.972 E11629.51769
G1 X2.785 Y41.972 E11874.12621
G1 X2.785 Y39.361 E11879.70755
G1 X117.215 Y39.361 E12124.31607
G1 X117.215 Y36.75 E12129.89741
G1 X2.785 Y36.75 E12374.50593
G1 X2.785 Y34.139 E12380.08727
G1 X117.215 Y34.139 E12624.69579
G1 X117.215 Y31.528 E12630.27713
G1 X2.785 Y31.528 E12874.88565
G1 X2.785 Y28.917 E12880.46699
G1 X117.215 Y28.917 E13125.07551
G1 X117.215 Y26.306 E13130.65685
G1 X2.785 Y26.306 E13375.26537
G1 X2.785 Y23.694 E13380.84885
G1 X117.215 Y23.694 E13625.45737
G1 X117.215 Y21.083 E13631.03871
G1 X2.785 Y21.083 E13875.64723
G1 X2.785 Y18.472 E13881.22857
G1 X117.215 Y18.472 E14125.83709
G1 X117.215 Y15.861 E14131.41843
G1 X2.785 Y15.861 E14376.02695
G1 X2.785 Y13.25 E14381.60829
G1 X117.215 Y13.25 E14626.21681
G1 X117.215 Y10.639 E14631.79815
G1 X2.785 Y10.639 E14876.40667
G1 X2.785 Y8.028 E14881.98801
G1 X117.215 Y8.028 E15126.59653
G1 X117.215 Y5.417 E15132.17787
G1 X2.785 Y5.417 E15376.78639
G1 X2.785 Y2.806 E15382.36773
G1 X118.371 Y2.806 E15629.44734
M106 S155.55
;LAYER_CHANGE
;Z:8
;HEIGHT:2
G1 Z8 F7800
G1 E15627.44734 F2400
G1 Z8 F7800
G1 X118.5 Y48.5
G1 E15629.44734 F2400
;TYPE:External perimeter
;WIDTH:3
G1 F1800
G1 X1.5 Y48.5 E15879.54953
G1 X1.5 Y1.5 E15980.01793
G1 X118.5 Y1.5 E16230.12012
G1 X118.5 Y25 E16280.35432
G1 X118.5 Y48.05 E16329.62659
G1 X117.2 Y48.371 F7800
;TYPE:Internal infill
;WIDTH:3
G1 F4800
G1 X117.2 Y2.785 E16427.0724
G1 X114.6 Y2.785 E16432.63023
G1 X114.6 Y47.215 E16527.60494
G1 X112 Y47.215 E16533.16277
G1 X112 Y2.785 E16628.13748
G1 X109.4 Y2.785 E16633.69531
G1 X109.4 Y47.215 E16728.67002
G1 X106.8 Y47.215 E16734.22785
G1 X106.8 Y2.785 E16829.20256
G1 X104.2 Y2.785 E16834.76039
G1 X104.2 Y47.215 E16929.7351
G1 X101.6 Y47.215 E16935.29293
G1 X101.6 Y2.785 E17030.26764
G1 X99 Y2.785 E17035.82547
G1 X99 Y47.215 E17130.80018
G1 X96.4 Y47.215 E17136.35801
G1 X96.4 Y2.785 E17231.33272
G1 X93.8 Y2.785 E17236.89055
G1 X93.8 Y47.215 E17331.86526
G1 X91.2 Y47.215 E17337.42309
G1 X91.2 Y2.785 E17432.3978
G1 X88.6 Y2.785 E17437.95563
G1 X88.6 Y47.215 E17532.93034
G1 X86 Y47.215 E17538.48817
G1 X86 Y2.785 E17633.46288
G1 X83.4 Y2.785 E17639.02071
G1 X83.4 Y47.215 E17733.99542
G1 X80.8 Y47.215 E17739.55325
G1 X80.8 Y2.785 E17834.52796
G1 X78.2 Y2.785 E17840.08579
G1 X78.2 Y47.215 E17935.0605
G1 X75.6 Y47.215 E17940.61833
G1 X75.6 Y2.785 E18035.59304
G1 X73 Y2.785 E18041.15087
G1 X73 Y47.215 E18136.12558
G1 X70.4 Y47.215 E18141.68341
G1 X70.4 Y2.785 E18236.65812
G1 X67.8 Y2.785 E18242.21595
G1 X67.8 Y47.215 E18337.19066
G1 X65.2 Y47.215 E18342.74849
G1 X65.2 Y2.785 E18437.7232
G1 X62.6 Y2.785 E18443.28103
G1 X62.6 Y47.215 E18538.25574
G1 X60 Y47.215 E18543.81357
G1 X60 Y2.785 E18638.78828
G1 X57.4 Y2.785 E18644.34611
G1 X57.4 Y47.215 E18739.32082
G1 X54.8 Y47.215 E18744.87865
G1 X54.8 Y2.785 E18839.85336
G1 X52.2 Y2.785 E18845.41119
G1 X52.2 Y47.215 E18940.3859
G1 X49.6 Y47.215 E18945.94373
G1 X49.6 Y2.785 E19040.91844
G1 X47 Y2.785 E19046.47627
G1 X47 Y47.215 E19141.45098
G1 X44.4 Y47.215 E19147.00881
G1 X44.4 Y2.785 E19241.98352
G1 X41.8 Y2.785 E19247.54135
G1 X41.8 Y47.215 E19342.51606
G1 X39.2 Y47.215 E19348.07389
G1 X39.2 Y2.785 E19443.0486
G1 X36.6 Y2.785 E19448.60643
G1 X36.6 Y47.215 E19543.58114
G1 X34 Y47.215 E19549.13897
G1 X34 Y2.785 E19644.11368
G1 X31.4 Y2.785 E19649.67151
G1 X31.4 Y47.215 E19744.64622
G1 X28.8 Y47.215 E19750.20405
G1 X28.8 Y2.785 E19845.17876
G1 X26.2 Y2.785 E19850.73659
G1 X26.2 Y47.215 E19945.7113
G1 X23.6 Y47.215 E19951.26913
G1 X23.6 Y2.785 E20046.24384
G1 X21 Y2.785 E20051.80167
G1 X21 Y47.215 E20146.77638
G1 X18.4 Y47.215 E20152.33421
G1 X18.4 Y2.785 E20247.30892
G1 X15.8 Y2.785 E20252.86675
G1 X15.8 Y47.215 E20347.84146
G1 X13.2 Y47.215 E20353.39929
G1 X13.2 Y2.785 E20448.374
G1 X10.6 Y2.785 E20453.93183
G1 X10.6 Y47.215 E20548.90654
G1 X8 Y47.215 E20554.46437
G1 X8 Y2.785 E20649.43908
G1 X5.4 Y2.785 E20654.99691
G1 X5.4 Y47.215 E20749.97162
G1 X2.8 Y47.215 E20755.52945
G1 X2.8 Y1.629 E20852.97526
M106 S153
;LAYER_CHANGE
;Z:10
;HEIGHT:2
G1 Z10 F7800
G1 E20850.97526 F2400
G1 Z10 F7800
G1 X118.5 Y48.5
G1 E20852.97526 F2400
;TYPE:External perimeter
;WIDTH:3
G1 F1800
G1 X1.5 Y48.5 E21103.07745
G1 X1.5 Y1.5 E21203.54585
G1 X118.5 Y1.5 E21453.64804
G1 X118.5 Y25 E21503.88224
G1 X118.5 Y48.05 E21553.15451
G1 X118.371 Y47.194 F7800
;TYPE:Internal infill
;WIDTH:3
G1 F4800
G1 X2.785 Y47.194 E21800.23412
G1 X2.785 Y44.583 E21805.81546
G1 X117.215 Y44.583 E22050.42398
G1 X117.215 Y41.972 E22056.00532
G1 X2.785 Y41.972 E22300.61384
G1 X2.785 Y39.361 E22306.19518
G1 X117.215 Y39.361 E22550.8037
G1 X117.215 Y36.75 E22556.38504
G1 X2.785 Y36.75 E22800.99356
G1 X2.785 Y34.139 E22806.5749
G1 X117.215 Y34.139 E23051.18342
G1 X117.215 Y31.528 E23056.76476
G1 X2.785 Y31.528 E23301.37328
G1 X2.785 Y28.917 E23306.95462
G1 X117.215 Y28.917 E23551.56314
G1 X117.215 Y26.306 E23557.14448
G1 X2.785 Y26.306 E23801.753
G1 X2.785 Y23.694 E23807.33648
G1 X117.215 Y23.694 E24051.945
G1 X117.215 Y21.083 E24057.52634
G1 X2.785 Y21.083 E24302.13486
G1 X2.785 Y18.472 E24307.7162
G1 X117.215 Y18.472 E24552.32472
G1 X117.215 Y15.861 E24557.90606
G1 X2.785 Y15.861 E24802.51458
G1 X2.785 Y13.25 E24808.09592
G1 X117.215 Y13.25 E25052.70444
G1 X117.215 Y10.639 E25058.28578
G1 X2.785 Y10.639 E25302.8943
G1 X2.785 Y8.028 E25308.47564
G1 X117.215 Y8.028 E25553.08416
G1 X117.215 Y5.417 E25558.6655
G1 X2.785 Y5.417 E25803.27402
G1 X2.785 Y2.806 E25808.85536
G1 X118.371 Y2.806 E26055.93497
M106 S155.55
;LAYER_CHANGE
;Z:12
;HEIGHT:2
G1 Z12 F7800
G1 E26053.93497 F2400
G1 Z12 F7800
G1 X118.5 Y48.5
G1 E26055.93497 F2400
;TYPE:External perimeter
;WIDTH:3
G1 F1800
G1 X1.5 Y48.5 E26306.03716
G1 X1.5 Y1.5 E26406.50556
G1 X118.5 Y1.5 E26656.60775
G1 X118.5 Y25 E26706.84195
G1 X118.5 Y48.05 E26756.11422
G1 X117.2 Y48.371 F7800
;TYPE:Internal infill
;WIDTH:3
G1 F4800
G1 X117.2 Y2.785 E26853.56003
G1 X114.6 Y2.785 E26859.11786
G1 X114.6 Y47.215 E26954.09257
G1 X112 Y47.215 E26959.6504
G1 X112 Y2.785 E27054.62511
G1 X109.4 Y2.785 E27060.18294
G1 X109.4 Y47.215 E27155.15765
G1 X106.8 Y47.215 E27160.71548
G1 X106.8 Y2.785 E27255.69019
G1 X104.2 Y2.785 E27261.24802
G1 X104.2 Y47.215 E27356.22273
G1 X101.6 Y47.215 E27361.78056
G1 X101.6 Y2.785 E27456.75527
G1 X99 Y2.785 E27462.3131
G1 X99 Y47.215 E27557.28781
G1 X96.4 Y47.215 E27562.84564
G1 X96.4 Y2.785 E27657.82035
G1 X93.8 Y2.785 E27663.37818
G1 X93.8 Y47.215 E27758.35289
G1 X91.2 Y47.215 E27763.91072
G1 X91.2 Y2.785 E27858.88543
G1 X88.6 Y2.785 E27864.44326
G1 X88.6 Y47.215 E27959.41797
G1 X86 Y47.215 E27964.9758
G1 X86 Y2.785 E28059.95051
G1 X83.4 Y2.785 E28065.50834
G1 X83.4 Y47.215 E28160.48305
G1 X80.8 Y47.215 E28166.04088
G1 X80.8 Y2.785 E28261.01559
G1 X78.2 Y2.785 E28266.57342
G1 X78.2 Y47.215 E28361.54813
G1 X75.6 Y47.215 E28367.10596
G1 X75.6 Y2.785 E28462.08067
G1 X73 Y2.785 E28467.6385
G1 X73 Y47.215 E28562.61321
G1 X70.4 Y47.215 E28568.17104
G1 X70.4 Y2.785 E28663.14575
G1 X67.8 Y2.785 E28668.70358
G1 X67.8 Y47.215 E28763.67829
G1 X65.2 Y47.215 E28769.23612
G1 X65.2 Y2.785 E28864.21083
G1 X62.6 Y2.785 E28869.76866
G1 X62.6 Y47.215 E28964.74337
G1 X60 Y47.215 E28970.3012
G1 X60 Y2.785 E29065.27591
G1 X57.4 Y2.785 E29070.83374
G1 X57.4 Y47.215 E29165.80845
G1 X54.8 Y47.215 E29171.36628
G1 X54.8 Y2.785 E29266.34099
G1 X52.2 Y2.785 E29271.89882
G1 X52.2 Y47.215 E29366.87353
G1 X49.6 Y47.215 E29372.43136
G1 X49.6 Y2.785 E29467.40607
G1 X47 Y2.785 E29472.9639
G1 X47 Y47.215 E29567.93861
G1 X44.4 Y47.215 E29573.49644
G1 X44.4 Y2.785 E29668.47115
G1 X41.8 Y2.785 E29674.02898
G1 X41.8 Y47.215 E29769.00369
G1 X39.2 Y47.215 E29774.56152
G1 X39.2 Y2.785 E29869.53623
G1 X36.6 Y2.785 E29875.09406
G1 X36.6 Y47.215 E29970.06877
G1 X34 Y47.215 E29975.6266
G1 X34 Y2.785 E30070.60131
G1 X31.4 Y2.785 E30076.15914
G1 X31.4 Y47.215 E30171.13385
G1 X28.8 Y47.215 E30176.69168
G1 X28.8 Y2.785 E30271.66639
G1 X26.2 Y2.785 E30277.22422
G1 X26.2 Y47.215 E30372.19893
G1 X23.6 Y47.215 E30377.75676
G1 X23.6 Y2.785 E30472.73147
G1 X21 Y2.785 E30478.2893
G1 X21 Y47.215 E30573.26401
G1 X18.4 Y47.215 E30578.82184
G1 X18.4 Y2.785 E30673.79655
G1 X15.8 Y2.785 E30679.35438
G1 X15.8 Y47.215 E30774.32909
G1 X13.2 Y47.215 E30779.88692
G1 X13.2 Y2.785 E30874.86163
G1 X10.6 Y2.785 E30880.41946
G1 X10.6 Y47.215 E30975.39417
G1 X8 Y47.215 E30980.952
G1 X8 Y2.785 E31075.92671
G1 X5.4 Y2.785 E31081.48454
G1 X5.4 Y47.215 E31176.45925
G1 X2.8 Y47.215 E31182.01708
G1 X2.8 Y1.629 E31279.46289
M106 S153
;LAYER_CHANGE
;Z:14
;HEIGHT:2
G1 Z14 F7800
G1 E31277.46289 F2400
G1 Z14 F7800
G1 X118.5 Y48.5
G1 E31279.46289 F2400
;TYPE:External perimeter
;WIDTH:3
G1 F1800
G1 X1.5 Y48.5 E31529.56508
G1 X1.5 Y1.5 E31630.03348
G1 X118.5 Y1.5 E31880.13567
G1 X118.5 Y25 E31930.36987
G1 X118.5 Y48.05 E31979.64214
G1 X118.371 Y47.194 F7800
;TYPE:Internal infill
;WIDTH:3
G1 F4800
G1 X2.785 Y47.194 E32226.72175
G1 X2.785 Y44.583 E32232.30309
G1 X117.215 Y44.583 E32476.91161
G1 X117.215 Y41.972 E32482.49295
G1 X2.785 Y41.972 E32727.10147
G1 X2.785 Y39.361 E32732.68281
G1 X117.215 Y39.361 E32977.29133
G1 X117.215 Y36.75 E32982.87267
G1 X2.785 Y36.75 E33227.48119
G1 X2.785 Y34.139 E33233.06253
G1 X117.215 Y34.139 E33477.67105
G1 X117.215 Y31.528 E33483.25239
G1 X2.785 Y31.528 E33727.86091
G1 X2.785 Y28.917 E33733.44225
G1 X117.215 Y28.917 E33978.05077
G1 X117.215 Y26.306 E33983.63211
G1 X2.785 Y26.306 E34228.24063
G1 X2.785 Y23.694 E34233.82411
G1 X117.215 Y23.694 E34478.43263
G1 X117.215 Y21.083 E34484.01397
G1 X2.785 Y21.083 E34728.62249
G1 X2.785 Y18.472 E34734.20383
G1 X117.215 Y18.472 E34978.81235
G1 X117.215 Y15.861 E34984.39369
G1 X2.785 Y15.861 E35229.00221
G1 X2.785 Y13.25 E35234.58355
G1 X117.215 Y13.25 E35479.19207
G1 X117.215 Y10.639 E35484.77341
G1 X2.785 Y10.639 E35729.38193
G1 X2.785 Y8.028 E35734.96327
G1 X117.215 Y8.028 E35979.57179
G1 X117.215 Y5.417 E35985.15313
G1 X2.785 Y5.417 E36229.76165
G1 X2.785 Y2.806 E36235.34299
G1 X118.371 Y2.806 E36482.4226
M106 S155.55
;LAYER_CHANGE
;Z:16
;HEIGHT:2
G1 Z16 F7800
G1 E36480.4226 F2400
G1 Z16 F7800
G1 X118.5 Y48.5
G1 E36482.4226 F2400
;TYPE:External perimeter
;WIDTH:3
G1 F1800
G1 X1.5 Y48.5 E36732.52479
G1 X1.5 Y1.5 E36832.99319
G1 X118.5 Y1.5 E37083.09538
G1 X118.5 Y25 E37133.32958
G1 X118.5 Y48.05 E37182.60185
G1 X117.2 Y48.371 F7800
;TYPE:Internal infill
;WIDTH:3
G1 F4800
G1 X117.2 Y2.785 E37280.04766
G1 X114.6 Y2.785 E37285.60549
G1 X114.6 Y47.215 E37380.5802
G1 X112 Y47.215 E37386.13803
G1 X112 Y2.785 E37481.11274
G1 X109.4 Y2.785 E37486.67057
G1 X109.4 Y47.215 E37581.64528
G1 X106.8 Y47.215 E37587.20311
G1 X106.8 Y2.785 E37682.17782
G1 X104.2 Y2.785 E37687.73565
G1 X104.2 Y47.215 E37782.71036
G1 X101.6 Y47.215 E37788.26819
G1 X101.6 Y2.785 E37883.2429
G1 X99 Y2.785 E37888.80073
G1 X99 Y47.215 E37983.77544
