; generated by PrusaSlicer 2.7.2+win64 on 2024-03-16 at 06:19:40 UTC

; 

; external perimeters extrusion width = 2.93mm
; perimeters extrusion width = 2.93mm
; infill extrusion width = 2.93mm
; solid infill extrusion width = 2.93mm
; top infill extrusion width = 2.93mm
; first layer extrusion width = 2.93mm

M104 S200 ; set temperature
;TYPE:Custom
G28 ; home all axes
G1 Z5 F5000 ; lift nozzle
M109 S200 ; set temperature and wait for it to be reached
G21 ; set units to millimeters
G90 ; use absolute coordinates
M82 ; use absolute distances for extrusion
G92 E0
; Filament gcode
M107
;LAYER_CHANGE
;Z:2
;HEIGHT:2
G1 E-2 F2400
G1 Z2 F7800
G1 X.34 Y17.173
G1 E0 F2400
;TYPE:Internal infill
;WIDTH:2.93
G1 F1800
G1 X119.66 Y17.173 E248.11646
G1 E246.11646 F2400
G92 E0
G1 X119.66 Y17.173 F7800
G1 X119.66 Y19.782
G1 E2 F2400
G1 F1800
G1 X.34 Y19.782 E250.11646
G1 E248.11646 F2400
G92 E0
G1 X.34 Y19.782 F7800
G1 X.34 Y43.263
G1 E2 F2400
G1 F1800
G1 X119.66 Y43.263 E250.11646
G1 E248.11646 F2400
G92 E0
G1 X119.66 Y43.263 F7800
G1 X119.66 Y45.872
G1 E2 F2400
G1 F1800
G1 X.34 Y45.872 E250.11646
G1 E248.11646 F2400
G92 E0
G1 X.34 Y45.872 F7800
G1 X.34 Y48.481
G1 E2 F2400
G1 F1800
G1 X119.66 Y48.481 E250.11646
G1 E248.11646 F2400
G92 E0
G1 X119.66 Y48.481 F7800
G1 X119.66 Y40.654
G1 E2 F2400
G1 F1800
G1 X.34 Y40.654 E250.11646
G1 E248.11646 F2400
G92 E0
G1 X.34 Y40.654 F7800
G1 X.34 Y38.045
G1 E2 F2400
G1 F1800
G1 X119.66 Y38.045 E250.11646
G1 E248.11646 F2400
G92 E0
G1 X119.66 Y38.045 F7800
G1 X119.66 Y35.436
G1 E2 F2400
G1 F1800
G1 X.34 Y35.436 E250.11646
G1 E248.11646 F2400
G92 E0
G1 X.34 Y35.436 F7800
G1 X.34 Y32.827
G1 E2 F2400
G1 F1800
G1 X119.66 Y32.827 E250.11646
G1 E248.11646 F2400
G92 E0
G1 X119.66 Y32.827 F7800
G1 X119.66 Y30.218
G1 E2 F2400
G1 F1800
G1 X.34 Y30.218 E250.11646
G1 E248.11646 F2400
G92 E0
G1 X.34 Y30.218 F7800
G1 X.34 Y27.609
G1 E2 F2400
G1 F1800
G1 X119.66 Y27.609 E250.11646
G1 E248.11646 F2400
G92 E0
G1 X119.66 Y27.609 F7800
G1 X119.66 Y25
G1 E2 F2400
G1 F1800
G1 X.34 Y25 E250.11646
G1 E248.11646 F2400
G92 E0
G1 X.34 Y25 F7800
G1 X.34 Y22.391
G1 E2 F2400
G1 F1800
G1 X119.66 Y22.391 E250.11646
G1 E248.11646 F2400
G92 E0
G1 X119.66 Y22.391 F7800
G1 X119.66 Y14.564
G1 E2 F2400
G1 F1800
G1 X.34 Y14.564 E250.11646
G1 E248.11646 F2400
G92 E0
G1 X.34 Y14.564 F7800
G1 X.34 Y11.955
G1 E2 F2400
G1 F1800
G1 X119.66 Y11.955 E250.11646
G1 E248.11646 F2400
G92 E0
G1 X119.66 Y11.955 F7800
G1 X119.66 Y9.346
G1 E2 F2400
G1 F1800
G1 X.34 Y9.346 E250.11646
G1 E248.11646 F2400
G92 E0
G1 X.34 Y9.346 F7800
G1 X.34 Y6.737
G1 E2 F2400
G1 F1800
G1 X119.66 Y6.737 E250.11646
G1 E248.11646 F2400
G92 E0
G1 X119.66 Y6.737 F7800
G1 X119.66 Y4.128
G1 E2 F2400
G1 F1800
G1 X.34 Y4.128 E250.11646
G1 E248.11646 F2400
G92 E0
G1 X.34 Y4.128 F7800
G1 X.34 Y1.519
G1 E2 F2400
G1 F1800
G1 X119.66 Y1.519 E250.11646
;LAYER_CHANGE
;Z:4
;HEIGHT:2
G1 Z4 F7800
G1 X118.513 Y.34
G1 F4800
G1 X118.513 Y49.66 E352.67348
G1 E350.67348 F2400
G92 E0
G1 X118.513 Y49.66 F7800
G1 X115.969 Y49.66
G1 E2 F2400
G1 F4800
G1 X115.969 Y.34 E104.55702
G1 E102.55702 F2400
G92 E0
G1 X115.969 Y.34 F7800
G1 X98.161 Y.34
G1 E2 F2400
G1 F4800
G1 X98.161 Y49.66 E104.55702
G1 E102.55702 F2400
G92 E0
G1 X98.161 Y49.66 F7800
G1 X95.617 Y49.66
G1 E2 F2400
G1 F4800
G1 X95.617 Y.34 E104.55702
G1 E102.55702 F2400
G92 E0
G1 X95.617 Y.34 F7800
G1 X93.073 Y.34
G1 E2 F2400
G1 F4800
G1 X93.073 Y49.66 E104.55702
G1 E102.55702 F2400
G92 E0
G1 X93.073 Y49.66 F7800
G1 X90.529 Y49.66
G1 E2 F2400
G1 F4800
G1 X90.529 Y.34 E104.55702
G1 E102.55702 F2400
G92 E0
G1 X90.529 Y.34 F7800
G1 X32.015 Y.34
G1 E2 F2400
G1 F4800
G1 X32.015 Y49.66 E104.55702
G1 E102.55702 F2400
G92 E0
G1 X32.015 Y49.66 F7800
G1 X29.471 Y49.66
G1 E2 F2400
G1 F4800
G1 X29.471 Y.34 E104.55702
G1 E102.55702 F2400
G92 E0
G1 X29.471 Y.34 F7800
G1 X16.751 Y.34
G1 E2 F2400
G1 F4800
G1 X16.751 Y49.66 E104.55702
G1 E102.55702 F2400
G92 E0
G1 X16.751 Y49.66 F7800
G1 X14.207 Y49.66
G1 E2 F2400
G1 F4800
G1 X14.207 Y.34 E104.55702
G1 E102.55702 F2400
G92 E0
G1 X14.207 Y.34 F7800
G1 X11.663 Y.34
G1 E2 F2400
G1 F4800
G1 X11.663 Y49.66 E104.55702
G1 E102.55702 F2400
G92 E0
G1 X11.663 Y49.66 F7800
G1 X9.119 Y49.66
G1 E2 F2400
G1 F4800
G1 X9.119 Y.34 E104.55702
G1 E102.55702 F2400
G92 E0
G1 X9.119 Y.34 F7800
G1 X6.575 Y.34
G1 E2 F2400
G1 F4800
G1 X6.575 Y49.66 E104.55702
G1 E102.55702 F2400
G92 E0
G1 X6.575 Y49.66 F7800
G1 X4.031 Y49.66
G1 E2 F2400
G1 F4800
G1 X4.031 Y.34 E104.55702
G1 E102.55702 F2400
G92 E0
G1 X4.031 Y.34 F7800
G1 X1.487 Y.34
G1 E2 F2400
G1 F4800
G1 X1.487 Y49.66 E104.55702
G1 E102.55702 F2400
G92 E0
G1 X1.487 Y49.66 F7800
G1 X19.295 Y49.66
G1 E2 F2400
G1 F4800
G1 X19.295 Y.34 E104.55702
G1 E102.55702 F2400
G92 E0
G1 X19.295 Y.34 F7800
G1 X21.839 Y.34
G1 E2 F2400
G1 F4800
G1 X21.839 Y49.66 E104.55702
G1 E102.55702 F2400
G92 E0
G1 X21.839 Y49.66 F7800
G1 X24.383 Y49.66
G1 E2 F2400
G1 F4800
G1 X24.383 Y.34 E104.55702
G1 E102.55702 F2400
G92 E0
G1 X24.383 Y.34 F7800
G1 X26.927 Y.34
G1 E2 F2400
G1 F4800
G1 X26.927 Y49.66 E104.55702
G1 E102.55702 F2400
G92 E0
G1 X26.927 Y49.66 F7800
G1 X34.559 Y49.66
G1 E2 F2400
G1 F4800
G1 X34.559 Y.34 E104.55702
G1 E102.55702 F2400
G92 E0
G1 X34.559 Y.34 F7800
G1 X37.103 Y.34
G1 E2 F2400
G1 F4800
G1 X37.103 Y49.66 E104.55702
G1 E102.55702 F2400
G92 E0
G1 X37.103 Y49.66 F7800
G1 X39.647 Y49.66
G1 E2 F2400
G1 F4800
G1 X39.647 Y.34 E104.55702
G1 E102.55702 F2400
G92 E0
G1 X39.647 Y.34 F7800
G1 X42.192 Y.34
G1 E2 F2400
G1 F4800
G1 X42.192 Y49.66 E104.55702
G1 E102.55702 F2400
G92 E0
G1 X42.192 Y49.66 F7800
G1 X44.736 Y49.66
G1 E2 F2400
G1 F4800
G1 X44.736 Y.34 E104.55702
G1 E102.55702 F2400
G92 E0
G1 X44.736 Y.34 F7800
G1 X47.28 Y.34
G1 E2 F2400
G1 F4800
G1 X47.28 Y49.66 E104.55702
G1 E102.55702 F2400
G92 E0
G1 X47.28 Y49.66 F7800
G1 X49.824 Y49.66
G1 E2 F2400
G1 F4800
G1 X49.824 Y.34 E104.55702
G1 E102.55702 F2400
G92 E0
G1 X49.824 Y.34 F7800
G1 X52.368 Y.34
G1 E2 F2400
G1 F4800
G1 X52.368 Y49.66 E104.55702
G1 E102.55702 F2400
G92 E0
G1 X52.368 Y49.66 F7800
G1 X54.912 Y49.66
G1 E2 F2400
G1 F4800
G1 X54.912 Y.34 E104.55702
G1 E102.55702 F2400
G92 E0
G1 X54.912 Y.34 F7800
G1 X62.544 Y.34
G1 E2 F2400
G1 F4800
G1 X62.544 Y49.66 E104.55702
G1 E102.55702 F2400
G92 E0
G1 X62.544 Y49.66 F7800
G1 X65.088 Y49.66
G1 E2 F2400
G1 F4800
G1 X65.088 Y.34 E104.55702
G1 E102.55702 F2400
G92 E0
G1 X65.088 Y.34 F7800
G1 X67.632 Y.34
G1 E2 F2400
G1 F4800
G1 X67.632 Y49.66 E104.55702
G1 E102.55702 F2400
G92 E0
G1 X67.632 Y49.66 F7800
G1 X70.176 Y49.66
G1 E2 F2400
G1 F4800
G1 X70.176 Y.34 E104.55702
G1 E102.55702 F2400
G92 E0
G1 X70.176 Y.34 F7800
G1 X72.72 Y.34
G1 E2 F2400
G1 F4800
G1 X72.72 Y49.66 E104.55702
G1 E102.55702 F2400
G92 E0
G1 X72.72 Y49.66 F7800
G1 X75.264 Y49.66
G1 E2 F2400
G1 F4800
G1 X75.264 Y.34 E104.55702
G1 E102.55702 F2400
G92 E0
G1 X75.264 Y.34 F7800
G1 X82.896 Y.34
G1 E2 F2400
G1 F4800
G1 X82.896 Y49.66 E104.55702
G1 E102.55702 F2400
G92 E0
G1 X82.896 Y49.66 F7800
G1 X80.352 Y49.66
G1 E2 F2400
G1 F4800
G1 X80.352 Y.34 E104.55702
G1 E102.55702 F2400
G92 E0
G1 X80.352 Y.34 F7800
G1 X77.808 Y.34
G1 E2 F2400
G1 F4800
G1 X77.808 Y49.66 E104.55702
G1 E102.55702 F2400
G92 E0
G1 X77.808 Y49.66 F7800
G1 X85.441 Y49.66
G1 E2 F2400
G1 F4800
G1 X85.441 Y.34 E104.55702
G1 E102.55702 F2400
G92 E0
G1 X85.441 Y.34 F7800
G1 X87.985 Y.34
G1 E2 F2400
G1 F4800
G1 X87.985 Y49.66 E104.55702
G1 E102.55702 F2400
G92 E0
G1 X87.985 Y49.66 F7800
G1 X100.705 Y49.66
G1 E2 F2400
G1 F4800
G1 X100.705 Y.34 E104.55702
G1 E102.55702 F2400
G92 E0
G1 X100.705 Y.34 F7800
G1 X103.249 Y.34
G1 E2 F2400
G1 F4800
G1 X103.249 Y49.66 E104.55702
G1 E102.55702 F2400
G92 E0
G1 X103.249 Y49.66 F7800
G1 X105.793 Y49.66
G1 E2 F2400
G1 F4800
G1 X105.793 Y.34 E104.55702
G1 E102.55702 F2400
G92 E0
G1 X105.793 Y.34 F7800
G1 X108.337 Y.34
G1 E2 F2400
G1 F4800
G1 X108.337 Y49.66 E104.55702
G1 E102.55702 F2400
G92 E0
G1 X108.337 Y49.66 F7800
G1 X110.881 Y49.66
G1 E2 F2400
G1 F4800
G1 X110.881 Y.34 E104.55702
G1 E102.55702 F2400
G92 E0
G1 X110.881 Y.34 F7800
G1 X113.425 Y.34
G1 E2 F2400
G1 F4800
G1 X113.425 Y49.66 E104.55702
G1 E102.55702 F2400
G92 E0
G1 X113.425 Y49.66 F7800
G1 X60 Y49.66
G1 E2 F2400
G1 F4800
G1 X60 Y.34 E104.55702
G1 E102.55702 F2400
G92 E0
G1 X60 Y.34 F7800
G1 X57.456 Y.34
G1 E2 F2400
G1 F4800
G1 X57.456 Y49.66 E104.55702
;LAYER_CHANGE
;Z:6
;HEIGHT:2
G1 Z6 F7800
G1 E102.55702 F2400
G1 Z6 F7800
G1 X.34 Y48.481
G1 E104.55702 F2400
G1 F4800
G1 X119.66 Y48.481 E352.67348
G1 E350.67348 F2400
G92 E0
G1 X119.66 Y48.481 F7800
G1 X119.66 Y45.872
G1 E2 F2400
G1 F4800
G1 X.34 Y45.872 E250.11646
G1 E248.11646 F2400
G92 E0
G1 X.34 Y45.872 F7800
G1 X.34 Y38.045
G1 E2 F2400
G1 F4800
G1 X119.66 Y38.045 E250.11646
G1 E248.11646 F2400
G92 E0
G1 X119.66 Y38.045 F7800
G1 X119.66 Y40.654
G1 E2 F2400
G1 F4800
G1 X.34 Y40.654 E250.11646
G1 E248.11646 F2400
G92 E0
G1 X.34 Y40.654 F7800
G1 X.34 Y43.263
G1 E2 F2400
G1 F4800
G1 X119.66 Y43.263 E250.11646
G1 E248.11646 F2400
G92 E0
G1 X119.66 Y43.263 F7800
G1 X119.66 Y35.436
G1 E2 F2400
G1 F4800
G1 X.34 Y35.436 E250.11646
G1 E248.11646 F2400
G92 E0
G1 X.34 Y35.436 F7800
G1 X.34 Y32.827
G1 E2 F2400
G1 F4800
G1 X119.66 Y32.827 E250.11646
G1 E248.11646 F2400
G92 E0
G1 X119.66 Y32.827 F7800
G1 X119.66 Y30.218
G1 E2 F2400
G1 F4800
G1 X.34 Y30.218 E250.11646
G1 E248.11646 F2400
G92 E0
G1 X.34 Y30.218 F7800
G1 X.34 Y27.609
G1 E2 F2400
G1 F4800
G1 X119.66 Y27.609 E250.11646
G1 E248.11646 F2400
G92 E0
G1 X119.66 Y27.609 F7800
G1 X119.66 Y25
G1 E2 F2400
G1 F4800
G1 X.34 Y25 E250.11646
G1 E248.11646 F2400
G92 E0
G1 X.34 Y25 F7800
G1 X.34 Y22.391
G1 E2 F2400
G1 F4800
G1 X119.66 Y22.391 E250.11646
G1 E248.11646 F2400
G92 E0
G1 X119.66 Y22.391 F7800
G1 X119.66 Y19.782
G1 E2 F2400
G1 F4800
G1 X.34 Y19.782 E250.11646
G1 E248.11646 F2400
G92 E0
G1 X.34 Y19.782 F7800
G1 X.34 Y17.173
G1 E2 F2400
G1 F4800
G1 X119.66 Y17.173 E250.11646
G1 E248.11646 F2400
G92 E0
G1 X119.66 Y17.173 F7800
G1 X119.66 Y14.564
G1 E2 F2400
G1 F4800
G1 X.34 Y14.564 E250.11646
G1 E248.11646 F2400
G92 E0
G1 X.34 Y14.564 F7800
G1 X.34 Y11.955
G1 E2 F2400
G1 F4800
G1 X119.66 Y11.955 E250.11646
G1 E248.11646 F2400
G92 E0
G1 X119.66 Y11.955 F7800
G1 X119.66 Y9.346
G1 E2 F2400
G1 F4800
G1 X.34 Y9.346 E250.11646
G1 E248.11646 F2400
G92 E0
G1 X.34 Y9.346 F7800
G1 X.34 Y6.737
G1 E2 F2400
G1 F4800
G1 X119.66 Y6.737 E250.11646
G1 E248.11646 F2400
G92 E0
G1 X119.66 Y6.737 F7800
G1 X119.66 Y4.128
G1 E2 F2400
G1 F4800
G1 X.34 Y4.128 E250.11646
G1 E248.11646 F2400
G92 E0
G1 X.34 Y4.128 F7800
G1 X.34 Y1.519
G1 E2 F2400
G1 F4800
G1 X119.66 Y1.519 E250.11646
M106 S160.65
;LAYER_CHANGE
;Z:8
;HEIGHT:2
G1 Z8 F7800
G1 X118.513 Y.34
G1 F4800
G1 X118.513 Y49.66 E352.67348
G1 E350.67348 F2400
G92 E0
G1 X118.513 Y49.66 F7800
G1 X115.969 Y49.66
G1 E2 F2400
G1 F4800
G1 X115.969 Y.34 E104.55702
G1 E102.55702 F2400
G92 E0
G1 X115.969 Y.34 F7800
G1 X98.161 Y.34
G1 E2 F2400
G1 F4800
G1 X98.161 Y49.66 E104.55702
G1 E102.55702 F2400
G92 E0
G1 X98.161 Y49.66 F7800
G1 X95.617 Y49.66
G1 E2 F2400
G1 F4800
G1 X95.617 Y.34 E104.55702
G1 E102.55702 F2400
G92 E0
G1 X95.617 Y.34 F7800
G1 X93.073 Y.34
G1 E2 F2400
G1 F4800
G1 X93.073 Y49.66 E104.55702
G1 E102.55702 F2400
G92 E0
G1 X93.073 Y49.66 F7800
G1 X90.529 Y49.66
G1 E2 F2400
G1 F4800
G1 X90.529 Y.34 E104.55702
G1 E102.55702 F2400
G92 E0
G1 X90.529 Y.34 F7800
G1 X32.015 Y.34
G1 E2 F2400
G1 F4800
G1 X32.015 Y49.66 E104.55702
G1 E102.55702 F2400
G92 E0
G1 X32.015 Y49.66 F7800
G1 X29.471 Y49.66
G1 E2 F2400
G1 F4800
G1 X29.471 Y.34 E104.55702
G1 E102.55702 F2400
G92 E0
G1 X29.471 Y.34 F7800
G1 X16.751 Y.34
G1 E2 F2400
G1 F4800
G1 X16.751 Y49.66 E104.55702
G1 E102.55702 F2400
G92 E0
G1 X16.751 Y49.66 F7800
G1 X14.207 Y49.66
G1 E2 F2400
G1 F4800
G1 X14.207 Y.34 E104.55702
G1 E102.55702 F2400
G92 E0
G1 X14.207 Y.34 F7800
G1 X11.663 Y.34
G1 E2 F2400
G1 F4800
G1 X11.663 Y49.66 E104.55702
G1 E102.55702 F2400
G92 E0
G1 X11.663 Y49.66 F7800
G1 X9.119 Y49.66
G1 E2 F2400
G1 F4800
G1 X9.119 Y.34 E104.55702
G1 E102.55702 F2400
G92 E0
G1 X9.119 Y.34 F7800
G1 X6.575 Y.34
G1 E2 F2400
G1 F4800
G1 X6.575 Y49.66 E104.55702
G1 E102.55702 F2400
G92 E0
G1 X6.575 Y49.66 F7800
G1 X4.031 Y49.66
G1 E2 F2400
G1 F4800
G1 X4.031 Y.34 E104.55702
G1 E102.55702 F2400
G92 E0
G1 X4.031 Y.34 F7800
G1 X1.487 Y.34
G1 E2 F2400
G1 F4800
G1 X1.487 Y49.66 E104.55702
G1 E102.55702 F2400
G92 E0
G1 X1.487 Y49.66 F7800
G1 X19.295 Y49.66
G1 E2 F2400
G1 F4800
G1 X19.295 Y.34 E104.55702
G1 E102.55702 F2400
G92 E0
G1 X19.295 Y.34 F7800
G1 X21.839 Y.34
G1 E2 F2400
G1 F4800
G1 X21.839 Y49.66 E104.55702
G1 E102.55702 F2400
G92 E0
G1 X21.839 Y49.66 F7800
G1 X24.383 Y49.66
G1 E2 F2400
G1 F4800
G1 X24.383 Y.34 E104.55702
G1 E102.55702 F2400
G92 E0
G1 X24.383 Y.34 F7800
G1 X26.927 Y.34
G1 E2 F2400
G1 F4800
G1 X26.927 Y49.66 E104.55702
G1 E102.55702 F2400
G92 E0
G1 X26.927 Y49.66 F7800
G1 X34.559 Y49.66
G1 E2 F2400
G1 F4800
G1 X34.559 Y.34 E104.55702
G1 E102.55702 F2400
G92 E0
G1 X34.559 Y.34 F7800
G1 X37.103 Y.34
G1 E2 F2400
G1 F4800
G1 X37.103 Y49.66 E104.55702
G1 E102.55702 F2400
G92 E0
G1 X37.103 Y49.66 F7800
G1 X39.647 Y49.66
G1 E2 F2400
G1 F4800
G1 X39.647 Y.34 E104.55702
G1 E102.55702 F2400
G92 E0
G1 X39.647 Y.34 F7800
G1 X42.192 Y.34
G1 E2 F2400
G1 F4800
G1 X42.192 Y49.66 E104.55702
G1 E102.55702 F2400
G92 E0
G1 X42.192 Y49.66 F7800
G1 X44.736 Y49.66
G1 E2 F2400
G1 F4800
G1 X44.736 Y.34 E104.55702
G1 E102.55702 F2400
G92 E0
G1 X44.736 Y.34 F7800
G1 X47.28 Y.34
G1 E2 F2400
G1 F4800
G1 X47.28 Y49.66 E104.55702
G1 E102.55702 F2400
G92 E0
G1 X47.28 Y49.66 F7800
G1 X49.824 Y49.66
G1 E2 F2400
G1 F4800
G1 X49.824 Y.34 E104.55702
G1 E102.55702 F2400
G92 E0
G1 X49.824 Y.34 F7800
G1 X52.368 Y.34
G1 E2 F2400
G1 F4800
G1 X52.368 Y49.66 E104.55702
G1 E102.55702 F2400
G92 E0
G1 X52.368 Y49.66 F7800
G1 X54.912 Y49.66
G1 E2 F2400
G1 F4800
G1 X54.912 Y.34 E104.55702
G1 E102.55702 F2400
G92 E0
G1 X54.912 Y.34 F7800
G1 X62.544 Y.34
G1 E2 F2400
G1 F4800
G1 X62.544 Y49.66 E104.55702
G1 E102.55702 F2400
G92 E0
G1 X62.544 Y49.66 F7800
G1 X65.088 Y49.66
G1 E2 F2400
G1 F4800
G1 X65.088 Y.34 E104.55702
G1 E102.55702 F2400
G92 E0
G1 X65.088 Y.34 F7800
G1 X67.632 Y.34
G1 E2 F2400
G1 F4800
G1 X67.632 Y49.66 E104.55702
G1 E102.55702 F2400
G92 E0
G1 X67.632 Y49.66 F7800
G1 X70.176 Y49.66
G1 E2 F2400
G1 F4800
G1 X70.176 Y.34 E104.55702
G1 E102.55702 F2400
G92 E0
G1 X70.176 Y.34 F7800
G1 X72.72 Y.34
G1 E2 F2400
G1 F4800
G1 X72.72 Y49.66 E104.55702
G1 E102.55702 F2400
G92 E0
G1 X72.72 Y49.66 F7800
G1 X75.264 Y49.66
G1 E2 F2400
G1 F4800
G1 X75.264 Y.34 E104.55702
G1 E102.55702 F2400
G92 E0
G1 X75.264 Y.34 F7800
G1 X82.896 Y.34
G1 E2 F2400
G1 F4800
G1 X82.896 Y49.66 E104.55702
G1 E102.55702 F2400
G92 E0
G1 X82.896 Y49.66 F7800
G1 X80.352 Y49.66
G1 E2 F2400
G1 F4800
G1 X80.352 Y.34 E104.55702
G1 E102.55702 F2400
G92 E0
G1 X80.352 Y.34 F7800
G1 X77.808 Y.34
G1 E2 F2400
G1 F4800
G1 X77.808 Y49.66 E104.55702
G1 E102.55702 F2400
G92 E0
G1 X77.808 Y49.66 F7800
G1 X85.441 Y49.66
G1 E2 F2400
G1 F4800
G1 X85.441 Y.34 E104.55702
G1 E102.55702 F2400
G92 E0
G1 X85.441 Y.34 F7800
G1 X87.985 Y.34
G1 E2 F2400
G1 F4800
G1 X87.985 Y49.66 E104.55702
G1 E102.55702 F2400
G92 E0
G1 X87.985 Y49.66 F7800
G1 X100.705 Y49.66
G1 E2 F2400
G1 F4800
G1 X100.705 Y.34 E104.55702
G1 E102.55702 F2400
G92 E0
G1 X100.705 Y.34 F7800
G1 X103.249 Y.34
G1 E2 F2400
G1 F4800
G1 X103.249 Y49.66 E104.55702
G1 E102.55702 F2400
G92 E0
G1 X103.249 Y49.66 F7800
G1 X105.793 Y49.66
G1 E2 F2400
G1 F4800
G1 X105.793 Y.34 E104.55702
G1 E102.55702 F2400
G92 E0
G1 X105.793 Y.34 F7800
G1 X108.337 Y.34
G1 E2 F2400
G1 F4800
G1 X108.337 Y49.66 E104.55702
G1 E102.55702 F2400
G92 E0
G1 X108.337 Y49.66 F7800
G1 X110.881 Y49.66
G1 E2 F2400
G1 F4800
G1 X110.881 Y.34 E104.55702
G1 E102.55702 F2400
G92 E0
G1 X110.881 Y.34 F7800
G1 X113.425 Y.34
G1 E2 F2400
G1 F4800
G1 X113.425 Y49.66 E104.55702
G1 E102.55702 F2400
G92 E0
G1 X113.425 Y49.66 F7800
G1 X60 Y49.66
G1 E2 F2400
G1 F4800
G1 X60 Y.34 E104.55702
G1 E102.55702 F2400
G92 E0
G1 X60 Y.34 F7800
G1 X57.456 Y.34
G1 E2 F2400
G1 F4800
G1 X57.456 Y49.66 E104.55702
M106 S175.95
;LAYER_CHANGE
;Z:10
;HEIGHT:2
G1 Z10 F7800
