; generated by PrusaSlicer 2.7.2+win64 on 2024-03-14 at 16:55:48 UTC

; 

; external perimeters extrusion width = 5.00mm
; perimeters extrusion width = 5.00mm
; infill extrusion width = 5.00mm
; solid infill extrusion width = 5.00mm
; top infill extrusion width = 5.00mm
; first layer extrusion width = 0.70mm

M104 S200 ; set temperature
;TYPE:Custom
G28 ; home all axes
G1 Z5 F5000 ; lift nozzle
M109 S200 ; set temperature and wait for it to be reached
G21 ; set units to millimeters
G90 ; use absolute coordinates
M82 ; use absolute distances for extrusion
G92 E0
; Filament gcode
M107
;LAYER_CHANGE
;Z:0.35
;HEIGHT:0.35
G1 E-2 F2400
G1 Z.35 F7800
G1 X-4.208 Y-4.987
G1 E0 F2400
;TYPE:Skirt/Brim
;WIDTH:0.7
G1 F1800
G1 X-3.332 Y-5.726 E.10421
G1 X-1.18 Y-6.519 E.31275
G1 X0 Y-6.625 E.42048
G1 X120 Y-6.625 E11.33203
G1 X122.259 Y-6.228 E11.54059
G1 X124.247 Y-5.085 E11.74911
G1 X125.726 Y-3.332 E11.95766
G1 X126.519 Y-1.18 E12.1662
G1 X126.625 Y0 E12.27393
G1 X126.625 Y50 E16.82041
G1 X126.228 Y52.259 E17.02897
G1 X125.085 Y54.247 E17.23749
G1 X123.332 Y55.726 E17.44604
G1 X121.18 Y56.519 E17.65458
G1 X120 Y56.625 E17.76231
G1 X0 Y56.625 E28.67386
G1 X-2.259 Y56.228 E28.88242
G1 X-4.247 Y55.085 E29.09094
G1 X-5.726 Y53.332 E29.29949
G1 X-6.519 Y51.18 E29.50803
G1 X-6.625 Y50 E29.61576
G1 X-6.625 Y0 E34.16224
G1 X-6.228 Y-2.259 E34.3708
G1 X-5.261 Y-3.941 E34.54722
G1 E32.54722 F2400
G92 E0
G1 X-5.261 Y-3.941 F7800
G1 X119.65 Y49.65
G1 E2 F2400
;TYPE:External perimeter
;WIDTH:0.7
G1 F1800
G1 X.35 Y49.65 E12.84789
G1 X.35 Y.35 E17.33072
G1 X119.65 Y.35 E28.17861
G1 X119.65 Y25 E30.42002
G1 X119.65 Y48.15 E32.52504
G1 X119.276 Y47.312 F7800
;TYPE:Internal infill
;WIDTH:0.7
G1 F1800
G1 X72.688 Y.724 E38.51597
G1 E36.51597 F2400
G92 E0
G1 X72.688 Y.724 F7800
G1 X35.724 Y.724
G1 E2 F2400
G1 F1800
G1 X84.276 Y49.276 E8.24349
G1 E6.24349 F2400
G92 E0
G1 X71.955 Y49.276 F7800
G1 E2 F2400
G1 F1800
G1 X23.403 Y.724 E8.24349
G1 E6.24349 F2400
G92 E0
G1 X23.403 Y.724 F7800
G1 X.724 Y15.009
G1 E2 F2400
G1 F1800
G1 X34.991 Y49.276 E6.40653
G1 E4.40653 F2400
G92 E0
G1 X34.991 Y49.276 F7800
G1 X47.312 Y49.276
G1 E2 F2400
G1 F1800
G1 X.724 Y2.688 E7.99093
G1 E5.99093 F2400
G92 E0
G1 X.724 Y2.688 F7800
G1 X11.082 Y.724
G1 E2 F2400
G1 F1800
G1 X59.634 Y49.276 E8.24349
G1 E6.24349 F2400
G92 E0
G1 X59.634 Y49.276 F7800
G1 X22.67 Y49.276
G1 E2 F2400
G1 F1800
G1 X.724 Y27.33 E4.82212
G1 E2.82212 F2400
G92 E0
G1 X.724 Y39.651 F7800
G1 E2 F2400
G1 F1800
G1 X10.349 Y49.276 E3.23772
G1 E1.23772 F2400
G92 E0
G1 X96.597 Y49.276 F7800
G1 E2 F2400
G1 F1800
G1 X48.045 Y.724 E8.24349
G1 E6.24349 F2400
G92 E0
G1 X48.045 Y.724 F7800
G1 X60.366 Y.724
G1 E2 F2400
G1 F1800
G1 X108.918 Y49.276 E8.24349
G1 E6.24349 F2400
G92 E0
G1 X108.918 Y49.276 F7800
G1 X119.276 Y34.991
G1 E2 F2400
G1 F1800
G1 X85.009 Y.724 E6.40653
G1 E4.40653 F2400
G92 E0
G1 X85.009 Y.724 F7800
G1 X97.33 Y.724
G1 E2 F2400
G1 F1800
G1 X119.276 Y22.67 E4.82212
G1 E2.82212 F2400
G92 E0
G1 X119.276 Y10.349 F7800
G1 E2 F2400
G1 F1800
G1 X109.651 Y.724 E3.23772
;LAYER_CHANGE
;Z:3.35
;HEIGHT:3
G1 Z3.35 F7800
G1 E1.23772 F2400
G1 Z3.35 F7800
G1 X117.5 Y47.5
G1 E3.23772 F2400
;TYPE:External perimeter
;WIDTH:5
G1 F1800
G1 X2.5 Y47.5 E628.06548
G1 X2.5 Y2.5 E872.5633
G1 X117.5 Y2.5 E1497.39106
G1 X117.5 Y25 E1619.63997
G1 X117.5 Y46 E1733.73895
G1 E1731.73895 F2400
G92 E0
G1 X116.193 Y30.413 F7800
G1 E2 F2400
;TYPE:Internal infill
;WIDTH:5
G1 F4800
G1 X100.413 Y46.193 E123.25078
G1 E121.25078 F2400
G92 E0
G1 X100.413 Y46.193 F7800
G1 X116.193 Y18.092
G1 E2 F2400
G1 F4800
G1 X88.092 Y46.193 E217.9232
G1 E215.9232 F2400
G92 E0
G1 X88.092 Y46.193 F7800
G1 X75.77 Y46.193
G1 E2 F2400
G1 F4800
G1 X116.193 Y5.77 E312.60331
G1 E310.60331 F2400
G92 E0
G1 X116.193 Y5.77 F7800
G1 X105.836 Y3.807
G1 E2 F2400
G1 F4800
G1 X63.449 Y46.193 E327.6905
G1 E325.6905 F2400
G92 E0
G1 X63.449 Y46.193 F7800
G1 X51.128 Y46.193
G1 E2 F2400
G1 F4800
G1 X93.514 Y3.807 E327.68666
G1 E325.68666 F2400
G92 E0
G1 X93.514 Y3.807 F7800
G1 X81.193 Y3.807
G1 E2 F2400
G1 F4800
G1 X38.807 Y46.193 E327.68666
G1 E325.68666 F2400
G92 E0
G1 X38.807 Y46.193 F7800
G1 X26.486 Y46.193
G1 E2 F2400
G1 F4800
G1 X68.872 Y3.807 E327.68666
G1 E325.68666 F2400
G92 E0
G1 X68.872 Y3.807 F7800
G1 X56.551 Y3.807
G1 E2 F2400
G1 F4800
G1 X14.164 Y46.193 E327.6905
G1 E325.6905 F2400
G92 E0
G1 X14.164 Y46.193 F7800
G1 X3.807 Y44.23
G1 E2 F2400
G1 F4800
G1 X44.23 Y3.807 E312.60331
G1 E310.60331 F2400
G92 E0
G1 X44.23 Y3.807 F7800
G1 X31.908 Y3.807
G1 E2 F2400
G1 F4800
G1 X3.807 Y31.908 E217.9232
G1 E215.9232 F2400
G92 E0
G1 X3.807 Y31.908 F7800
G1 X3.807 Y19.587
G1 E2 F2400
G1 F4800
G1 X19.587 Y3.807 E123.25078
;LAYER_CHANGE
;Z:6.35
;HEIGHT:3
G1 Z6.35 F7800
G1 E121.25078 F2400
G1 Z6.35 F7800
G1 X117.5 Y47.5
G1 E123.25078 F2400
;TYPE:External perimeter
;WIDTH:5
G1 F1800
G1 X2.5 Y47.5 E748.07854
G1 X2.5 Y2.5 E992.57636
G1 X117.5 Y2.5 E1617.40412
G1 X117.5 Y25 E1739.65303
G1 X117.5 Y46 E1853.75201
G1 E1851.75201 F2400
G92 E0
G1 X116.193 Y44.23 F7800
G1 E2 F2400
;TYPE:Internal infill
;WIDTH:5
G1 F4800
G1 X75.77 Y3.807 E312.60331
G1 E310.60331 F2400
G92 E0
G1 X75.77 Y3.807 F7800
G1 X63.449 Y3.807
G1 E2 F2400
G1 F4800
G1 X105.835 Y46.193 E327.68666
G1 E325.68666 F2400
G92 E0
G1 X105.835 Y46.193 F7800
G1 X93.514 Y46.193
G1 E2 F2400
G1 F4800
G1 X51.128 Y3.807 E327.68666
G1 E325.68666 F2400
G92 E0
G1 X51.128 Y3.807 F7800
G1 X38.807 Y3.807
G1 E2 F2400
G1 F4800
G1 X81.193 Y46.193 E327.68666
G1 E325.68666 F2400
G92 E0
G1 X81.193 Y46.193 F7800
G1 X116.193 Y31.908
G1 E2 F2400
G1 F4800
G1 X88.092 Y3.807 E217.9232
G1 E215.9232 F2400
G92 E0
G1 X88.092 Y3.807 F7800
G1 X100.413 Y3.807
G1 E2 F2400
G1 F4800
G1 X116.193 Y19.587 E123.25078
G1 E121.25078 F2400
G92 E0
G1 X116.193 Y19.587 F7800
G1 X26.486 Y3.807
G1 E2 F2400
G1 F4800
G1 X68.872 Y46.193 E327.68666
G1 E325.68666 F2400
G92 E0
G1 X68.872 Y46.193 F7800
G1 X56.551 Y46.193
G1 E2 F2400
G1 F4800
G1 X14.165 Y3.807 E327.68666
G1 E325.68666 F2400
G92 E0
G1 X14.165 Y3.807 F7800
G1 X3.807 Y5.77
G1 E2 F2400
G1 F4800
G1 X44.23 Y46.193 E312.60331
G1 E310.60331 F2400
G92 E0
G1 X44.23 Y46.193 F7800
G1 X31.908 Y46.193
G1 E2 F2400
G1 F4800
G1 X3.807 Y18.092 E217.9232
G1 E215.9232 F2400
G92 E0
G1 X3.807 Y18.092 F7800
G1 X3.807 Y30.413
G1 E2 F2400
G1 F4800
G1 X19.587 Y46.193 E123.25078
M106 S206.55
;LAYER_CHANGE
;Z:9.35
;HEIGHT:3
G1 Z9.35 F7800
G1 E121.25078 F2400
G1 Z9.35 F7800
G1 X117.5 Y47.5
G1 E123.25078 F2400
;TYPE:External perimeter
;WIDTH:5
G1 F1800
G1 X2.5 Y47.5 E748.07854
G1 X2.5 Y2.5 E992.57636
G1 X117.5 Y2.5 E1617.40412
G1 X117.5 Y25 E1739.65303
G1 X117.5 Y46 E1853.75201
G1 E1851.75201 F2400
G92 E0
G1 X116.193 Y30.413 F7800
G1 E2 F2400
;TYPE:Internal infill
;WIDTH:5
G1 F4800
G1 X100.413 Y46.193 E123.25078
G1 E121.25078 F2400
G92 E0
G1 X100.413 Y46.193 F7800
G1 X116.193 Y18.092
G1 E2 F2400
G1 F4800
G1 X88.092 Y46.193 E217.9232
G1 E215.9232 F2400
G92 E0
G1 X88.092 Y46.193 F7800
G1 X75.77 Y46.193
G1 E2 F2400
G1 F4800
G1 X116.193 Y5.77 E312.60331
G1 E310.60331 F2400
G92 E0
G1 X116.193 Y5.77 F7800
G1 X105.836 Y3.807
G1 E2 F2400
G1 F4800
G1 X63.449 Y46.193 E327.6905
G1 E325.6905 F2400
G92 E0
G1 X63.449 Y46.193 F7800
G1 X51.128 Y46.193
G1 E2 F2400
G1 F4800
G1 X93.514 Y3.807 E327.68666
G1 E325.68666 F2400
G92 E0
G1 X93.514 Y3.807 F7800
G1 X81.193 Y3.807
G1 E2 F2400
G1 F4800
G1 X38.807 Y46.193 E327.68666
G1 E325.68666 F2400
G92 E0
G1 X38.807 Y46.193 F7800
G1 X26.486 Y46.193
G1 E2 F2400
G1 F4800
G1 X68.872 Y3.807 E327.68666
G1 E325.68666 F2400
G92 E0
G1 X68.872 Y3.807 F7800
G1 X56.551 Y3.807
G1 E2 F2400
G1 F4800
G1 X14.164 Y46.193 E327.6905
G1 E325.6905 F2400
G92 E0
G1 X14.164 Y46.193 F7800
G1 X3.807 Y44.23
G1 E2 F2400
G1 F4800
G1 X44.23 Y3.807 E312.60331
G1 E310.60331 F2400
G92 E0
G1 X44.23 Y3.807 F7800
G1 X31.908 Y3.807
G1 E2 F2400
G1 F4800
G1 X3.807 Y31.908 E217.9232
G1 E215.9232 F2400
G92 E0
G1 X3.807 Y31.908 F7800
G1 X3.807 Y19.587
G1 E2 F2400
G1 F4800
G1 X19.587 Y3.807 E123.25078
M106 S204
;LAYER_CHANGE
;Z:12.35
;HEIGHT:3
G1 Z12.35 F7800
G1 E121.25078 F2400
G1 Z12.35 F7800
G1 X117.5 Y47.5
G1 E123.25078 F2400
;TYPE:External perimeter
;WIDTH:5
G1 F1800
G1 X2.5 Y47.5 E748.07854
G1 X2.5 Y2.5 E992.57636
G1 X117.5 Y2.5 E1617.40412
G1 X117.5 Y25 E1739.65303
G1 X117.5 Y46 E1853.75201
G1 E1851.75201 F2400
G92 E0
G1 X116.193 Y44.23 F7800
G1 E2 F2400
;TYPE:Internal infill
;WIDTH:5
G1 F4800
G1 X75.77 Y3.807 E312.60331
G1 E310.60331 F2400
G92 E0
G1 X75.77 Y3.807 F7800
G1 X63.449 Y3.807
G1 E2 F2400
G1 F4800
G1 X105.835 Y46.193 E327.68666
G1 E325.68666 F2400
G92 E0
G1 X105.835 Y46.193 F7800
G1 X93.514 Y46.193
G1 E2 F2400
G1 F4800
G1 X51.128 Y3.807 E327.68666
G1 E325.68666 F2400
G92 E0
G1 X51.128 Y3.807 F7800
G1 X38.807 Y3.807
G1 E2 F2400
G1 F4800
G1 X81.193 Y46.193 E327.68666
G1 E325.68666 F2400
G92 E0
G1 X81.193 Y46.193 F7800
G1 X116.193 Y31.908
G1 E2 F2400
G1 F4800
G1 X88.092 Y3.807 E217.9232
G1 E215.9232 F2400
G92 E0
G1 X88.092 Y3.807 F7800
G1 X100.413 Y3.807
G1 E2 F2400
G1 F4800
G1 X116.193 Y19.587 E123.25078
G1 E121.25078 F2400
G92 E0
G1 X116.193 Y19.587 F7800
G1 X26.486 Y3.807
G1 E2 F2400
G1 F4800
G1 X68.872 Y46.193 E327.68666
G1 E325.68666 F2400
G92 E0
G1 X68.872 Y46.193 F7800
G1 X56.551 Y46.193
G1 E2 F2400
G1 F4800
G1 X14.165 Y3.807 E327.68666
G1 E325.68666 F2400
G92 E0
G1 X14.165 Y3.807 F7800
G1 X3.807 Y5.77
G1 E2 F2400
G1 F4800
G1 X44.23 Y46.193 E312.60331
G1 E310.60331 F2400
G92 E0
G1 X44.23 Y46.193 F7800
G1 X31.908 Y46.193
G1 E2 F2400
G1 F4800
G1 X3.807 Y18.092 E217.9232
G1 E215.9232 F2400
G92 E0
G1 X3.807 Y18.092 F7800
G1 X3.807 Y30.413
G1 E2 F2400
G1 F4800
G1 X19.587 Y46.193 E123.25078
M106 S206.55
;LAYER_CHANGE
;Z:15.35
;HEIGHT:3
G1 Z15.35 F7800
G1 E121.25078 F2400
G1 Z15.35 F7800
G1 X117.5 Y47.5
G1 E123.25078 F2400
;TYPE:External perimeter
;WIDTH:5
G1 F1800
G1 X2.5 Y47.5 E748.07854
G1 X2.5 Y2.5 E992.57636
G1 X117.5 Y2.5 E1617.40412
G1 X117.5 Y25 E1739.65303
G1 X117.5 Y46 E1853.75201
G1 E1851.75201 F2400
G92 E0
G1 X116.193 Y30.413 F7800
G1 E2 F2400
;TYPE:Internal infill
;WIDTH:5
G1 F4800
G1 X100.413 Y46.193 E123.25078
G1 E121.25078 F2400
G92 E0
G1 X100.413 Y46.193 F7800
G1 X116.193 Y18.092
G1 E2 F2400
G1 F4800
G1 X88.092 Y46.193 E217.9232
G1 E215.9232 F2400
G92 E0
G1 X88.092 Y46.193 F7800
G1 X75.77 Y46.193
G1 E2 F2400
G1 F4800
G1 X116.193 Y5.77 E312.60331
G1 E310.60331 F2400
G92 E0
G1 X116.193 Y5.77 F7800
G1 X105.836 Y3.807
G1 E2 F2400
G1 F4800
G1 X63.449 Y46.193 E327.6905
G1 E325.6905 F2400
G92 E0
G1 X63.449 Y46.193 F7800
G1 X51.128 Y46.193
G1 E2 F2400
G1 F4800
G1 X93.514 Y3.807 E327.68666
G1 E325.68666 F2400
G92 E0
G1 X93.514 Y3.807 F7800
G1 X81.193 Y3.807
G1 E2 F2400
G1 F4800
G1 X38.807 Y46.193 E327.68666
G1 E325.68666 F2400
G92 E0
G1 X38.807 Y46.193 F7800
G1 X26.486 Y46.193
G1 E2 F2400
G1 F4800
G1 X68.872 Y3.807 E327.68666
G1 E325.68666 F2400
G92 E0
G1 X68.872 Y3.807 F7800
G1 X56.551 Y3.807
G1 E2 F2400
G1 F4800
G1 X14.164 Y46.193 E327.6905
G1 E325.6905 F2400
G92 E0
G1 X14.164 Y46.193 F7800
G1 X3.807 Y44.23
G1 E2 F2400
G1 F4800
G1 X44.23 Y3.807 E312.60331
G1 E310.60331 F2400
G92 E0
G1 X44.23 Y3.807 F7800
G1 X31.908 Y3.807
G1 E2 F2400
G1 F4800
G1 X3.807 Y31.908 E217.9232
G1 E215.9232 F2400
G92 E0
G1 X3.807 Y31.908 F7800
G1 X3.807 Y19.587
G1 E2 F2400
G1 F4800
G1 X19.587 Y3.807 E123.25078
M106 S204
;LAYER_CHANGE
;Z:18.35
;HEIGHT:3
G1 Z18.35 F7800
G1 E121.25078 F2400
G1 Z18.35 F7800
G1 X117.5 Y47.5
G1 E123.25078 F2400
;TYPE:External perimeter
;WIDTH:5
G1 F1800
G1 X2.5 Y47.5 E748.07854
G1 X2.5 Y2.5 E992.57636
G1 X117.5 Y2.5 E1617.40412
G1 X117.5 Y25 E1739.65303
G1 X117.5 Y46 E1853.75201
G1 E1851.75201 F2400
G92 E0
G1 X116.193 Y44.23 F7800
G1 E2 F2400
;TYPE:Internal infill
;WIDTH:5
G1 F4800
G1 X75.77 Y3.807 E312.60331
G1 E310.60331 F2400
G92 E0
G1 X75.77 Y3.807 F7800
G1 X63.449 Y3.807
G1 E2 F2400
G1 F4800
G1 X105.835 Y46.193 E327.68666
G1 E325.68666 F2400
G92 E0
G1 X105.835 Y46.193 F7800
G1 X93.514 Y46.193
G1 E2 F2400
G1 F4800
G1 X51.128 Y3.807 E327.68666
G1 E325.68666 F2400
G92 E0
G1 X51.128 Y3.807 F7800
G1 X38.807 Y3.807
G1 E2 F2400
G1 F4800
G1 X81.193 Y46.193 E327.68666
G1 E325.68666 F2400
G92 E0
G1 X81.193 Y46.193 F7800
G1 X116.193 Y31.908
G1 E2 F2400
G1 F4800
G1 X88.092 Y3.807 E217.9232
G1 E215.9232 F2400
G92 E0
G1 X88.092 Y3.807 F7800
G1 X100.413 Y3.807
G1 E2 F2400
G1 F4800
G1 X116.193 Y19.587 E123.25078
G1 E121.25078 F2400
G92 E0
G1 X116.193 Y19.587 F7800
G1 X26.486 Y3.807
G1 E2 F2400
G1 F4800
G1 X68.872 Y46.193 E327.68666
G1 E325.68666 F2400
G92 E0
G1 X68.872 Y46.193 F7800
G1 X56.551 Y46.193
G1 E2 F2400
G1 F4800
G1 X14.165 Y3.807 E327.68666
G1 E325.68666 F2400
G92 E0
G1 X14.165 Y3.807 F7800
G1 X3.807 Y5.77
G1 E2 F2400
G1 F4800
G1 X44.23 Y46.193 E312.60331
G1 E310.60331 F2400
G92 E0
G1 X44.23 Y46.193 F7800
G1 X31.908 Y46.193
G1 E2 F2400
G1 F4800
G1 X3.807 Y18.092 E217.9232
G1 E215.9232 F2400
G92 E0
G1 X3.807 Y18.092 F7800
G1 X3.807 Y30.413
G1 E2 F2400
G1 F4800
G1 X19.587 Y46.193 E123.25078
M106 S206.55
;LAYER_CHANGE
;Z:21.35
;HEIGHT:3
G1 Z21.35 F7800
G1 E121.25078 F2400
G1 Z21.35 F7800
G1 X117.5 Y47.5
G1 E123.25078 F2400
;TYPE:External perimeter
;WIDTH:5
G1 F1800
G1 X2.5 Y47.5 E748.07854
G1 X2.5 Y2.5 E992.57636
G1 X117.5 Y2.5 E1617.40412
G1 X117.5 Y25 E1739.65303
G1 X117.5 Y46 E1853.75201
G1 E1851.75201 F2400
G92 E0
G1 X116.193 Y30.413 F7800
G1 E2 F2400
;TYPE:Internal infill
;WIDTH:5
G1 F4800
G1 X100.413 Y46.193 E123.25078
G1 E121.25078 F2400
G92 E0
G1 X100.413 Y46.193 F7800
G1 X116.193 Y18.092
G1 E2 F2400
G1 F4800
G1 X88.092 Y46.193 E217.9232
G1 E215.9232 F2400
G92 E0
G1 X88.092 Y46.193 F7800
G1 X75.77 Y46.193
G1 E2 F2400
G1 F4800
G1 X116.193 Y5.77 E312.60331
G1 E310.60331 F2400
G92 E0
G1 X116.193 Y5.77 F7800
G1 X105.836 Y3.807
G1 E2 F2400
G1 F4800
G1 X63.449 Y46.193 E327.6905
G1 E325.6905 F2400
G92 E0
G1 X63.449 Y46.193 F7800
G1 X51.128 Y46.193
G1 E2 F2400
G1 F4800
G1 X93.514 Y3.807 E327.68666
G1 E325.68666 F2400
G92 E0
G1 X93.514 Y3.807 F7800
G1 X81.193 Y3.807
G1 E2 F2400
G1 F4800
G1 X38.807 Y46.193 E327.68666
G1 E325.68666 F2400
G92 E0
G1 X38.807 Y46.193 F7800
G1 X26.486 Y46.193
G1 E2 F2400
G1 F4800
G1 X68.872 Y3.807 E327.68666
G1 E325.68666 F2400
G92 E0
G1 X68.872 Y3.807 F7800
G1 X56.551 Y3.807
G1 E2 F2400
G1 F4800
G1 X14.164 Y46.193 E327.6905
G1 E325.6905 F2400
G92 E0
G1 X14.164 Y46.193 F7800
G1 X3.807 Y44.23
G1 E2 F2400
G1 F4800
G1 X44.23 Y3.807 E312.60331
G1 E310.60331 F2400
G92 E0
G1 X44.23 Y3.807 F7800
G1 X31.908 Y3.807
G1 E2 F2400
G1 F4800
G1 X3.807 Y31.908 E217.9232
G1 E215.9232 F2400
G92 E0
G1 X3.807 Y31.908 F7800
G1 X3.807 Y19.587
G1 E2 F2400
G1 F4800
G1 X19.587 Y3.807 E123.25078
M106 S204
;LAYER_CHANGE
;Z:24.35
;HEIGHT:3
G1 Z24.35 F7800
G1 E121.25078 F2400
G1 Z24.35 F7800
G1 X117.5 Y47.5
G1 E123.25078 F2400
;TYPE:External perimeter
;WIDTH:5
G1 F1800
G1 X2.5 Y47.5 E748.07854
G1 X2.5 Y2.5 E992.57636
G1 X117.5 Y2.5 E1617.40412
G1 X117.5 Y25 E1739.65303
G1 X117.5 Y46 E1853.75201
G1 E1851.75201 F2400
G92 E0
G1 X116.193 Y44.23 F7800
G1 E2 F2400
;TYPE:Internal infill
;WIDTH:5
G1 F4800
G1 X75.77 Y3.807 E312.60331
G1 E310.60331 F2400
G92 E0
G1 X75.77 Y3.807 F7800
G1 X63.449 Y3.807
G1 E2 F2400
G1 F4800
G1 X105.835 Y46.193 E327.68666
G1 E325.68666 F2400
G92 E0
G1 X105.835 Y46.193 F7800
G1 X93.514 Y46.193
G1 E2 F2400
G1 F4800
G1 X51.128 Y3.807 E327.68666
G1 E325.68666 F2400
G92 E0
G1 X51.128 Y3.807 F7800
G1 X38.807 Y3.807
G1 E2 F2400
G1 F4800
G1 X81.193 Y46.193 E327.68666
G1 E325.68666 F2400
G92 E0
G1 X81.193 Y46.193 F7800
G1 X116.193 Y31.908
G1 E2 F2400
G1 F4800
G1 X88.092 Y3.807 E217.9232
G1 E215.9232 F2400
G92 E0
G1 X88.092 Y3.807 F7800
G1 X100.413 Y3.807
G1 E2 F2400
G1 F4800
G1 X116.193 Y19.587 E123.25078
G1 E121.25078 F2400
G92 E0
G1 X116.193 Y19.587 F7800
G1 X26.486 Y3.807
G1 E2 F2400
G1 F4800
G1 X68.872 Y46.193 E327.68666
G1 E325.68666 F2400
G92 E0
G1 X68.872 Y46.193 F7800
G1 X56.551 Y46.193
G1 E2 F2400
G1 F4800
G1 X14.165 Y3.807 E327.68666
G1 E325.68666 F2400
G92 E0
G1 X14.165 Y3.807 F7800
G1 X3.807 Y5.77
G1 E2 F2400
G1 F4800
G1 X44.23 Y46.193 E312.60331
G1 E310.60331 F2400
G92 E0
G1 X44.23 Y46.193 F7800
G1 X31.908 Y46.193
G1 E2 F2400
G1 F4800
G1 X3.807 Y18.092 E217.9232
G1 E215.9232 F2400
G92 E0
