; generated by PrusaSlicer 2.7.2+win64 on 2024-03-19 at 06:36:24 UTC

; 

; external perimeters extrusion width = 3.00mm
; perimeters extrusion width = 3.00mm
; infill extrusion width = 3.00mm
; solid infill extrusion width = 3.00mm
; top infill extrusion width = 3.00mm
; first layer extrusion width = 3.00mm

M104 S200 ; set temperature
;TYPE:Custom
G28 ; home all axes
G1 Z5 F5000 ; lift nozzle
M109 S200 ; set temperature and wait for it to be reached
G21 ; set units to millimeters
G90 ; use absolute coordinates
M82 ; use absolute distances for extrusion
G92 E0
; Filament gcode
M107
;LAYER_CHANGE
;Z:2
;HEIGHT:2
G1 X118.5 Y48.5 F7800
G1 Z2
;TYPE:External perimeter
;WIDTH:3
G1 F1800
G1 X1.5 Y48.5 E250.10219
G1 X1.5 Y1.5 E350.57059
G1 X118.5 Y1.5 E600.67278
G1 X118.5 Y25 E650.90698
G1 X118.5 Y48.05 E700.17925
G92 E0
G1 X118.371 Y6.838 F7800
;TYPE:Internal infill
;WIDTH:3
G1 F1800
G1 X114.319 Y2.785 E12.25095
G1 X110.674 Y2.785 E20.0426
G1 X117.215 Y9.326 E39.81643
G1 X117.215 Y12.97 E47.60594
G1 X107.03 Y2.785 E78.3958
G1 X103.385 Y2.785 E86.18745
G1 X117.215 Y16.615 E127.99636
G1 X117.215 Y20.259 E135.78587
G1 X99.741 Y2.785 E188.61081
G1 X96.096 Y2.785 E196.40246
G1 X117.215 Y23.904 E260.24645
G1 X117.215 Y27.548 E268.03596
G1 X92.452 Y2.785 E342.89598
G1 X88.808 Y2.785 E350.68549
G1 X117.215 Y31.192 E436.56154
G1 X117.215 Y34.837 E444.35319
G1 X85.163 Y2.785 E541.24829
G1 X81.519 Y2.785 E549.0378
G1 X117.215 Y38.481 E656.94893
G1 X117.215 Y42.126 E664.74058
G1 X77.874 Y2.785 E783.67076
G1 X74.23 Y2.785 E791.46027
G1 X117.215 Y45.77 E921.40648
G1 X117.215 Y47.215 E924.49535
G1 X115.015 Y47.215 E929.19813
G1 X70.585 Y2.785 E1063.51266
G1 X66.941 Y2.785 E1071.30217
G1 X111.37 Y47.215 E1205.61519
G1 X107.726 Y47.215 E1213.4047
G1 X63.296 Y2.785 E1347.71923
G1 X59.652 Y2.785 E1355.50874
G1 X104.081 Y47.215 E1489.82176
G1 X100.437 Y47.215 E1497.61127
G1 X56.008 Y2.785 E1631.92429
G1 X52.363 Y2.785 E1639.71594
G1 X96.792 Y47.215 E1774.02896
G1 X93.148 Y47.215 E1781.81847
G1 X48.719 Y2.785 E1916.13149
G1 X45.074 Y2.785 E1923.92314
G1 X89.503 Y47.215 E2058.23616
G1 X85.859 Y47.215 E2066.02567
G1 X41.43 Y2.785 E2200.33869
G1 X37.785 Y2.785 E2208.13034
G1 X82.215 Y47.215 E2342.44487
G1 X78.57 Y47.215 E2350.23652
G1 X34.141 Y2.785 E2484.54954
G1 X30.496 Y2.785 E2492.34119
G1 X74.926 Y47.215 E2626.65572
G1 X71.281 Y47.215 E2634.44737
G1 X26.852 Y2.785 E2768.76039
G1 X23.208 Y2.785 E2776.5499
G1 X67.637 Y47.215 E2910.86292
G1 X63.992 Y47.215 E2918.65457
G1 X19.563 Y2.785 E3052.96759
G1 X15.919 Y2.785 E3060.7571
G1 X60.348 Y47.215 E3195.07012
G1 X56.703 Y47.215 E3202.86177
G1 X12.274 Y2.785 E3337.17479
G1 X8.63 Y2.785 E3344.9643
G1 X53.059 Y47.215 E3479.27732
G1 X49.415 Y47.215 E3487.06683
G1 X4.985 Y2.785 E3621.38136
G1 X2.785 Y2.785 E3626.08414
G1 X2.785 Y4.23 E3629.17301
G1 X45.77 Y47.215 E3759.11922
G1 X42.126 Y47.215 E3766.90873
G1 X2.785 Y7.874 E3885.83891
G1 X2.785 Y11.519 E3893.63056
G1 X38.481 Y47.215 E4001.54169
G1 X34.837 Y47.215 E4009.3312
G1 X2.785 Y15.163 E4106.2263
G1 X2.785 Y18.808 E4114.01795
G1 X31.192 Y47.215 E4199.894
G1 X27.548 Y47.215 E4207.68351
G1 X2.785 Y22.452 E4282.54353
G1 X2.785 Y26.097 E4290.33518
G1 X23.903 Y47.215 E4354.17615
G1 X20.259 Y47.215 E4361.96566
G1 X2.785 Y29.741 E4414.7906
G1 X2.785 Y33.385 E4422.58011
G1 X16.615 Y47.215 E4464.38902
G1 X12.97 Y47.215 E4472.18067
G1 X2.785 Y37.03 E4502.97053
G1 X2.785 Y40.674 E4510.76004
G1 X9.326 Y47.215 E4530.53387
G1 X5.681 Y47.215 E4538.32552
G1 X1.629 Y43.162 E4550.57647
;LAYER_CHANGE
;Z:4
;HEIGHT:2
G1 Z4 F7800
G1 X118.5 Y48.5
;TYPE:External perimeter
;WIDTH:3
G1 F1800
G1 X1.5 Y48.5 E4800.67866
G1 X1.5 Y1.5 E4901.14706
G1 X118.5 Y1.5 E5151.24925
G1 X118.5 Y25 E5201.48345
G1 X118.5 Y48.05 E5250.75572
G92 E0
G1 X113.162 Y48.371 F7800
;TYPE:Internal infill
;WIDTH:3
G1 F4800
G1 X117.215 Y44.319 E12.25095
G1 X117.215 Y40.674 E20.0426
G1 X110.674 Y47.215 E39.81643
G1 X107.03 Y47.215 E47.60594
G1 X117.215 Y37.03 E78.3958
G1 X117.215 Y33.385 E86.18745
G1 X103.385 Y47.215 E127.99636
G1 X99.741 Y47.215 E135.78587
G1 X117.215 Y29.741 E188.61081
G1 X117.215 Y26.096 E196.40246
G1 X96.096 Y47.215 E260.24645
G1 X92.452 Y47.215 E268.03596
G1 X117.215 Y22.452 E342.89598
G1 X117.215 Y18.808 E350.68549
G1 X88.808 Y47.215 E436.56154
G1 X85.163 Y47.215 E444.35319
G1 X117.215 Y15.163 E541.24829
G1 X117.215 Y11.519 E549.0378
G1 X81.519 Y47.215 E656.94893
G1 X77.874 Y47.215 E664.74058
G1 X117.215 Y7.874 E783.67076
G1 X117.215 Y4.23 E791.46027
G1 X74.23 Y47.215 E921.40648
G1 X70.585 Y47.215 E929.19813
G1 X115.015 Y2.785 E1063.51266
G1 X111.37 Y2.785 E1071.30431
G1 X66.941 Y47.215 E1205.61733
G1 X63.296 Y47.215 E1213.40898
G1 X107.726 Y2.785 E1347.72351
G1 X104.081 Y2.785 E1355.51516
G1 X59.652 Y47.215 E1489.82818
G1 X56.008 Y47.215 E1497.61769
G1 X100.437 Y2.785 E1631.93071
G1 X96.792 Y2.785 E1639.72236
G1 X52.363 Y47.215 E1774.03538
G1 X48.719 Y47.215 E1781.82489
G1 X93.148 Y2.785 E1916.13791
G1 X89.503 Y2.785 E1923.92956
G1 X45.074 Y47.215 E2058.24258
G1 X41.43 Y47.215 E2066.03209
G1 X85.859 Y2.785 E2200.34511
G1 X82.215 Y2.785 E2208.13462
G1 X37.785 Y47.215 E2342.44915
G1 X34.141 Y47.215 E2350.23866
G1 X78.57 Y2.785 E2484.55168
G1 X74.926 Y2.785 E2492.34119
G1 X30.496 Y47.215 E2626.65572
G1 X26.852 Y47.215 E2634.44523
G1 X71.281 Y2.785 E2768.75825
G1 X67.637 Y2.785 E2776.54776
G1 X23.208 Y47.215 E2910.86078
G1 X19.563 Y47.215 E2918.65243
G1 X63.992 Y2.785 E3052.96545
G1 X60.348 Y2.785 E3060.75496
G1 X15.919 Y47.215 E3195.06798
G1 X12.274 Y47.215 E3202.85963
G1 X56.703 Y2.785 E3337.17265
G1 X53.059 Y2.785 E3344.96216
G1 X8.63 Y47.215 E3479.27518
G1 X4.985 Y47.215 E3487.06683
G1 X49.415 Y2.785 E3621.38136
G1 X45.77 Y2.785 E3629.17301
G1 X2.785 Y45.77 E3759.11922
G1 X2.785 Y42.126 E3766.90873
G1 X42.126 Y2.785 E3885.83891
G1 X38.481 Y2.785 E3893.63056
G1 X2.785 Y38.481 E4001.54169
G1 X2.785 Y34.837 E4009.3312
G1 X34.837 Y2.785 E4106.2263
G1 X31.192 Y2.785 E4114.01795
G1 X2.785 Y31.192 E4199.894
G1 X2.785 Y27.548 E4207.68351
G1 X27.548 Y2.785 E4282.54353
G1 X23.903 Y2.785 E4290.33518
G1 X2.785 Y23.903 E4354.17615
G1 X2.785 Y20.259 E4361.96566
G1 X20.259 Y2.785 E4414.7906
G1 X16.615 Y2.785 E4422.58011
G1 X2.785 Y16.615 E4464.38902
G1 X2.785 Y12.97 E4472.18067
G1 X12.97 Y2.785 E4502.97053
G1 X9.326 Y2.785 E4510.76004
G1 X2.785 Y9.326 E4530.53387
G1 X2.785 Y5.681 E4538.32552
G1 X6.838 Y1.629 E4550.57647
;LAYER_CHANGE
;Z:6
;HEIGHT:2
G1 Z6 F7800
G1 X118.5 Y48.5
;TYPE:External perimeter
;WIDTH:3
G1 F1800
G1 X1.5 Y48.5 E4800.67866
G1 X1.5 Y1.5 E4901.14706
G1 X118.5 Y1.5 E5151.24925
G1 X118.5 Y25 E5201.48345
G1 X118.5 Y48.05 E5250.75572
G92 E0
G1 X118.371 Y6.838 F7800
;TYPE:Internal infill
;WIDTH:3
G1 F4800
G1 X114.319 Y2.785 E12.25095
G1 X110.674 Y2.785 E20.0426
G1 X117.215 Y9.326 E39.81643
G1 X117.215 Y12.97 E47.60594
G1 X107.03 Y2.785 E78.3958
G1 X103.385 Y2.785 E86.18745
G1 X117.215 Y16.615 E127.99636
G1 X117.215 Y20.259 E135.78587
G1 X99.741 Y2.785 E188.61081
G1 X96.096 Y2.785 E196.40246
G1 X117.215 Y23.904 E260.24645
G1 X117.215 Y27.548 E268.03596
G1 X92.452 Y2.785 E342.89598
G1 X88.808 Y2.785 E350.68549
G1 X117.215 Y31.192 E436.56154
G1 X117.215 Y34.837 E444.35319
G1 X85.163 Y2.785 E541.24829
G1 X81.519 Y2.785 E549.0378
G1 X117.215 Y38.481 E656.94893
G1 X117.215 Y42.126 E664.74058
G1 X77.874 Y2.785 E783.67076
G1 X74.23 Y2.785 E791.46027
G1 X117.215 Y45.77 E921.40648
G1 X117.215 Y47.215 E924.49535
G1 X115.015 Y47.215 E929.19813
G1 X70.585 Y2.785 E1063.51266
G1 X66.941 Y2.785 E1071.30217
G1 X111.37 Y47.215 E1205.61519
G1 X107.726 Y47.215 E1213.4047
G1 X63.296 Y2.785 E1347.71923
G1 X59.652 Y2.785 E1355.50874
G1 X104.081 Y47.215 E1489.82176
G1 X100.437 Y47.215 E1497.61127
G1 X56.008 Y2.785 E1631.92429
G1 X52.363 Y2.785 E1639.71594
G1 X96.792 Y47.215 E1774.02896
G1 X93.148 Y47.215 E1781.81847
G1 X48.719 Y2.785 E1916.13149
G1 X45.074 Y2.785 E1923.92314
G1 X89.503 Y47.215 E2058.23616
G1 X85.859 Y47.215 E2066.02567
G1 X41.43 Y2.785 E2200.33869
G1 X37.785 Y2.785 E2208.13034
G1 X82.215 Y47.215 E2342.44487
G1 X78.57 Y47.215 E2350.23652
G1 X34.141 Y2.785 E2484.54954
G1 X30.496 Y2.785 E2492.34119
G1 X74.926 Y47.215 E2626.65572
G1 X71.281 Y47.215 E2634.44737
G1 X26.852 Y2.785 E2768.76039
G1 X23.208 Y2.785 E2776.5499
G1 X67.637 Y47.215 E2910.86292
G1 X63.992 Y47.215 E2918.65457
G1 X19.563 Y2.785 E3052.96759
G1 X15.919 Y2.785 E3060.7571
G1 X60.348 Y47.215 E3195.07012
G1 X56.703 Y47.215 E3202.86177
G1 X12.274 Y2.785 E3337.17479
G1 X8.63 Y2.785 E3344.9643
G1 X53.059 Y47.215 E3479.27732
G1 X49.415 Y47.215 E3487.06683
G1 X4.985 Y2.785 E3621.38136
G1 X2.785 Y2.785 E3626.08414
G1 X2.785 Y4.23 E3629.17301
G1 X45.77 Y47.215 E3759.11922
G1 X42.126 Y47.215 E3766.90873
G1 X2.785 Y7.874 E3885.83891
G1 X2.785 Y11.519 E3893.63056
G1 X38.481 Y47.215 E4001.54169
G1 X34.837 Y47.215 E4009.3312
G1 X2.785 Y15.163 E4106.2263
G1 X2.785 Y18.808 E4114.01795
G1 X31.192 Y47.215 E4199.894
G1 X27.548 Y47.215 E4207.68351
G1 X2.785 Y22.452 E4282.54353
G1 X2.785 Y26.097 E4290.33518
G1 X23.903 Y47.215 E4354.17615
G1 X20.259 Y47.215 E4361.96566
G1 X2.785 Y29.741 E4414.7906
G1 X2.785 Y33.385 E4422.58011
G1 X16.615 Y47.215 E4464.38902
G1 X12.97 Y47.215 E4472.18067
G1 X2.785 Y37.03 E4502.97053
G1 X2.785 Y40.674 E4510.76004
G1 X9.326 Y47.215 E4530.53387
G1 X5.681 Y47.215 E4538.32552
G1 X1.629 Y43.162 E4550.57647
M106 S153
;LAYER_CHANGE
;Z:8
;HEIGHT:2
G1 Z8 F7800
G1 X118.5 Y48.5
;TYPE:External perimeter
;WIDTH:3
G1 F1800
G1 X1.5 Y48.5 E4800.67866
G1 X1.5 Y1.5 E4901.14706
G1 X118.5 Y1.5 E5151.24925
G1 X118.5 Y25 E5201.48345
G1 X118.5 Y48.05 E5250.75572
G92 E0
G1 X113.162 Y48.371 F7800
;TYPE:Internal infill
;WIDTH:3
G1 F4800
G1 X117.215 Y44.319 E12.25095
G1 X117.215 Y40.674 E20.0426
G1 X110.674 Y47.215 E39.81643
G1 X107.03 Y47.215 E47.60594
G1 X117.215 Y37.03 E78.3958
G1 X117.215 Y33.385 E86.18745
G1 X103.385 Y47.215 E127.99636
G1 X99.741 Y47.215 E135.78587
G1 X117.215 Y29.741 E188.61081
G1 X117.215 Y26.096 E196.40246
G1 X96.096 Y47.215 E260.24645
G1 X92.452 Y47.215 E268.03596
G1 X117.215 Y22.452 E342.89598
G1 X117.215 Y18.808 E350.68549
G1 X88.808 Y47.215 E436.56154
G1 X85.163 Y47.215 E444.35319
G1 X117.215 Y15.163 E541.24829
G1 X117.215 Y11.519 E549.0378
G1 X81.519 Y47.215 E656.94893
G1 X77.874 Y47.215 E664.74058
G1 X117.215 Y7.874 E783.67076
G1 X117.215 Y4.23 E791.46027
G1 X74.23 Y47.215 E921.40648
G1 X70.585 Y47.215 E929.19813
G1 X115.015 Y2.785 E1063.51266
G1 X111.37 Y2.785 E1071.30431
G1 X66.941 Y47.215 E1205.61733
G1 X63.296 Y47.215 E1213.40898
G1 X107.726 Y2.785 E1347.72351
G1 X104.081 Y2.785 E1355.51516
G1 X59.652 Y47.215 E1489.82818
G1 X56.008 Y47.215 E1497.61769
G1 X100.437 Y2.785 E1631.93071
G1 X96.792 Y2.785 E1639.72236
G1 X52.363 Y47.215 E1774.03538
G1 X48.719 Y47.215 E1781.82489
G1 X93.148 Y2.785 E1916.13791
G1 X89.503 Y2.785 E1923.92956
G1 X45.074 Y47.215 E2058.24258
G1 X41.43 Y47.215 E2066.03209
G1 X85.859 Y2.785 E2200.34511
G1 X82.215 Y2.785 E2208.13462
G1 X37.785 Y47.215 E2342.44915
G1 X34.141 Y47.215 E2350.23866
G1 X78.57 Y2.785 E2484.55168
G1 X74.926 Y2.785 E2492.34119
G1 X30.496 Y47.215 E2626.65572
G1 X26.852 Y47.215 E2634.44523
G1 X71.281 Y2.785 E2768.75825
G1 X67.637 Y2.785 E2776.54776
G1 X23.208 Y47.215 E2910.86078
G1 X19.563 Y47.215 E2918.65243
G1 X63.992 Y2.785 E3052.96545
G1 X60.348 Y2.785 E3060.75496
G1 X15.919 Y47.215 E3195.06798
G1 X12.274 Y47.215 E3202.85963
G1 X56.703 Y2.785 E3337.17265
G1 X53.059 Y2.785 E3344.96216
G1 X8.63 Y47.215 E3479.27518
G1 X4.985 Y47.215 E3487.06683
G1 X49.415 Y2.785 E3621.38136
G1 X45.77 Y2.785 E3629.17301
G1 X2.785 Y45.77 E3759.11922
G1 X2.785 Y42.126 E3766.90873
G1 X42.126 Y2.785 E3885.83891
G1 X38.481 Y2.785 E3893.63056
G1 X2.785 Y38.481 E4001.54169
G1 X2.785 Y34.837 E4009.3312
G1 X34.837 Y2.785 E4106.2263
G1 X31.192 Y2.785 E4114.01795
G1 X2.785 Y31.192 E4199.894
G1 X2.785 Y27.548 E4207.68351
G1 X27.548 Y2.785 E4282.54353
G1 X23.903 Y2.785 E4290.33518
G1 X2.785 Y23.903 E4354.17615
G1 X2.785 Y20.259 E4361.96566
G1 X20.259 Y2.785 E4414.7906
G1 X16.615 Y2.785 E4422.58011
G1 X2.785 Y16.615 E4464.38902
G1 X2.785 Y12.97 E4472.18067
G1 X12.97 Y2.785 E4502.97053
G1 X9.326 Y2.785 E4510.76004
G1 X2.785 Y9.326 E4530.53387
G1 X2.785 Y5.681 E4538.32552
G1 X6.838 Y1.629 E4550.57647
;LAYER_CHANGE
;Z:10
;HEIGHT:2
G1 Z10 F7800
G1 X118.5 Y48.5
;TYPE:External perimeter
;WIDTH:3
G1 F1800
G1 X1.5 Y48.5 E4800.67866
G1 X1.5 Y1.5 E4901.14706
G1 X118.5 Y1.5 E5151.24925
G1 X118.5 Y25 E5201.48345
G1 X118.5 Y48.05 E5250.75572
G92 E0
G1 X118.371 Y6.838 F7800
;TYPE:Internal infill
;WIDTH:3
G1 F4800
G1 X114.319 Y2.785 E12.25095
G1 X110.674 Y2.785 E20.0426
G1 X117.215 Y9.326 E39.81643
G1 X117.215 Y12.97 E47.60594
G1 X107.03 Y2.785 E78.3958
G1 X103.385 Y2.785 E86.18745
G1 X117.215 Y16.615 E127.99636
G1 X117.215 Y20.259 E135.78587
G1 X99.741 Y2.785 E188.61081
G1 X96.096 Y2.785 E196.40246
G1 X117.215 Y23.904 E260.24645
G1 X117.215 Y27.548 E268.03596
G1 X92.452 Y2.785 E342.89598
G1 X88.808 Y2.785 E350.68549
G1 X117.215 Y31.192 E436.56154
G1 X117.215 Y34.837 E444.35319
G1 X85.163 Y2.785 E541.24829
G1 X81.519 Y2.785 E549.0378
G1 X117.215 Y38.481 E656.94893
G1 X117.215 Y42.126 E664.74058
G1 X77.874 Y2.785 E783.67076
G1 X74.23 Y2.785 E791.46027
G1 X117.215 Y45.77 E921.40648
G1 X117.215 Y47.215 E924.49535
G1 X115.015 Y47.215 E929.19813
G1 X70.585 Y2.785 E1063.51266
G1 X66.941 Y2.785 E1071.30217
G1 X111.37 Y47.215 E1205.61519
G1 X107.726 Y47.215 E1213.4047
G1 X63.296 Y2.785 E1347.71923
G1 X59.652 Y2.785 E1355.50874
G1 X104.081 Y47.215 E1489.82176
G1 X100.437 Y47.215 E1497.61127
G1 X56.008 Y2.785 E1631.92429
G1 X52.363 Y2.785 E1639.71594
G1 X96.792 Y47.215 E1774.02896
G1 X93.148 Y47.215 E1781.81847
G1 X48.719 Y2.785 E1916.13149
G1 X45.074 Y2.785 E1923.92314
G1 X89.503 Y47.215 E2058.23616
G1 X85.859 Y47.215 E2066.02567
G1 X41.43 Y2.785 E2200.33869
G1 X37.785 Y2.785 E2208.13034
G1 X82.215 Y47.215 E2342.44487
G1 X78.57 Y47.215 E2350.23652
G1 X34.141 Y2.785 E2484.54954
G1 X30.496 Y2.785 E2492.34119
G1 X74.926 Y47.215 E2626.65572
G1 X71.281 Y47.215 E2634.44737
G1 X26.852 Y2.785 E2768.76039
G1 X23.208 Y2.785 E2776.5499
G1 X67.637 Y47.215 E2910.86292
G1 X63.992 Y47.215 E2918.65457
G1 X19.563 Y2.785 E3052.96759
G1 X15.919 Y2.785 E3060.7571
G1 X60.348 Y47.215 E3195.07012
G1 X56.703 Y47.215 E3202.86177
G1 X12.274 Y2.785 E3337.17479
G1 X8.63 Y2.785 E3344.9643
G1 X53.059 Y47.215 E3479.27732
G1 X49.415 Y47.215 E3487.06683
G1 X4.985 Y2.785 E3621.38136
G1 X2.785 Y2.785 E3626.08414
G1 X2.785 Y4.23 E3629.17301
G1 X45.77 Y47.215 E3759.11922
G1 X42.126 Y47.215 E3766.90873
G1 X2.785 Y7.874 E3885.83891
G1 X2.785 Y11.519 E3893.63056
G1 X38.481 Y47.215 E4001.54169
G1 X34.837 Y47.215 E4009.3312
G1 X2.785 Y15.163 E4106.2263
G1 X2.785 Y18.808 E4114.01795
G1 X31.192 Y47.215 E4199.894
G1 X27.548 Y47.215 E4207.68351
G1 X2.785 Y22.452 E4282.54353
G1 X2.785 Y26.097 E4290.33518
G1 X23.903 Y47.215 E4354.17615
G1 X20.259 Y47.215 E4361.96566
G1 X2.785 Y29.741 E4414.7906
G1 X2.785 Y33.385 E4422.58011
G1 X16.615 Y47.215 E4464.38902
G1 X12.97 Y47.215 E4472.18067
G1 X2.785 Y37.03 E4502.97053
G1 X2.785 Y40.674 E4510.76004
G1 X9.326 Y47.215 E4530.53387
G1 X5.681 Y47.215 E4538.32552
G1 X1.629 Y43.162 E4550.57647
;LAYER_CHANGE
;Z:12
;HEIGHT:2
G1 Z12 F7800
G1 X118.5 Y48.5
;TYPE:External perimeter
;WIDTH:3
G1 F1800
G1 X1.5 Y48.5 E4800.67866
G1 X1.5 Y1.5 E4901.14706
G1 X118.5 Y1.5 E5151.24925
G1 X118.5 Y25 E5201.48345
G1 X118.5 Y48.05 E5250.75572
G92 E0
G1 X113.162 Y48.371 F7800
;TYPE:Internal infill
;WIDTH:3
G1 F4800
G1 X117.215 Y44.319 E12.25095
G1 X117.215 Y40.674 E20.0426
G1 X110.674 Y47.215 E39.81643
G1 X107.03 Y47.215 E47.60594
G1 X117.215 Y37.03 E78.3958
G1 X117.215 Y33.385 E86.18745
G1 X103.385 Y47.215 E127.99636
G1 X99.741 Y47.215 E135.78587
G1 X117.215 Y29.741 E188.61081
G1 X117.215 Y26.096 E196.40246
G1 X96.096 Y47.215 E260.24645
G1 X92.452 Y47.215 E268.03596
G1 X117.215 Y22.452 E342.89598
G1 X117.215 Y18.808 E350.68549
G1 X88.808 Y47.215 E436.56154
G1 X85.163 Y47.215 E444.35319
G1 X117.215 Y15.163 E541.24829
G1 X117.215 Y11.519 E549.0378
G1 X81.519 Y47.215 E656.94893
G1 X77.874 Y47.215 E664.74058
