; generated by PrusaSlicer 2.7.2+win64 on 2024-03-20 at 07:59:40 UTC

; 

; external perimeters extrusion width = 3.00mm
; perimeters extrusion width = 3.00mm
; infill extrusion width = 3.00mm
; solid infill extrusion width = 3.00mm
; top infill extrusion width = 3.00mm
; first layer extrusion width = 3.00mm

M104 S200 ; set temperature
;TYPE:Custom
G28 ; home all axes
G1 Z5 F5000 ; lift nozzle
M109 S200 ; set temperature and wait for it to be reached
G21 ; set units to millimeters
G90 ; use absolute coordinates
M82 ; use absolute distances for extrusion
G92 E0
; Filament gcode
M107
;LAYER_CHANGE
;Z:2
;HEIGHT:2
G1 X-16.538 Y-7.522 F7800
G1 Z2
;TYPE:External perimeter
;WIDTH:3
G1 F1800
G1 X-17.384 Y-7.612 E1.81864
G1 X-18.035 Y-7.707 E3.22497
G1 X-18.683 Y-7.83 E4.63488
G1 X-19.621 Y-8.045 E6.69197
G1 X-20.251 Y-8.221 E8.09024
G1 X-21.164 Y-8.517 E10.1419
G1 X-21.778 Y-8.747 E11.54347
G1 X-22.658 Y-9.122 E13.58826
G1 X-23.257 Y-9.407 E15.00624
G1 X-23.845 Y-9.718 E16.42815
G1 X-24.673 Y-10.194 E18.46973
G1 X-25.229 Y-10.551 E19.88216
G1 X-26.008 Y-11.098 E21.91689
G1 X-26.533 Y-11.502 E23.33296
G1 X-27.258 Y-12.113 E25.3597
G1 X-27.748 Y-12.562 E26.78038
G1 X-28.414 Y-13.233 E28.80131
G1 X-28.865 Y-13.724 E30.22645
G1 X-29.449 Y-14.427 E32.18009
G1 X-30.458 Y-15.831 E35.87596
G1 X-31.024 Y-16.735 E38.15589
G1 X-56 Y-59.995 E144.93512
G1 X-56.479 Y-60.887 E147.09941
G1 X-56.763 Y-61.46 E148.46646
G1 X-57.019 Y-62.038 E149.81777
G1 X-57.382 Y-62.961 E151.9379
G1 X-57.589 Y-63.56 E153.29264
G1 X-57.772 Y-64.175 E154.66425
G1 X-58.022 Y-65.128 E156.77034
G1 X-58.212 Y-66.088 E158.86227
G1 X-58.316 Y-66.722 E160.23564
G1 X-58.391 Y-67.357 E161.60247
G1 X-58.468 Y-68.339 E163.70806
G1 X-58.489 Y-68.976 E165.07047
G1 X-58.483 Y-69.624 E166.45571
G1 X-58.443 Y-70.603 E168.55019
G1 X-58.345 Y-71.57 E170.62786
G1 X-58.256 Y-72.21 E172.00911
G1 X-58.141 Y-72.844 E173.38648
G1 X-57.927 Y-73.801 E175.48271
G1 X-57.76 Y-74.418 E176.84908
G1 X-57.462 Y-75.35 E178.94071
G1 X-57.241 Y-75.955 E180.31756
G1 X-56.992 Y-76.556 E181.70817
G1 X-56.589 Y-77.44 E183.78493
G1 X-56.135 Y-78.296 E185.85617
G1 X-55.81 Y-78.861 E187.24949
G1 X-55.465 Y-79.407 E188.63011
G1 X-54.909 Y-80.209 E190.71617
G1 X-54.52 Y-80.721 E192.09069
G1 X-53.896 Y-81.469 E194.17296
G1 X-53.461 Y-81.951 E195.56085
G1 X-53.004 Y-82.414 E196.95149
G1 X-52.302 Y-83.077 E199.01557
G1 X-51.559 Y-83.699 E201.0869
G1 X-51.043 Y-84.104 E202.48909
G1 X-50.519 Y-84.48 E203.86774
G1 X-49.704 Y-85.012 E205.94822
G1 X-49.146 Y-85.344 E207.33618
G1 X-48.572 Y-85.654 E208.73069
G1 X-47.699 Y-86.086 E210.81282
G1 X-47.109 Y-86.342 E212.18762
G1 X-46.201 Y-86.694 E214.26933
G1 X-45.59 Y-86.9 E215.64765
G1 X-44.021 Y-87.324 E219.12189
G1 X-43.072 Y-87.507 E221.18787
G1 X-42.43 Y-87.607 E222.57677
G1 X-41.785 Y-87.679 E223.9641
G1 X-40.823 Y-87.749 E226.02593
G1 X-39.849 Y-87.761 E228.10814
G1 X-39.194 Y-87.75 E229.50848
G1 X-38.554 Y-87.712 E230.87897
G1 X-37.582 Y-87.608 E232.9686
G1 X-36.942 Y-87.515 E234.35105
G1 X-36.305 Y-87.394 E235.73707
G1 X-35.361 Y-87.178 E237.80714
G1 X-34.423 Y-86.904 E239.89603
G1 X-33.805 Y-86.702 E241.28586
G1 X-33.206 Y-86.478 E242.6529
G1 X-32.303 Y-86.092 E244.75214
G1 X-31.722 Y-85.817 E246.1262
G1 X-31.152 Y-85.515 E247.5051
G1 X-30.307 Y-85.03 E249.58778
G1 X-29.488 Y-84.49 E251.68479
G1 X-28.96 Y-84.118 E253.06545
G1 X-28.456 Y-83.729 E254.42639
G1 X-27.701 Y-83.093 E256.53661
G1 X-27.232 Y-82.662 E257.8982
G1 X-26.777 Y-82.209 E259.27067
G1 X-26.107 Y-81.493 E261.3668
G1 X-25.479 Y-80.732 E263.47592
G1 X-25.087 Y-80.226 E264.84417
G1 X-24.727 Y-79.717 E266.17686
G1 X-23.954 Y-78.49 E269.27683
G1 X1.024 Y-35.226 E376.0656
G1 X1.326 Y-34.677 E377.405
G1 X2.061 Y-33.138 E381.05073
G1 X2.399 Y-32.281 E383.02001
G1 X2.616 Y-31.651 E384.44436
G1 X2.883 Y-30.743 E386.4675
G1 X3.046 Y-30.093 E387.89998
G1 X3.182 Y-29.436 E389.33417
G1 X3.338 Y-28.509 E391.34361
G1 X3.466 Y-27.219 E394.11469
G1 X3.501 Y-26.574 E395.49549
G1 X3.509 Y-25.897 E396.94276
G1 X3.502 Y-25.281 E398.25962
G1 X3.467 Y-24.624 E399.66603
G1 X3.371 Y-23.671 E401.7135
G1 X3.28 Y-23.014 E403.13133
G1 X3.162 Y-22.363 E404.5456
G1 X2.953 Y-21.427 E406.59569
G1 X2.781 Y-20.795 E407.99581
G1 X2.261 Y-19.259 E411.46226
G1 X1.89 Y-18.378 E413.50568
G1 X1.613 Y-17.782 E414.91058
G1 X1.31 Y-17.199 E416.31508
G1 X.838 Y-16.368 E418.35799
G1 X.311 Y-15.559 E420.42189
G1 X-.065 Y-15.016 E421.83373
G1 X-.457 Y-14.5 E423.21894
G1 X-1.078 Y-13.756 E425.29054
G1 X-1.516 Y-13.271 E426.68749
G1 X-1.975 Y-12.805 E428.08569
G1 X-2.674 Y-12.145 E430.1407
G1 X-3.415 Y-11.525 E432.20601
G1 X-3.933 Y-11.119 E433.61289
G1 X-4.458 Y-10.741 E434.99577
G1 X-5.272 Y-10.211 E437.07213
G1 X-5.827 Y-9.88 E438.45348
G1 X-6.684 Y-9.424 E440.52861
G1 X-7.272 Y-9.138 E441.92633
G1 X-7.869 Y-8.879 E443.31741
G1 X-8.774 Y-8.528 E445.39237
G1 X-9.387 Y-8.322 E446.77475
G1 X-10.319 Y-8.053 E448.84834
G1 X-10.948 Y-7.9 E450.23211
G1 X-11.899 Y-7.716 E452.30269
G1 X-12.546 Y-7.615 E453.70248
G1 X-13.196 Y-7.543 E455.10043
G1 X-14.161 Y-7.473 E457.16866
G1 X-14.811 Y-7.456 E458.55859
G1 X-15.776 Y-7.472 E460.62168
G1 X-16.089 Y-7.491 E461.29199
G92 E0
G1 X-16.089 Y-7.491 F7800
G1 X-31.987 Y-18.659
;TYPE:Internal infill
;WIDTH:3
G1 F1800
G1 X-26.39 Y-13.063 E16.91855
G1 X-25.246 Y-12.133 E20.07011
G1 X-24.005 Y-11.292 E23.27467
G1 X-22.13 Y-10.295 E27.81411
G1 X-20.74 Y-9.731 E31.02069
G1 X-18.782 Y-9.171 E35.37398
G1 X-33.903 Y-24.293 E81.08717
G1 X-38.98 Y-33.086 E102.79147
G1 X-14.64 Y-8.746 E176.37273
G1 X-12.716 Y-8.89 E180.49703
G1 X-11.315 Y-9.138 E183.5384
G1 X-44.057 Y-41.88 E282.51941
G1 X-49.134 Y-50.674 E304.22556
G1 X-8.481 Y-10.02 E427.1235
G1 X-7.267 Y-10.57 E429.97248
G1 X-6.01 Y-11.267 E433.04491
G1 X-54.211 Y-59.468 E578.75939
G1 X-55.337 Y-61.477 E583.68241
G1 X-55.833 Y-62.534 E586.17828
G1 X-56.534 Y-64.522 E590.68433
G1 X-56.849 Y-65.822 E593.54366
G1 X-3.858 Y-12.831 E753.7386
G1 X-2.874 Y-13.723 E756.57764
G1 X-1.985 Y-14.675 E759.36199
G1 X-57.186 Y-69.876 E926.23789
G1 X-57.068 Y-71.417 E929.54161
G1 X-56.753 Y-73.16 E933.32785
G1 X-.406 Y-16.813 E1103.66817
G1 X.181 Y-17.813 E1106.14687
G1 X.866 Y-19.257 E1109.5633
G1 X-55.844 Y-75.967 E1281.001
G1 X-55.435 Y-76.871 E1283.12199
G1 X-54.573 Y-78.413 E1286.89828
G1 X1.777 Y-22.062 E1457.24919
G1 X2.011 Y-23.217 E1459.76831
G1 X2.217 Y-25.34 E1464.3278
G1 X-52.991 Y-80.547 E1631.22335
G1 X-52.105 Y-81.496 E1633.99864
G1 X-51.118 Y-82.392 E1636.84817
G1 X1.878 Y-29.395 E1797.05973
G1 X1.391 Y-31.26 E1801.18008
G1 X.882 Y-32.625 E1804.2942
G1 X.182 Y-34.09 E1807.76495
G1 X-.766 Y-35.755 E1811.86057
G1 X-48.966 Y-83.955 E1957.57203
G1 X-47.982 Y-84.512 E1959.98906
G1 X-46.495 Y-85.202 E1963.49325
G1 X-5.843 Y-44.549 E2086.38817
G1 X-10.92 Y-53.343 E2108.09432
G1 X-43.661 Y-86.084 E2207.07231
G1 X-42.26 Y-86.332 E2210.11368
G1 X-40.327 Y-86.467 E2214.25578
G1 X-15.997 Y-62.137 E2287.80681
G1 X-21.074 Y-70.931 E2309.51296
G1 X-36.194 Y-86.05 E2355.22011
G1 X-34.229 Y-85.488 E2359.58896
G1 X-32.831 Y-84.92 E2362.8146
G1 X-30.981 Y-83.935 E2367.29481
G1 X-29.723 Y-83.083 E2370.54264
G1 X-28.576 Y-82.149 E2373.70457
G1 X-22.991 Y-76.564 E2390.58836
G92 E0
G1 X-22.991 Y-76.564 F7800
G1 X-9.097 Y8.417
;TYPE:External perimeter
;WIDTH:3
G1 F1800
G1 X-8.563 Y8.606 E1.21088
G1 X-7.662 Y8.966 E3.28493
G1 X-7.071 Y9.232 E4.67033
G1 X-6.485 Y9.528 E6.07371
G1 X-5.636 Y9.99 E8.13986
G1 X-4.819 Y10.501 E10.19977
G1 X-4.278 Y10.867 E11.59601
G1 X-3.755 Y11.254 E12.98678
G1 X-2.998 Y11.863 E15.06361
G1 X-2.513 Y12.291 E16.44632
G1 X-2.038 Y12.747 E17.85385
G1 X-1.362 Y13.438 E19.92024
G1 X-.733 Y14.163 E21.97199
G1 X-.322 Y14.673 E23.37213
G1 X.066 Y15.2 E24.77105
G1 X.604 Y15.993 E26.81949
G1 X1.095 Y16.819 E28.87357
G1 X1.417 Y17.399 E30.29165
G1 X1.709 Y17.981 E31.68355
G1 X2.1 Y18.861 E33.74199
G1 X2.343 Y19.473 E35.14957
G1 X2.56 Y20.095 E36.55777
G1 X2.841 Y21.007 E38.59772
G1 X3.068 Y21.933 E40.63577
G1 X3.206 Y22.586 E42.06247
G1 X3.314 Y23.234 E43.46676
G1 X3.455 Y24.505 E46.20035
G1 X3.496 Y25.208 E47.70565
G1 X3.507 Y25.811 E48.99485
G1 X3.508 Y26.458 E50.3779
G1 X3.454 Y27.401 E52.39698
G1 X3.393 Y28.071 E53.83511
G1 X3.305 Y28.729 E55.25419
G1 X3.138 Y29.663 E57.2824
G1 X2.994 Y30.315 E58.70972
G1 X2.82 Y30.965 E60.1481
G1 X2.545 Y31.865 E62.15977
G1 X2.23 Y32.717 E64.10152
G1 X1.519 Y34.293 E67.79739
G1 X1.019 Y35.235 E70.07711
G1 X-23.957 Y78.495 E176.85634
G1 X-24.49 Y79.356 E179.02095
G1 X-24.844 Y79.888 E180.38692
G1 X-25.217 Y80.399 E181.7393
G1 X-25.835 Y81.175 E183.85986
G1 X-26.25 Y81.653 E185.21301
G1 X-26.692 Y82.119 E186.58596
G1 X-27.396 Y82.817 E188.70514
G1 X-27.868 Y83.237 E190.05571
G1 X-28.629 Y83.867 E192.16755
G1 X-29.137 Y84.247 E193.52366
G1 X-29.95 Y84.804 E195.6303
G1 X-30.489 Y85.14 E196.98802
G1 X-31.347 Y85.622 E199.0917
G1 X-31.914 Y85.911 E200.45209
G1 X-32.809 Y86.313 E202.54939
G1 X-33.408 Y86.557 E203.93198
G1 X-34.014 Y86.773 E205.30721
G1 X-34.95 Y87.067 E207.40441
G1 X-35.568 Y87.23 E208.77064
G1 X-36.524 Y87.439 E210.86248
G1 X-37.155 Y87.549 E212.23166
G1 X-38.125 Y87.671 E214.32149
G1 X-38.77 Y87.728 E215.70563
G1 X-39.418 Y87.757 E217.0922
G1 X-40.394 Y87.763 E219.17856
G1 X-41.036 Y87.737 E220.55204
G1 X-42.008 Y87.657 E222.63684
G1 X-42.646 Y87.576 E224.01159
G1 X-43.606 Y87.409 E226.09453
G1 X-44.241 Y87.274 E227.48226
G1 X-44.871 Y87.11 E228.87385
G1 X-45.804 Y86.831 E230.95552
G1 X-46.411 Y86.617 E232.33134
G1 X-47.316 Y86.256 E234.41412
G1 X-47.904 Y85.99 E235.79368
G1 X-48.489 Y85.695 E237.19419
G1 X-49.34 Y85.232 E239.26512
G1 X-50.159 Y84.72 E241.32979
G1 X-50.699 Y84.355 E242.72306
G1 X-51.22 Y83.969 E244.10912
G1 X-51.979 Y83.358 E246.19196
G1 X-52.463 Y82.932 E247.57024
G1 X-52.936 Y82.478 E248.97172
G1 X-53.614 Y81.785 E251.04415
G1 X-54.247 Y81.055 E253.10958
G1 X-54.654 Y80.549 E254.4977
G1 X-55.039 Y80.026 E255.88593
G1 X-55.581 Y79.228 E257.94801
G1 X-56.396 Y77.818 E261.42934
G1 X-56.684 Y77.245 E262.80021
G1 X-57.08 Y76.351 E264.89034
G1 X-57.319 Y75.75 E266.27291
G1 X-57.533 Y75.138 E267.65881
G1 X-57.818 Y74.212 E269.72988
G1 X-58.049 Y73.263 E271.81772
G1 X-58.184 Y72.627 E273.20754
G1 X-58.289 Y71.996 E274.57493
G1 X-58.407 Y71.021 E276.67432
G1 X-58.458 Y70.381 E278.04674
G1 X-58.483 Y69.736 E279.42654
G1 X-58.484 Y68.753 E281.52783
G1 X-58.454 Y68.118 E282.88674
G1 X-58.368 Y67.137 E284.99179
G1 X-58.284 Y66.507 E286.35041
G1 X-58.171 Y65.87 E287.73334
G1 X-57.97 Y64.91 E289.82996
G1 X-57.712 Y63.964 E291.92601
G1 X-57.521 Y63.354 E293.29239
G1 X-57.305 Y62.755 E294.65353
G1 X-56.933 Y61.836 E296.77285
G1 X-56.673 Y61.273 E298.09847
G1 X-55.997 Y59.99 E301.19844
G1 X-31.019 Y16.726 E407.98721
G1 X-30.694 Y16.19 E409.32715
G1 X-29.729 Y14.784 E412.97245
G1 X-29.156 Y14.063 E414.94112
G1 X-28.717 Y13.558 E416.37149
G1 X-28.252 Y13.067 E417.81705
G1 X-27.583 Y12.408 E419.82442
G1 X-26.875 Y11.785 E421.84036
G1 X-26.356 Y11.361 E423.27295
G1 X-25.822 Y10.962 E424.69789
G1 X-25.037 Y10.424 E426.7322
G1 X-24.475 Y10.075 E428.14634
G1 X-23.891 Y9.745 E429.58023
G1 X-23.051 Y9.306 E431.60627
G1 X-22.185 Y8.916 E433.63651
G1 X-21.57 Y8.666 E435.05562
G1 X-20.948 Y8.443 E436.46809
G1 X-20.033 Y8.157 E438.51734
G1 X-19.4 Y7.989 E439.9173
G1 X-18.749 Y7.847 E441.34161
G1 X-17.809 Y7.671 E443.3859
G1 X-16.861 Y7.552 E445.42827
G1 X-16.213 Y7.495 E446.8188
G1 X-15.247 Y7.46 E448.8851
G1 X-14.588 Y7.458 E450.2938
G1 X-13.936 Y7.485 E451.68873
G1 X-12.972 Y7.565 E453.75648
G1 X-12.326 Y7.646 E455.1482
G1 X-11.677 Y7.757 E456.55566
G1 X-10.734 Y7.949 E458.6128
G1 X-9.803 Y8.198 E460.67288
G1 X-9.526 Y8.283 E461.29225
G92 E0
G1 X-9.526 Y8.283 F7800
G1 X1.728 Y18.341
;TYPE:Internal infill
;WIDTH:3
G1 F1800
G1 X-3.384 Y13.237 E15.44179
G1 X-5.021 Y11.916 E19.93834
G1 X-6.285 Y11.101 E23.15326
G1 X-8.165 Y10.149 E27.65787
G1 X-9.578 Y9.611 E30.88987
G1 X-11.076 Y9.192 E34.21494
G1 X1.77 Y22.038 E73.04916
G1 X2.041 Y23.417 E76.05333
G1 X2.15 Y24.313 E77.98276
G1 X2.222 Y26.146 E81.90405
G1 X-15.178 Y8.746 E134.50528
G1 X-16.724 Y8.83 E137.81492
G1 X-18.476 Y9.103 E141.60523
G1 X1.869 Y29.448 E203.10937
G1 X1.584 Y30.611 E205.66899
G1 X1.026 Y32.26 E209.39028
G1 X-21.294 Y9.941 E276.86345
G1 X-22.489 Y10.462 E279.65014
G1 X-23.749 Y11.141 E282.70974
G1 X-.169 Y34.721 E353.99348
G1 X-1.507 Y37.039 E359.71472
G1 X-25.898 Y12.647 E433.45167
G1 X-27.334 Y13.967 E437.62113
G1 X-27.771 Y14.43 E438.98207
G1 X-2.845 Y39.356 E514.33485
G1 X-4.183 Y41.674 E520.05609
G1 X-29.351 Y16.505 E596.14196
G1 X-30.724 Y18.787 E601.83489
G1 X-5.52 Y43.991 E678.02808
G1 X-6.858 Y46.308 E683.74747
G1 X-32.062 Y21.104 E759.94066
G1 X-33.4 Y23.422 E765.6619
G1 X-8.196 Y48.626 E841.85509
G1 X-9.534 Y50.943 E847.57448
G1 X-34.738 Y25.739 E923.76767
G1 X-36.076 Y28.057 E929.48891
G1 X-10.872 Y53.261 E1005.6821
G1 X-12.21 Y55.578 E1011.40149
G1 X-37.414 Y30.374 E1087.59468
G1 X-38.752 Y32.692 E1093.31592
G1 X-13.548 Y57.896 E1169.50911
G1 X-14.886 Y60.213 E1175.2285
G1 X-40.09 Y35.009 E1251.42169
G1 X-41.428 Y37.326 E1257.14108
G1 X-16.224 Y62.53 E1333.33427
G1 X-17.562 Y64.848 E1339.05551
G1 X-42.766 Y39.644 E1415.2487
G1 X-44.104 Y41.961 E1420.96809
G1 X-18.9 Y67.165 E1497.16128
G1 X-20.238 Y69.483 E1502.88252
G1 X-45.442 Y44.279 E1579.07571
G1 X-46.78 Y46.596 E1584.7951
G1 X-21.576 Y71.8 E1660.98829
G1 X-22.914 Y74.118 E1666.70953
G1 X-48.118 Y48.914 E1742.90272
G1 X-49.456 Y51.231 E1748.62211
G1 X-24.252 Y76.435 E1824.8153
G1 X-25.623 Y78.719 E1830.50969
G1 X-50.794 Y53.548 E1906.60312
G1 X-52.132 Y55.866 E1912.32436
G1 X-27.205 Y80.792 E1987.67865
G1 X-28.276 Y81.879 E1990.94062
G1 X-29.081 Y82.572 E1993.21121
G1 X-53.47 Y58.183 E2066.9406
G1 X-54.808 Y60.501 E2072.66184
G1 X-31.228 Y84.081 E2143.94558
G1 X-32.47 Y84.752 E2146.9632
G1 X-33.683 Y85.281 E2149.79199
G1 X-56.002 Y62.962 E2217.26365
G1 X-56.478 Y64.325 E2220.3498
G1 X-56.833 Y65.786 E2223.56374
G1 X-36.501 Y86.118 E2285.02858
G1 X-38.261 Y86.393 E2288.83645
G1 X-39.801 Y86.474 E2292.13294
G1 X-57.198 Y69.076 E2344.72661
G1 X-57.128 Y70.892 E2348.61142
G1 X-57.016 Y71.813 E2350.59468
G1 X-56.745 Y73.185 E2353.58417
G1 X-43.898 Y86.033 E2392.42292
G1 X-45.406 Y85.609 E2395.77145
G1 X-46.813 Y85.073 E2398.98994
G1 X-48.692 Y84.122 E2403.49168
G1 X-49.956 Y83.306 E2406.70776
G1 X-51.592 Y81.986 E2411.2013
G1 X-56.704 Y76.881 E2426.6446
G92 E0
G1 X-56.704 Y76.881 F7800
G1 X11.469 Y-.106
;TYPE:External perimeter
;WIDTH:3
G1 F1800
G1 X11.503 Y-1.076 E2.07477
G1 X11.55 Y-1.729 E3.47425
G1 X11.624 Y-2.375 E4.86419
G1 X11.773 Y-3.335 E6.94088
G1 X11.901 Y-3.969 E8.32348
G1 X12.058 Y-4.609 E9.73212
G1 X12.318 Y-5.54 E11.7984
G1 X12.631 Y-6.447 E13.84943
G1 X12.868 Y-7.057 E15.24834
G1 X13.13 Y-7.657 E16.64786
G1 X13.548 Y-8.519 E18.69571
G1 X14.018 Y-9.358 E20.75141
G1 X14.359 Y-9.927 E22.16942
G1 X14.717 Y-10.47 E23.55972
G1 X15.284 Y-11.249 E25.61932
G1 X15.692 Y-11.765 E27.02548
G1 X16.122 Y-12.265 E28.43518
G1 X16.772 Y-12.964 E30.47558
G1 X17.461 Y-13.623 E32.51363
G1 X17.957 Y-14.069 E33.9395
G1 X18.464 Y-14.487 E35.34412
G1 X19.229 Y-15.061 E37.38855
G1 X19.771 Y-15.435 E38.79621
G1 X20.581 Y-15.938 E40.83438
G1 X21.155 Y-16.265 E42.24652
G1 X22.003 Y-16.692 E44.27606
G1 X22.613 Y-16.974 E45.71261
G1 X23.227 Y-17.227 E47.13217
G1 X24.119 Y-17.549 E49.15936
G1 X24.753 Y-17.749 E50.58045
G1 X25.667 Y-17.99 E52.60102
G1 X26.318 Y-18.136 E54.02718
G1 X27.219 Y-18.29 E55.98111
G1 X28.741 Y-18.444 E59.25119
G1 X29.451 Y-18.49 E60.77209
G1 X79.955 Y-18.5 E168.73073
G1 X80.97 Y-18.469 E170.90143
G1 X81.607 Y-18.428 E172.26592
G1 X82.236 Y-18.361 E173.61809
G1 X83.217 Y-18.214 E175.73851
G1 X83.836 Y-18.094 E177.08634
G1 X84.797 Y-17.86 E179.20062
G1 X85.411 Y-17.686 E180.56481
G1 X86.019 Y-17.484 E181.93434
G1 X86.945 Y-17.14 E184.04595
G1 X87.528 Y-16.89 E185.40193
G1 X88.417 Y-16.465 E187.50827
G1 X88.978 Y-16.165 E188.86818
G1 X89.824 Y-15.664 E190.96993
G1 X90.358 Y-15.317 E192.33126
G1 X91.154 Y-14.743 E194.42907
G1 X91.664 Y-14.346 E195.81063
G1 X92.155 Y-13.93 E197.18627
G1 X92.877 Y-13.266 E199.28308
G1 X93.328 Y-12.812 E200.65102
G1 X93.986 Y-12.089 E202.74075
